(.../eagle/ULP/pcb-gcode-3/pcb-gcode.ulp)
(Copyright 2005 - 2012 by John Johnson)
(See readme.txt for licensing terms.)
(This file generated from the board:)
(.../ReflowController/reflow_controller.brd)
(Current profile is .../pcb-gcode-3/profiles/mach.pp  )
(This file generated 08/09/2015 19:40)
(Settings from pcb-machine.h)
(spindle on time = 5.0000)
(  Tool Size)
(0.1200  )
(spindle speed = 30000.0000)
(tool change at 0.0000  0.0000  15.0000 )
(feed rate xy = F350   )
(feed rate z  = F200   )
(Z Axis Settings)
(  High     Up        Down     Drill)
(5.0000  	2.0000  	-0.1500 	-2.0000 )
(Settings from pcb-defaults.h)
(isolate min = 0.0010)
(isolate max = 0.3000)
(isolate step = 0.1000)
(Generated top outlines, top drill, bottom outlines, bottom drill, )
(Unit of measure: mm)
(Metric Mode)
G21
(Absolute Coordinates)
G90
S30000
G00 Z5.0000  
G00 X0.0000  Y0.0000  
M03
G04 P5.000000
G00 Z2.0000  
G00 X1.0586  Y1.1078  
G01 Z-0.1500 F200   
G01 X1.0238  Y1.1680  F350   
G01 X1.0058  Y1.2352  
G01 X1.0058  Y3.2408  
G01 X1.0108  Y3.2596  
G01 X1.0238  Y3.3080  
G01 X1.0575  Y3.3664  
G01 X1.1078  Y3.4174  
G01 X1.1680  Y3.4522  
G01 X1.2352  Y3.4702  
G01 X1.3048  Y3.4702  
G01 X1.3236  Y3.4652  
G01 X1.3720  Y3.4522  
G01 X1.4304  Y3.4185  
G01 X1.4814  Y3.3682  
G01 X1.5139  Y3.3119  
G01 X1.5162  Y3.3080  
G01 X1.7655  Y2.8762  
G01 X2.2412  Y2.4005  
G01 X2.8238  Y2.0641  
G01 X3.4736  Y1.8900  
G01 X4.1464  Y1.8900  
G01 X4.7962  Y2.0641  
G01 X5.3788  Y2.4005  
G01 X5.8545  Y2.8762  
G01 X6.1909  Y3.4588  
G01 X6.3367  Y4.0031  
G01 X6.3371  Y4.0101  
G01 X6.3457  Y4.0366  
G01 X6.3529  Y4.0635  
G01 X6.3564  Y4.0696  
G01 X6.3586  Y4.0762  
G01 X6.3738  Y4.0996  
G01 X6.3877  Y4.1237  
G01 X6.3926  Y4.1287  
G01 X6.3965  Y4.1346  
G01 X6.4172  Y4.1532  
G01 X6.4369  Y4.1729  
G01 X6.4429  Y4.1764  
G01 X6.4482  Y4.1811  
G01 X6.4730  Y4.1938  
G01 X6.4971  Y4.2077  
G01 X6.5039  Y4.2095  
G01 X6.5101  Y4.2127  
G01 X6.5374  Y4.2185  
G01 X6.5643  Y4.2257  
G01 X6.5713  Y4.2257  
G01 X6.5782  Y4.2272  
G01 X6.6060  Y4.2257  
G01 X6.6339  Y4.2257  
G01 X6.6406  Y4.2239  
G01 X6.6477  Y4.2235  
G01 X6.6742  Y4.2149  
G01 X6.7011  Y4.2077  
G01 X6.7071  Y4.2042  
G01 X6.7138  Y4.2020  
G01 X6.7372  Y4.1868  
G01 X6.7613  Y4.1729  
G01 X6.7663  Y4.1680  
G01 X6.7722  Y4.1641  
G01 X6.7908  Y4.1434  
G01 X6.8105  Y4.1237  
G01 X6.8140  Y4.1177  
G01 X6.8187  Y4.1124  
G01 X6.8313  Y4.0876  
G01 X6.8453  Y4.0635  
G01 X6.8471  Y4.0567  
G01 X6.8901  Y3.9723  
G01 X6.9691  Y3.8636  
G01 X7.0640  Y3.7687  
G01 X7.1727  Y3.6897  
G01 X7.2924  Y3.6287  
G01 X7.3558  Y3.6081  
G01 X7.3558  Y3.7482  
G01 X7.2783  Y3.7803  
G01 X7.1601  Y3.8592  
G01 X7.0597  Y3.9597  
G01 X6.9807  Y4.0779  
G01 X6.9263  Y4.2092  
G01 X6.8986  Y4.3485  
G01 X6.8986  Y5.8114  
G01 X6.9263  Y5.9508  
G01 X6.9807  Y6.0821  
G01 X7.0597  Y6.2003  
G01 X7.1601  Y6.3007  
G01 X7.2783  Y6.3797  
G01 X7.3558  Y6.4118  
G01 X7.3558  Y6.5519  
G01 X7.2924  Y6.5313  
G01 X7.1727  Y6.4703  
G01 X7.0640  Y6.3913  
G01 X6.9691  Y6.2964  
G01 X6.8901  Y6.1877  
G01 X6.8291  Y6.0680  
G01 X6.7876  Y5.9402  
G01 X6.7666  Y5.8076  
G01 X6.7666  Y5.2546  
G01 X6.7616  Y5.2358  
G01 X6.7486  Y5.1874  
G01 X6.7149  Y5.1289  
G01 X6.6646  Y5.0779  
G01 X6.6044  Y5.0432  
G01 X6.6015  Y5.0424  
G01 X6.5372  Y5.0252  
G01 X6.4676  Y5.0252  
G01 X6.4488  Y5.0302  
G01 X6.4004  Y5.0432  
G01 X6.3420  Y5.0769  
G01 X6.2910  Y5.1271  
G01 X6.2562  Y5.1874  
G01 X6.1909  Y5.4312  
G01 X5.8545  Y6.0138  
G01 X5.3788  Y6.4895  
G01 X4.7962  Y6.8259  
G01 X4.1464  Y7.0000  
G01 X3.4736  Y7.0000  
G01 X2.8238  Y6.8259  
G01 X2.2412  Y6.4895  
G01 X1.7655  Y6.0138  
G01 X1.5162  Y5.5820  
G01 X1.5120  Y5.5748  
G01 X1.4814  Y5.5218  
G01 X1.4322  Y5.4726  
G01 X1.3720  Y5.4378  
G01 X1.3220  Y5.4244  
G01 X1.3048  Y5.4198  
G01 X1.2352  Y5.4198  
G01 X1.1680  Y5.4378  
G01 X1.1078  Y5.4726  
G01 X1.0586  Y5.5218  
G01 X1.0238  Y5.5820  
G01 X1.0104  Y5.6320  
G01 X1.0058  Y5.6492  
G01 X1.0058  Y53.3748 
G01 X1.0238  Y53.4420 
G01 X1.0586  Y53.5022 
G01 X1.1078  Y53.5514 
G01 X1.1680  Y53.5862 
G01 X1.2352  Y53.6042 
G01 X38.1348 Y53.6042 
G01 X38.2020 Y53.5862 
G01 X38.2622 Y53.5514 
G01 X38.3114 Y53.5022 
G01 X38.3462 Y53.4420 
G01 X38.3642 Y53.3748 
G01 X38.3642 Y5.6492  
G01 X38.3592 Y5.6304  
G01 X38.3462 Y5.5820  
G01 X38.3125 Y5.5236  
G01 X38.3106 Y5.5210  
G01 X38.2622 Y5.4726  
G01 X38.2033 Y5.4386  
G01 X38.1348 Y5.4198  
G01 X38.0652 Y5.4198  
G01 X38.0464 Y5.4248  
G01 X37.9980 Y5.4378  
G01 X37.9396 Y5.4715  
G01 X37.9370 Y5.4733  
G01 X37.8886 Y5.5218  
G01 X37.8538 Y5.5820  
G01 X37.6045 Y6.0138  
G01 X37.1288 Y6.4895  
G01 X36.5462 Y6.8259  
G01 X35.8964 Y7.0000  
G01 X35.2236 Y7.0000  
G01 X34.5738 Y6.8259  
G01 X33.9912 Y6.4895  
G01 X33.5155 Y6.0138  
G01 X33.1791 Y5.4312  
G01 X33.0050 Y4.7814  
G01 X33.0050 Y4.1086  
G01 X33.1791 Y3.4588  
G01 X33.5155 Y2.8762  
G01 X33.9912 Y2.4005  
G01 X34.5738 Y2.0641  
G01 X35.2236 Y1.8900  
G01 X35.8964 Y1.8900  
G01 X36.5462 Y2.0641  
G01 X37.1288 Y2.4005  
G01 X37.6045 Y2.8762  
G01 X37.8538 Y3.3080  
G01 X37.8886 Y3.3682  
G01 X37.9378 Y3.4174  
G01 X37.9980 Y3.4522  
G01 X38.0480 Y3.4656  
G01 X38.0652 Y3.4702  
G01 X38.1348 Y3.4702  
G01 X38.2020 Y3.4522  
G01 X38.2622 Y3.4174  
G01 X38.3114 Y3.3682  
G01 X38.3462 Y3.3080  
G01 X38.3596 Y3.2580  
G01 X38.3642 Y3.2408  
G01 X38.3642 Y1.2352  
G01 X38.3462 Y1.1680  
G01 X38.3114 Y1.1078  
G01 X38.2622 Y1.0586  
G01 X38.2020 Y1.0238  
G01 X38.1348 Y1.0058  
G01 X1.2352  Y1.0058  
G01 X1.1680  Y1.0238  
G01 X1.1078  Y1.0586  
G01 X1.0586  Y1.1078  
G00 Z2.0000  
G00 X7.8842  Y3.6081  
G01 Z-0.1500 F200   
G01 X7.9476  Y3.6287  F350   
G01 X8.0673  Y3.6897  
G01 X8.1760  Y3.7687  
G01 X8.2709  Y3.8636  
G01 X8.3499  Y3.9723  
G01 X8.4109  Y4.0920  
G01 X8.4524  Y4.2198  
G01 X8.4734  Y4.3524  
G01 X8.4734  Y4.8158  
G01 X8.3414  Y4.8158  
G01 X8.3414  Y4.3485  
G01 X8.3137  Y4.2092  
G01 X8.2593  Y4.0779  
G01 X8.1803  Y3.9597  
G01 X8.0799  Y3.8592  
G01 X7.9617  Y3.7803  
G01 X7.8842  Y3.7482  
G01 X7.8842  Y3.6081  
G00 Z2.0000  
G00 X9.7043  Y3.7377  
G01 Z-0.1500 F200   
G01 X10.0000 Y3.6152  F350   
G01 X10.3200 Y3.6152  
G01 X10.6157 Y3.7377  
G01 X10.8419 Y3.9639  
G01 X10.9644 Y4.2596  
G01 X10.9644 Y5.9004  
G01 X10.8419 Y6.1961  
G01 X10.6157 Y6.4223  
G01 X10.3200 Y6.5448  
G01 X10.0000 Y6.5448  
G01 X9.7043  Y6.4223  
G01 X9.4781  Y6.1961  
G01 X9.3556  Y5.9004  
G01 X9.3556  Y4.2596  
G01 X9.4781  Y3.9639  
G01 X9.7043  Y3.7377  
G00 Z2.0000  
G00 X9.7001  Y3.8592  
G01 Z-0.1500 F200   
G01 X9.5997  Y3.9597  F350   
G01 X9.5207  Y4.0779  
G01 X9.4663  Y4.2092  
G01 X9.4386  Y4.3485  
G01 X9.4386  Y5.8114  
G01 X9.4663  Y5.9508  
G01 X9.5207  Y6.0821  
G01 X9.5997  Y6.2003  
G01 X9.7001  Y6.3007  
G01 X9.8183  Y6.3797  
G01 X9.9496  Y6.4341  
G01 X10.0889 Y6.4618  
G01 X10.2310 Y6.4618  
G01 X10.3704 Y6.4341  
G01 X10.5017 Y6.3797  
G01 X10.6199 Y6.3007  
G01 X10.7203 Y6.2003  
G01 X10.7993 Y6.0821  
G01 X10.8537 Y5.9508  
G01 X10.8814 Y5.8114  
G01 X10.8814 Y4.3485  
G01 X10.8537 Y4.2092  
G01 X10.7993 Y4.0779  
G01 X10.7203 Y3.9597  
G01 X10.6199 Y3.8592  
G01 X10.5017 Y3.7803  
G01 X10.3704 Y3.7259  
G01 X10.2310 Y3.6982  
G01 X10.0889 Y3.6982  
G01 X9.9496  Y3.7259  
G01 X9.8183  Y3.7803  
G01 X9.7001  Y3.8592  
G00 Z2.0000  
G00 X12.0181 Y3.9639  
G01 Z-0.1500 F200   
G01 X12.2443 Y3.7377  F350   
G01 X12.5400 Y3.6152  
G01 X12.8600 Y3.6152  
G01 X13.1557 Y3.7377  
G01 X13.3819 Y3.9639  
G01 X13.5044 Y4.2596  
G01 X13.5044 Y5.9004  
G01 X13.3819 Y6.1961  
G01 X13.1557 Y6.4223  
G01 X12.8600 Y6.5448  
G01 X12.5400 Y6.5448  
G01 X12.2443 Y6.4223  
G01 X12.0181 Y6.1961  
G01 X11.8956 Y5.9004  
G01 X11.8956 Y4.2596  
G01 X12.0181 Y3.9639  
G00 Z2.0000  
G00 X12.1396 Y3.9597  
G01 Z-0.1500 F200   
G01 X12.0607 Y4.0779  F350   
G01 X12.0063 Y4.2092  
G01 X11.9786 Y4.3485  
G01 X11.9786 Y5.8114  
G01 X12.0063 Y5.9508  
G01 X12.0607 Y6.0821  
G01 X12.1396 Y6.2003  
G01 X12.2401 Y6.3007  
G01 X12.3583 Y6.3797  
G01 X12.4896 Y6.4341  
G01 X12.6289 Y6.4618  
G01 X12.7711 Y6.4618  
G01 X12.9104 Y6.4341  
G01 X13.0417 Y6.3797  
G01 X13.1599 Y6.3007  
G01 X13.2603 Y6.2003  
G01 X13.3393 Y6.0821  
G01 X13.3937 Y5.9508  
G01 X13.4214 Y5.8114  
G01 X13.4214 Y4.3485  
G01 X13.3937 Y4.2092  
G01 X13.3393 Y4.0779  
G01 X13.2603 Y3.9597  
G01 X13.1599 Y3.8592  
G01 X13.0417 Y3.7803  
G01 X12.9104 Y3.7259  
G01 X12.7711 Y3.6982  
G01 X12.6289 Y3.6982  
G01 X12.4896 Y3.7259  
G01 X12.3583 Y3.7803  
G01 X12.2401 Y3.8592  
G01 X12.1396 Y3.9597  
G00 Z2.0000  
G00 X14.5101 Y3.9723  
G01 Z-0.1500 F200   
G01 X14.5891 Y3.8636  F350   
G01 X14.6840 Y3.7687  
G01 X14.7927 Y3.6897  
G01 X14.9124 Y3.6287  
G01 X14.9758 Y3.6081  
G01 X14.9758 Y3.7482  
G01 X14.8983 Y3.7803  
G01 X14.7801 Y3.8592  
G01 X14.6797 Y3.9597  
G01 X14.6007 Y4.0779  
G01 X14.5463 Y4.2092  
G01 X14.5186 Y4.3485  
G01 X14.5186 Y4.8158  
G01 X14.3866 Y4.8158  
G01 X14.3866 Y4.3524  
G01 X14.4076 Y4.2198  
G01 X14.4491 Y4.0920  
G01 X14.5101 Y3.9723  
G00 Z2.0000  
G00 X15.5042 Y3.7482  
G01 Z-0.1500 F200   
G01 X15.5042 Y3.6081  F350   
G01 X15.5676 Y3.6287  
G01 X15.6873 Y3.6897  
G01 X15.7960 Y3.7687  
G01 X15.8909 Y3.8636  
G01 X15.9699 Y3.9723  
G01 X16.0309 Y4.0920  
G01 X16.0724 Y4.2198  
G01 X16.0934 Y4.3524  
G01 X16.0934 Y4.8158  
G01 X15.9614 Y4.8158  
G01 X15.9614 Y4.3485  
G01 X15.9337 Y4.2092  
G01 X15.8793 Y4.0779  
G01 X15.8003 Y3.9597  
G01 X15.6999 Y3.8592  
G01 X15.5817 Y3.7803  
G01 X15.5042 Y3.7482  
G00 Z2.0000  
G00 X17.0981 Y3.9639  
G01 Z-0.1500 F200   
G01 X17.3243 Y3.7377  F350   
G01 X17.6200 Y3.6152  
G01 X17.9400 Y3.6152  
G01 X18.2357 Y3.7377  
G01 X18.4619 Y3.9639  
G01 X18.5844 Y4.2596  
G01 X18.5844 Y5.9004  
G01 X18.4619 Y6.1961  
G01 X18.2357 Y6.4223  
G01 X17.9400 Y6.5448  
G01 X17.6200 Y6.5448  
G01 X17.3243 Y6.4223  
G01 X17.0981 Y6.1961  
G01 X16.9756 Y5.9004  
G01 X16.9756 Y4.2596  
G01 X17.0981 Y3.9639  
G00 Z2.0000  
G00 X17.2197 Y3.9597  
G01 Z-0.1500 F200   
G01 X17.1407 Y4.0779  F350   
G01 X17.0863 Y4.2092  
G01 X17.0586 Y4.3485  
G01 X17.0586 Y5.8114  
G01 X17.0863 Y5.9508  
G01 X17.1407 Y6.0821  
G01 X17.2197 Y6.2003  
G01 X17.3201 Y6.3007  
G01 X17.4383 Y6.3797  
G01 X17.5696 Y6.4341  
G01 X17.7089 Y6.4618  
G01 X17.8511 Y6.4618  
G01 X17.9904 Y6.4341  
G01 X18.1217 Y6.3797  
G01 X18.2399 Y6.3007  
G01 X18.3403 Y6.2003  
G01 X18.4193 Y6.0821  
G01 X18.4737 Y5.9508  
G01 X18.5014 Y5.8114  
G01 X18.5014 Y4.3485  
G01 X18.4737 Y4.2092  
G01 X18.4193 Y4.0779  
G01 X18.3403 Y3.9597  
G01 X18.2399 Y3.8592  
G01 X18.1217 Y3.7803  
G01 X17.9904 Y3.7259  
G01 X17.8511 Y3.6982  
G01 X17.7089 Y3.6982  
G01 X17.5696 Y3.7259  
G01 X17.4383 Y3.7803  
G01 X17.3201 Y3.8592  
G01 X17.2197 Y3.9597  
G00 Z2.0000  
G00 X19.6381 Y3.9639  
G01 Z-0.1500 F200   
G01 X19.8643 Y3.7377  F350   
G01 X20.1600 Y3.6152  
G01 X20.4800 Y3.6152  
G01 X20.7757 Y3.7377  
G01 X21.0019 Y3.9639  
G01 X21.1244 Y4.2596  
G01 X21.1244 Y5.9004  
G01 X21.0019 Y6.1961  
G01 X20.7757 Y6.4223  
G01 X20.4800 Y6.5448  
G01 X20.1600 Y6.5448  
G01 X19.8643 Y6.4223  
G01 X19.6381 Y6.1961  
G01 X19.5156 Y5.9004  
G01 X19.5156 Y4.2596  
G01 X19.6381 Y3.9639  
G00 Z2.0000  
G00 X19.7597 Y3.9597  
G01 Z-0.1500 F200   
G01 X19.6807 Y4.0779  F350   
G01 X19.6263 Y4.2092  
G01 X19.5986 Y4.3485  
G01 X19.5986 Y5.8114  
G01 X19.6263 Y5.9508  
G01 X19.6807 Y6.0821  
G01 X19.7597 Y6.2003  
G01 X19.8601 Y6.3007  
G01 X19.9783 Y6.3797  
G01 X20.1096 Y6.4341  
G01 X20.2489 Y6.4618  
G01 X20.3910 Y6.4618  
G01 X20.5304 Y6.4341  
G01 X20.6617 Y6.3797  
G01 X20.7799 Y6.3007  
G01 X20.8803 Y6.2003  
G01 X20.9593 Y6.0821  
G01 X21.0137 Y5.9508  
G01 X21.0414 Y5.8114  
G01 X21.0414 Y4.3485  
G01 X21.0137 Y4.2092  
G01 X20.9593 Y4.0779  
G01 X20.8803 Y3.9597  
G01 X20.7799 Y3.8592  
G01 X20.6617 Y3.7803  
G01 X20.5304 Y3.7259  
G01 X20.3910 Y3.6982  
G01 X20.2489 Y3.6982  
G01 X20.1096 Y3.7259  
G01 X19.9783 Y3.7803  
G01 X19.8601 Y3.8592  
G01 X19.7597 Y3.9597  
G00 Z2.0000  
G00 X22.1301 Y3.9723  
G01 Z-0.1500 F200   
G01 X22.2091 Y3.8636  F350   
G01 X22.3040 Y3.7687  
G01 X22.4127 Y3.6897  
G01 X22.5324 Y3.6287  
G01 X22.5958 Y3.6081  
G01 X22.5958 Y3.7482  
G01 X22.5183 Y3.7803  
G01 X22.4001 Y3.8592  
G01 X22.2996 Y3.9597  
G01 X22.2207 Y4.0779  
G01 X22.1663 Y4.2092  
G01 X22.1386 Y4.3485  
G01 X22.1386 Y4.8158  
G01 X22.0066 Y4.8158  
G01 X22.0066 Y4.3524  
G01 X22.0276 Y4.2198  
G01 X22.0691 Y4.0920  
G01 X22.1301 Y3.9723  
G00 Z2.0000  
G00 X23.1242 Y3.7482  
G01 Z-0.1500 F200   
G01 X23.1242 Y3.6081  F350   
G01 X23.1876 Y3.6287  
G01 X23.3073 Y3.6897  
G01 X23.4160 Y3.7687  
G01 X23.5109 Y3.8636  
G01 X23.5899 Y3.9723  
G01 X23.6509 Y4.0920  
G01 X23.6924 Y4.2198  
G01 X23.7134 Y4.3524  
G01 X23.7134 Y4.8158  
G01 X23.5814 Y4.8158  
G01 X23.5814 Y4.3485  
G01 X23.5537 Y4.2092  
G01 X23.4993 Y4.0779  
G01 X23.4203 Y3.9597  
G01 X23.3199 Y3.8592  
G01 X23.2017 Y3.7803  
G01 X23.1242 Y3.7482  
G00 Z2.0000  
G00 X23.5814 Y5.3442  
G01 Z-0.1500 F200   
G01 X23.7134 Y5.3442  F350   
G01 X23.7134 Y5.8076  
G01 X23.6924 Y5.9402  
G01 X23.6509 Y6.0680  
G01 X23.5899 Y6.1877  
G01 X23.5109 Y6.2964  
G01 X23.4160 Y6.3913  
G01 X23.3073 Y6.4703  
G01 X23.1876 Y6.5313  
G01 X23.1242 Y6.5519  
G01 X23.1242 Y6.4118  
G01 X23.2017 Y6.3797  
G01 X23.3199 Y6.3007  
G01 X23.4203 Y6.2003  
G01 X23.4993 Y6.0821  
G01 X23.5537 Y5.9508  
G01 X23.5814 Y5.8114  
G01 X23.5814 Y5.3442  
G00 Z2.0000  
G00 X22.1386 Y5.3442  
G01 Z-0.1500 F200   
G01 X22.1386 Y5.8114  F350   
G01 X22.1663 Y5.9508  
G01 X22.2207 Y6.0821  
G01 X22.2996 Y6.2003  
G01 X22.4001 Y6.3007  
G01 X22.5183 Y6.3797  
G01 X22.5958 Y6.4118  
G01 X22.5958 Y6.5519  
G01 X22.5324 Y6.5313  
G01 X22.4127 Y6.4703  
G01 X22.3040 Y6.3913  
G01 X22.2091 Y6.2964  
G01 X22.1301 Y6.1877  
G01 X22.0691 Y6.0680  
G01 X22.0276 Y5.9402  
G01 X22.0066 Y5.8076  
G01 X22.0066 Y5.3442  
G01 X22.1386 Y5.3442  
G00 Z2.0000  
G00 X26.9190 Y5.5210  
G01 Z-0.1500 F200   
G01 X27.0517 Y5.5210  F350   
G01 X27.0524 Y5.5255  
G01 X27.1284 Y5.7592  
G01 X27.2399 Y5.9781  
G01 X27.3843 Y6.1769  
G01 X27.5581 Y6.3507  
G01 X27.7569 Y6.4951  
G01 X27.9758 Y6.6066  
G01 X28.2095 Y6.6826  
G01 X28.2140 Y6.6833  
G01 X28.2140 Y6.8160  
G01 X28.0296 Y6.7666  
G01 X27.8246 Y6.6817  
G01 X27.6324 Y6.5707  
G01 X27.4563 Y6.4356  
G01 X27.2994 Y6.2787  
G01 X27.1643 Y6.1026  
G01 X27.0533 Y5.9104  
G01 X26.9684 Y5.7054  
G01 X26.9190 Y5.5210  
G00 Z2.0000  
G00 X26.9190 Y4.7990  
G01 Z-0.1500 F200   
G01 X26.9684 Y4.6146  F350   
G01 X27.0533 Y4.4096  
G01 X27.1643 Y4.2174  
G01 X27.2994 Y4.0413  
G01 X27.4563 Y3.8844  
G01 X27.6324 Y3.7493  
G01 X27.8246 Y3.6383  
G01 X28.0296 Y3.5534  
G01 X28.2140 Y3.5040  
G01 X28.2140 Y3.6367  
G01 X28.2095 Y3.6374  
G01 X27.9758 Y3.7134  
G01 X27.7569 Y3.8249  
G01 X27.5581 Y3.9693  
G01 X27.3843 Y4.1431  
G01 X27.2399 Y4.3419  
G01 X27.1284 Y4.5608  
G01 X27.0524 Y4.7945  
G01 X27.0517 Y4.7990  
G01 X26.9190 Y4.7990  
G00 Z2.0000  
G00 X28.9360 Y3.6367  
G01 Z-0.1500 F200   
G01 X28.9360 Y3.5040  F350   
G01 X29.1203 Y3.5534  
G01 X29.3254 Y3.6383  
G01 X29.5176 Y3.7493  
G01 X29.6937 Y3.8844  
G01 X29.8506 Y4.0413  
G01 X29.9857 Y4.2174  
G01 X30.0967 Y4.4096  
G01 X30.1816 Y4.6146  
G01 X30.2310 Y4.7990  
G01 X30.0983 Y4.7990  
G01 X30.0976 Y4.7945  
G01 X30.0216 Y4.5608  
G01 X29.9101 Y4.3419  
G01 X29.7657 Y4.1431  
G01 X29.5919 Y3.9693  
G01 X29.3931 Y3.8249  
G01 X29.1742 Y3.7134  
G01 X28.9405 Y3.6374  
G01 X28.9360 Y3.6367  
G00 Z2.0000  
G00 X30.0983 Y5.5210  
G01 Z-0.1500 F200   
G01 X30.2310 Y5.5210  F350   
G01 X30.1816 Y5.7054  
G01 X30.0967 Y5.9104  
G01 X29.9857 Y6.1026  
G01 X29.8506 Y6.2787  
G01 X29.6937 Y6.4356  
G01 X29.5176 Y6.5707  
G01 X29.3254 Y6.6817  
G01 X29.1204 Y6.7666  
G01 X28.9360 Y6.8160  
G01 X28.9360 Y6.6833  
G01 X28.9405 Y6.6826  
G01 X29.1742 Y6.6066  
G01 X29.3931 Y6.4951  
G01 X29.5919 Y6.3507  
G01 X29.7657 Y6.1769  
G01 X29.9101 Y5.9781  
G01 X30.0216 Y5.7592  
G01 X30.0976 Y5.5255  
G01 X30.0983 Y5.5210  
G00 Z2.0000  
G00 X29.5062 Y8.7663  
G01 Z-0.1500 F200   
G01 X29.9687 Y9.2287  F350   
G01 X30.2190 Y9.8330  
G01 X30.2190 Y10.4870 
G01 X29.9687 Y11.0912 
G01 X29.5062 Y11.5537 
G01 X28.9020 Y11.8040 
G01 X28.2480 Y11.8040 
G01 X27.6437 Y11.5537 
G01 X27.1813 Y11.0912 
G01 X27.0951 Y10.8831 
G01 X27.0905 Y10.8662 
G01 X27.0818 Y10.8511 
G01 X27.0751 Y10.8350 
G01 X27.0645 Y10.8211 
G01 X27.0558 Y10.8060 
G01 X27.0434 Y10.7936 
G01 X27.0328 Y10.7798 
G01 X27.0189 Y10.7691 
G01 X27.0066 Y10.7568 
G01 X26.9914 Y10.7480 
G01 X26.9776 Y10.7374 
G01 X26.9615 Y10.7307 
G01 X26.9463 Y10.7220 
G01 X26.9294 Y10.7175 
G01 X26.9133 Y10.7108 
G01 X26.8960 Y10.7085 
G01 X26.8791 Y10.7040 
G01 X26.8617 Y10.7040 
G01 X26.8443 Y10.7017 
G01 X26.8270 Y10.7040 
G01 X24.4300 Y10.7040 
G01 X24.3628 Y10.7220 
G01 X24.3025 Y10.7568 
G01 X23.6595 Y11.3998 
G01 X23.6457 Y11.4104 
G01 X23.6350 Y11.4243 
G01 X23.6227 Y11.4366 
G01 X23.6139 Y11.4518 
G01 X23.6033 Y11.4656 
G01 X23.5966 Y11.4818 
G01 X23.5879 Y11.4969 
G01 X23.5834 Y11.5138 
G01 X23.5767 Y11.5299 
G01 X23.5744 Y11.5472 
G01 X23.5699 Y11.5641 
G01 X23.5699 Y11.5815 
G01 X23.5676 Y11.5989 
G01 X23.5699 Y11.6162 
G01 X23.5699 Y11.6337 
G01 X23.5744 Y11.6505 
G01 X23.5767 Y11.6678 
G01 X23.5834 Y11.6840 
G01 X23.5879 Y11.7008 
G01 X23.5966 Y11.7160 
G01 X23.6644 Y11.8796 
G01 X23.6644 Y13.5204 
G01 X23.5419 Y13.8161 
G01 X23.3157 Y14.0423 
G01 X23.0200 Y14.1648 
G01 X22.7000 Y14.1648 
G01 X22.4043 Y14.0423 
G01 X22.1781 Y13.8161 
G01 X22.0556 Y13.5204 
G01 X22.0556 Y11.8796 
G01 X22.1781 Y11.5839 
G01 X22.2140 Y11.5480 
G01 X22.2632 Y11.4988 
G01 X22.2980 Y11.4385 
G01 X22.3160 Y11.3713 
G01 X22.3160 Y11.3218 
G01 X22.3988 Y11.1218 
G01 X23.6071 Y9.9136  
G01 X23.6562 Y9.8644  
G01 X23.8218 Y9.6988  
G01 X24.0218 Y9.6160  
G01 X26.8270 Y9.6160  
G01 X26.8443 Y9.6183  
G01 X26.8617 Y9.6160  
G01 X26.8791 Y9.6160  
G01 X26.8960 Y9.6115  
G01 X26.9133 Y9.6092  
G01 X26.9294 Y9.6025  
G01 X26.9463 Y9.5980  
G01 X26.9615 Y9.5893  
G01 X26.9776 Y9.5826  
G01 X26.9914 Y9.5719  
G01 X27.0066 Y9.5632  
G01 X27.0189 Y9.5509  
G01 X27.0328 Y9.5402  
G01 X27.0434 Y9.5264  
G01 X27.0558 Y9.5140  
G01 X27.0645 Y9.4989  
G01 X27.0751 Y9.4850  
G01 X27.0818 Y9.4689  
G01 X27.0905 Y9.4538  
G01 X27.0951 Y9.4369  
G01 X27.1813 Y9.2287  
G01 X27.6437 Y8.7663  
G01 X28.2480 Y8.5160  
G01 X28.9020 Y8.5160  
G01 X29.5062 Y8.7663  
G00 Z2.0000  
G00 X29.3931 Y8.8249  
G01 Z-0.1500 F200   
G01 X29.1742 Y8.7134  F350   
G01 X28.9405 Y8.6374  
G01 X28.6979 Y8.5990  
G01 X28.4521 Y8.5990  
G01 X28.2095 Y8.6374  
G01 X27.9758 Y8.7134  
G01 X27.7569 Y8.8249  
G01 X27.5581 Y8.9693  
G01 X27.3843 Y9.1431  
G01 X27.2399 Y9.3419  
G01 X27.1284 Y9.5608  
G01 X27.0835 Y9.6990  
G01 X24.0693 Y9.6990  
G01 X23.9521 Y9.7304  
G01 X23.8469 Y9.7911  
G01 X23.7611 Y9.8769  
G01 X22.4911 Y11.1469 
G01 X22.4304 Y11.2521 
G01 X22.3990 Y11.3693 
G01 X22.3990 Y11.4804 
G01 X22.2996 Y11.5797 
G01 X22.2207 Y11.6979 
G01 X22.1663 Y11.8292 
G01 X22.1386 Y11.9685 
G01 X22.1386 Y13.4314 
G01 X22.1663 Y13.5708 
G01 X22.2207 Y13.7021 
G01 X22.2996 Y13.8203 
G01 X22.4001 Y13.9207 
G01 X22.5183 Y13.9997 
G01 X22.6496 Y14.0541 
G01 X22.7889 Y14.0818 
G01 X22.9310 Y14.0818 
G01 X23.0704 Y14.0541 
G01 X23.2017 Y13.9997 
G01 X23.3199 Y13.9207 
G01 X23.4203 Y13.8203 
G01 X23.4993 Y13.7021 
G01 X23.5537 Y13.5708 
G01 X23.5814 Y13.4314 
G01 X23.5814 Y11.9685 
G01 X23.5537 Y11.8292 
G01 X23.4993 Y11.6979 
G01 X23.4203 Y11.5797 
G01 X23.3913 Y11.5507 
G01 X24.3210 Y10.6210 
G01 X27.0835 Y10.6210 
G01 X27.1284 Y10.7592 
G01 X27.2399 Y10.9781 
G01 X27.3843 Y11.1769 
G01 X27.5581 Y11.3507 
G01 X27.7569 Y11.4951 
G01 X27.9758 Y11.6066 
G01 X28.2095 Y11.6826 
G01 X28.4521 Y11.7210 
G01 X28.6979 Y11.7210 
G01 X28.9405 Y11.6826 
G01 X29.1742 Y11.6066 
G01 X29.3931 Y11.4951 
G01 X29.5919 Y11.3507 
G01 X29.7657 Y11.1769 
G01 X29.9101 Y10.9781 
G01 X30.0216 Y10.7592 
G01 X30.0976 Y10.5255 
G01 X30.1360 Y10.2829 
G01 X30.1360 Y10.0371 
G01 X30.0976 Y9.7945  
G01 X30.0216 Y9.5608  
G01 X29.9101 Y9.3419  
G01 X29.7657 Y9.1431  
G01 X29.5919 Y8.9693  
G01 X29.3931 Y8.8249  
G00 Z2.0000  
G00 X29.4023 Y14.1713 
G01 Z-0.1500 F200   
G01 X29.2406 Y14.2537 F350   
G01 X29.0937 Y14.3604 
G01 X28.9654 Y14.4887 
G01 X28.8587 Y14.6356 
G01 X28.7763 Y14.7973 
G01 X28.7202 Y14.9700 
G01 X28.6918 Y15.1492 
G01 X28.6918 Y15.3308 
G01 X28.7050 Y15.4140 
G01 X19.2410 Y15.4140 
G01 X18.2410 Y14.4140 
G01 X18.2410 Y13.9196 
G01 X18.3403 Y13.8203 
G01 X18.4193 Y13.7021 
G01 X18.4737 Y13.5708 
G01 X18.5014 Y13.4314 
G01 X18.5014 Y11.9685 
G01 X18.4737 Y11.8292 
G01 X18.4193 Y11.6979 
G01 X18.3403 Y11.5797 
G01 X18.2399 Y11.4793 
G01 X18.1217 Y11.4003 
G01 X17.9904 Y11.3459 
G01 X17.8511 Y11.3182 
G01 X17.7089 Y11.3182 
G01 X17.5696 Y11.3459 
G01 X17.4383 Y11.4003 
G01 X17.3201 Y11.4793 
G01 X17.2197 Y11.5797 
G01 X17.1407 Y11.6979 
G01 X17.0863 Y11.8292 
G01 X17.0586 Y11.9685 
G01 X17.0586 Y13.4314 
G01 X17.0863 Y13.5708 
G01 X17.1407 Y13.7021 
G01 X17.2197 Y13.8203 
G01 X17.3190 Y13.9196 
G01 X17.3190 Y14.6657 
G01 X17.3504 Y14.7829 
G01 X17.4111 Y14.8881 
G01 X17.4969 Y14.9739 
G01 X18.7669 Y16.2439 
G01 X18.8721 Y16.3046 
G01 X18.9893 Y16.3360 
G01 X29.2707 Y16.3360 
G01 X29.3879 Y16.3046 
G01 X29.3909 Y16.3029 
G01 X29.4023 Y16.3087 
G01 X29.5750 Y16.3648 
G01 X29.7542 Y16.3932 
G01 X29.9358 Y16.3932 
G01 X30.1150 Y16.3648 
G01 X30.2877 Y16.3087 
G01 X30.4494 Y16.2263 
G01 X30.5963 Y16.1196 
G01 X30.7246 Y15.9913 
G01 X30.8313 Y15.8444 
G01 X30.9137 Y15.6827 
G01 X30.9698 Y15.5100 
G01 X30.9982 Y15.3308 
G01 X30.9982 Y15.1492 
G01 X30.9698 Y14.9700 
G01 X30.9137 Y14.7973 
G01 X30.8313 Y14.6356 
G01 X30.7246 Y14.4887 
G01 X30.5963 Y14.3604 
G01 X30.4494 Y14.2537 
G01 X30.2877 Y14.1713 
G01 X30.1150 Y14.1152 
G01 X29.9358 Y14.0868 
G01 X29.7542 Y14.0868 
G01 X29.5750 Y14.1152 
G01 X29.4023 Y14.1713 
G00 Z2.0000  
G00 X29.1447 Y14.1920 
G01 Z-0.1500 F200   
G01 X29.5991 Y14.0038 F350   
G01 X30.0909 Y14.0038 
G01 X30.5452 Y14.1920 
G01 X30.8930 Y14.5397 
G01 X31.0812 Y14.9941 
G01 X31.0812 Y15.4859 
G01 X30.8930 Y15.9402 
G01 X30.5347 Y16.2986 
G01 X30.4855 Y16.3478 
G01 X30.4515 Y16.4067 
G01 X30.4327 Y16.4752 
G01 X30.4327 Y16.5448 
G01 X30.4377 Y16.5636 
G01 X30.4507 Y16.6120 
G01 X30.4844 Y16.6704 
G01 X30.4891 Y16.6759 
G01 X30.5347 Y16.7214 
G01 X30.8895 Y17.0762 
G01 X30.8968 Y17.0889 
G01 X30.9035 Y17.1050 
G01 X30.9141 Y17.1189 
G01 X30.9228 Y17.1340 
G01 X30.9352 Y17.1464 
G01 X30.9458 Y17.1602 
G01 X30.9597 Y17.1709 
G01 X30.9720 Y17.1832 
G01 X30.9871 Y17.1919 
G01 X31.0010 Y17.2026 
G01 X31.0171 Y17.2093 
G01 X31.0323 Y17.2180 
G01 X31.0491 Y17.2225 
G01 X31.0653 Y17.2292 
G01 X31.0826 Y17.2315 
G01 X31.0995 Y17.2360 
G01 X31.1169 Y17.2360 
G01 X31.1342 Y17.2383 
G01 X31.1516 Y17.2360 
G01 X32.4932 Y17.2360 
G01 X32.6931 Y17.3188 
G01 X33.2664 Y17.8921 
G01 X33.4812 Y18.1068 
G01 X33.5640 Y18.3068 
G01 X33.5640 Y20.0200 
G01 X33.5820 Y20.0872 
G01 X33.6016 Y20.1212 
G01 X33.6168 Y20.1474 
G01 X33.7508 Y20.2814 
G01 X33.7614 Y20.2953 
G01 X33.7753 Y20.3059 
G01 X33.7876 Y20.3183 
G01 X33.8027 Y20.3270 
G01 X33.8166 Y20.3377 
G01 X33.8328 Y20.3443 
G01 X33.8479 Y20.3531 
G01 X33.8647 Y20.3576 
G01 X33.8809 Y20.3643 
G01 X33.8982 Y20.3666 
G01 X33.9151 Y20.3711 
G01 X33.9325 Y20.3711 
G01 X33.9498 Y20.3734 
G01 X33.9672 Y20.3711 
G01 X33.9846 Y20.3711 
G01 X34.0015 Y20.3666 
G01 X34.0188 Y20.3643 
G01 X34.0349 Y20.3576 
G01 X34.0491 Y20.3538 
G01 X34.5359 Y20.3538 
G01 X34.9902 Y20.5420 
G01 X35.3380 Y20.8897 
G01 X35.5262 Y21.3441 
G01 X35.5262 Y21.8359 
G01 X35.3380 Y22.2902 
G01 X34.9902 Y22.6380 
G01 X34.5359 Y22.8262 
G01 X34.0441 Y22.8262 
G01 X33.5897 Y22.6380 
G01 X33.2420 Y22.2902 
G01 X33.0538 Y21.8359 
G01 X33.0538 Y21.3491 
G01 X33.0576 Y21.3349 
G01 X33.0643 Y21.3188 
G01 X33.0666 Y21.3015 
G01 X33.0711 Y21.2846 
G01 X33.0711 Y21.2672 
G01 X33.0734 Y21.2498 
G01 X33.0711 Y21.2325 
G01 X33.0711 Y21.2151 
G01 X33.0666 Y21.1982 
G01 X33.0643 Y21.1809 
G01 X33.0576 Y21.1647 
G01 X33.0531 Y21.1479 
G01 X33.0443 Y21.1328 
G01 X33.0377 Y21.1166 
G01 X33.0270 Y21.1027 
G01 X33.0183 Y21.0876 
G01 X33.0059 Y21.0753 
G01 X32.9953 Y21.0614 
G01 X32.9814 Y21.0508 
G01 X32.5588 Y20.6282 
G01 X32.4760 Y20.4282 
G01 X32.4760 Y18.7150 
G01 X32.4580 Y18.6478 
G01 X32.4232 Y18.5875 
G01 X32.3740 Y18.5384 
G01 X32.2616 Y18.4260 
G01 X32.2125 Y18.3768 
G01 X32.1522 Y18.3420 
G01 X32.0850 Y18.3240 
G01 X31.1516 Y18.3240 
G01 X31.1342 Y18.3217 
G01 X31.1169 Y18.3240 
G01 X31.0995 Y18.3240 
G01 X31.0826 Y18.3285 
G01 X31.0653 Y18.3308 
G01 X31.0491 Y18.3375 
G01 X31.0323 Y18.3420 
G01 X31.0171 Y18.3507 
G01 X31.0010 Y18.3574 
G01 X30.9871 Y18.3681 
G01 X30.9720 Y18.3768 
G01 X30.9597 Y18.3891 
G01 X30.9458 Y18.3998 
G01 X30.9352 Y18.4136 
G01 X30.9228 Y18.4260 
G01 X30.9141 Y18.4411 
G01 X30.9035 Y18.4550 
G01 X30.8968 Y18.4711 
G01 X30.8895 Y18.4838 
G01 X30.5452 Y18.8280 
G01 X30.0909 Y19.0162 
G01 X29.5991 Y19.0162 
G01 X29.1447 Y18.8280 
G01 X28.7970 Y18.4802 
G01 X28.6088 Y18.0259 
G01 X28.6088 Y17.5341 
G01 X28.7970 Y17.0797 
G01 X28.9821 Y16.8946 
G01 X29.0313 Y16.8454 
G01 X29.0661 Y16.7852 
G01 X29.0795 Y16.7352 
G01 X29.0841 Y16.7180 
G01 X29.0841 Y16.6484 
G01 X29.0661 Y16.5812 
G01 X29.0313 Y16.5210 
G01 X28.9821 Y16.4718 
G01 X28.9219 Y16.4370 
G01 X28.8719 Y16.4236 
G01 X28.8547 Y16.4190 
G01 X24.9028 Y16.4190 
G01 X24.8766 Y16.4173 
G01 X24.8681 Y16.4190 
G01 X24.8595 Y16.4190 
G01 X24.8341 Y16.4258 
G01 X24.8084 Y16.4309 
G01 X24.8007 Y16.4348 
G01 X24.7923 Y16.4370 
G01 X24.7696 Y16.4501 
G01 X24.7460 Y16.4618 
G01 X24.7395 Y16.4675 
G01 X24.7321 Y16.4718 
G01 X24.7135 Y16.4904 
G01 X24.6938 Y16.5077 
G01 X24.6890 Y16.5149 
G01 X24.6829 Y16.5210 
G01 X24.6697 Y16.5437 
G01 X24.6552 Y16.5656 
G01 X24.6524 Y16.5738 
G01 X24.6481 Y16.5812 
G01 X24.6413 Y16.6066 
G01 X24.6329 Y16.6315 
G01 X24.6323 Y16.6401 
G01 X24.6301 Y16.6484 
G01 X24.6301 Y16.6747 
G01 X24.6284 Y16.7009 
G01 X24.6301 Y16.7094 
G01 X24.6301 Y16.7180 
G01 X24.6369 Y16.7434 
G01 X24.6420 Y16.7691 
G01 X24.6459 Y16.7768 
G01 X24.6481 Y16.7852 
G01 X24.6612 Y16.8079 
G01 X24.6729 Y16.8315 
G01 X24.6786 Y16.8379 
G01 X24.6829 Y16.8454 
G01 X24.7015 Y16.8640 
G01 X24.7188 Y16.8837 
G01 X24.7260 Y16.8885 
G01 X24.7321 Y16.8946 
G01 X24.7548 Y16.9077 
G01 X26.2636 Y17.9136 
G01 X26.2842 Y17.9294 
G01 X26.2924 Y17.9328 
G01 X26.2998 Y17.9377 
G01 X26.3244 Y17.9461 
G01 X26.3431 Y17.9538 
G01 X26.3571 Y17.9677 
G01 X26.3744 Y17.9875 
G01 X26.3816 Y17.9922 
G01 X26.3877 Y17.9983 
G01 X26.4104 Y18.0115 
G01 X26.4268 Y18.0224 
G01 X26.4381 Y18.0392 
G01 X26.4511 Y18.0617 
G01 X26.4574 Y18.0680 
G01 X26.4623 Y18.0754 
G01 X26.4819 Y18.0925 
G01 X26.4962 Y18.1068 
G01 X26.5037 Y18.1250 
G01 X26.5122 Y18.1499 
G01 X26.5170 Y18.1571 
G01 X26.5203 Y18.1650 
G01 X26.5363 Y18.1859 
G01 X26.5472 Y18.2022 
G01 X26.5512 Y18.2221 
G01 X26.5546 Y18.2478 
G01 X26.5580 Y18.2560 
G01 X26.5597 Y18.2648 
G01 X26.5713 Y18.2881 
G01 X26.5790 Y18.3068 
G01 X26.5790 Y18.3264 
G01 X26.5773 Y18.3527 
G01 X26.5790 Y18.3611 
G01 X26.5790 Y18.3697 
G01 X26.5858 Y18.3951 
G01 X26.5897 Y18.4144 
G01 X26.5857 Y18.4343 
G01 X26.5790 Y18.4594 
G01 X26.5790 Y18.4683 
G01 X26.5773 Y18.4770 
G01 X26.5790 Y18.5030 
G01 X26.5790 Y20.1244 
G01 X26.5970 Y20.1916 
G01 X26.6318 Y20.2518 
G01 X26.6810 Y20.3010 
G01 X26.7412 Y20.3358 
G01 X26.8084 Y20.3538 
G01 X26.9159 Y20.3538 
G01 X27.3702 Y20.5420 
G01 X27.7145 Y20.8862 
G01 X27.7218 Y20.8989 
G01 X27.7285 Y20.9150 
G01 X27.7391 Y20.9289 
G01 X27.7478 Y20.9440 
G01 X27.7602 Y20.9564 
G01 X27.7708 Y20.9702 
G01 X27.7847 Y20.9809 
G01 X27.7970 Y20.9932 
G01 X27.8121 Y21.0019 
G01 X27.8260 Y21.0126 
G01 X27.8421 Y21.0193 
G01 X27.8573 Y21.0280 
G01 X27.8741 Y21.0325 
G01 X27.8903 Y21.0392 
G01 X27.9076 Y21.0415 
G01 X27.9245 Y21.0460 
G01 X27.9419 Y21.0460 
G01 X27.9592 Y21.0483 
G01 X27.9766 Y21.0460 
G01 X29.3182 Y21.0460 
G01 X29.5181 Y21.1288 
G01 X31.9964 Y23.6071 
G01 X32.2112 Y23.8218 
G01 X32.2940 Y24.0218 
G01 X32.2940 Y43.2882 
G01 X32.2112 Y43.4881 
G01 X31.9429 Y43.7564 
G01 X31.7281 Y43.9712 
G01 X31.5282 Y44.0540 
G01 X26.1734 Y44.0540 
G01 X26.1062 Y44.0720 
G01 X26.0460 Y44.1068 
G01 X25.9968 Y44.1560 
G01 X25.9620 Y44.2162 
G01 X25.9440 Y44.2834 
G01 X25.9440 Y47.2760 
G01 X25.8612 Y47.4759 
G01 X25.7371 Y47.6000 
G01 X25.7233 Y47.6106 
G01 X25.7126 Y47.6245 
G01 X25.7003 Y47.6368 
G01 X25.6915 Y47.6520 
G01 X25.6809 Y47.6658 
G01 X25.6742 Y47.6820 
G01 X25.6655 Y47.6971 
G01 X25.6610 Y47.7140 
G01 X25.6543 Y47.7301 
G01 X25.6520 Y47.7474 
G01 X25.6475 Y47.7643 
G01 X25.6475 Y47.7817 
G01 X25.6452 Y47.7991 
G01 X25.6475 Y47.8164 
G01 X25.6475 Y47.8338 
G01 X25.6520 Y47.8507 
G01 X25.6543 Y47.8680 
G01 X25.6610 Y47.8842 
G01 X25.6655 Y47.9010 
G01 X25.6742 Y47.9162 
G01 X25.7018 Y47.9827 
G01 X25.7018 Y48.5373 
G01 X25.4896 Y49.0496 
G01 X25.0974 Y49.4418 
G01 X24.5851 Y49.6540 
G01 X24.0305 Y49.6540 
G01 X23.5182 Y49.4418 
G01 X23.1267 Y49.0503 
G01 X23.1228 Y49.0359 
G01 X23.1141 Y49.0208 
G01 X23.1074 Y49.0047 
G01 X23.0968 Y48.9908 
G01 X23.0880 Y48.9757 
G01 X23.0757 Y48.9634 
G01 X23.0651 Y48.9495 
G01 X23.0512 Y48.9389 
G01 X23.0388 Y48.9265 
G01 X23.0237 Y48.9178 
G01 X23.0099 Y48.9072 
G01 X22.9937 Y48.9005 
G01 X22.9786 Y48.8917 
G01 X22.9617 Y48.8872 
G01 X22.9456 Y48.8805 
G01 X22.9283 Y48.8782 
G01 X22.9114 Y48.8737 
G01 X22.8940 Y48.8737 
G01 X22.8766 Y48.8714 
G01 X22.8593 Y48.8737 
G01 X22.8418 Y48.8737 
G01 X22.8250 Y48.8783 
G01 X22.8077 Y48.8805 
G01 X22.7915 Y48.8872 
G01 X22.7746 Y48.8917 
G01 X22.7595 Y48.9005 
G01 X22.7434 Y48.9072 
G01 X22.7295 Y48.9178 
G01 X22.7144 Y48.9265 
G01 X22.7021 Y48.9389 
G01 X22.6882 Y48.9495 
G01 X22.6776 Y48.9634 
G01 X22.6652 Y48.9757 
G01 X22.6565 Y48.9908 
G01 X22.6458 Y49.0047 
G01 X22.6392 Y49.0208 
G01 X22.6146 Y49.0634 
G01 X22.4994 Y49.2135 
G01 X22.3657 Y49.3472 
G01 X22.2156 Y49.4624 
G01 X22.0518 Y49.5570 
G01 X21.8770 Y49.6294 
G01 X21.7272 Y49.6695 
G01 X21.7272 Y49.5361 
G01 X21.9154 Y49.4749 
G01 X22.0993 Y49.3813 
G01 X22.2663 Y49.2600 
G01 X22.4122 Y49.1141 
G01 X22.5335 Y48.9471 
G01 X22.6272 Y48.7632 
G01 X22.6909 Y48.5670 
G01 X22.7232 Y48.3632 
G01 X22.7232 Y48.1568 
G01 X22.6909 Y47.9530 
G01 X22.6272 Y47.7567 
G01 X22.5335 Y47.5729 
G01 X22.4122 Y47.4059 
G01 X22.2663 Y47.2600 
G01 X22.0993 Y47.1387 
G01 X21.9154 Y47.0450 
G01 X21.7272 Y46.9839 
G01 X21.7272 Y46.8505 
G01 X21.8770 Y46.8906 
G01 X22.0518 Y46.9630 
G01 X22.2156 Y47.0576 
G01 X22.3657 Y47.1728 
G01 X22.4994 Y47.3065 
G01 X22.6146 Y47.4566 
G01 X22.6392 Y47.4992 
G01 X22.6458 Y47.5153 
G01 X22.6565 Y47.5292 
G01 X22.6652 Y47.5443 
G01 X22.6776 Y47.5566 
G01 X22.6882 Y47.5705 
G01 X22.7021 Y47.5811 
G01 X22.7144 Y47.5935 
G01 X22.7295 Y47.6022 
G01 X22.7434 Y47.6128 
G01 X22.7595 Y47.6195 
G01 X22.7746 Y47.6283 
G01 X22.7915 Y47.6328 
G01 X22.8077 Y47.6395 
G01 X22.8250 Y47.6417 
G01 X22.8418 Y47.6463 
G01 X22.8593 Y47.6463 
G01 X22.8766 Y47.6485 
G01 X22.8940 Y47.6463 
G01 X22.9114 Y47.6463 
G01 X22.9283 Y47.6417 
G01 X22.9456 Y47.6395 
G01 X22.9617 Y47.6328 
G01 X22.9786 Y47.6283 
G01 X22.9937 Y47.6195 
G01 X23.0099 Y47.6128 
G01 X23.0237 Y47.6022 
G01 X23.0388 Y47.5935 
G01 X23.0512 Y47.5811 
G01 X23.0651 Y47.5705 
G01 X23.0757 Y47.5566 
G01 X23.0880 Y47.5443 
G01 X23.0968 Y47.5292 
G01 X23.1074 Y47.5153 
G01 X23.1141 Y47.4992 
G01 X23.1228 Y47.4840 
G01 X23.1267 Y47.4697 
G01 X23.5182 Y47.0782 
G01 X24.0305 Y46.8660 
G01 X24.6266 Y46.8660 
G01 X24.6938 Y46.8480 
G01 X24.7540 Y46.8132 
G01 X24.8032 Y46.7640 
G01 X24.8380 Y46.7038 
G01 X24.8560 Y46.6366 
G01 X24.8560 Y44.2834 
G01 X24.8380 Y44.2162 
G01 X24.8032 Y44.1560 
G01 X24.7540 Y44.1068 
G01 X24.6938 Y44.0720 
G01 X24.6266 Y44.0540 
G01 X15.0576 Y44.0540 
G01 X14.9904 Y44.0720 
G01 X14.9301 Y44.1068 
G01 X14.5970 Y44.4400 
G01 X14.5478 Y44.4891 
G01 X14.5130 Y44.5494 
G01 X14.4950 Y44.6166 
G01 X14.4950 Y45.7034 
G01 X14.4106 Y45.7878 
G01 X13.0722 Y45.7878 
G01 X12.9878 Y45.7034 
G01 X12.9878 Y43.3490 
G01 X13.0722 Y43.2646 
G01 X14.1590 Y43.2646 
G01 X14.2262 Y43.2466 
G01 X14.2865 Y43.2118 
G01 X14.4494 Y43.0488 
G01 X14.6494 Y42.9660 
G01 X30.9766 Y42.9660 
G01 X31.0438 Y42.9480 
G01 X31.1040 Y42.9132 
G01 X31.1532 Y42.8640 
G01 X31.1880 Y42.8038 
G01 X31.2060 Y42.7366 
G01 X31.2060 Y24.4300 
G01 X31.1880 Y24.3628 
G01 X31.1532 Y24.3025 
G01 X29.0866 Y22.2360 
G01 X29.0375 Y22.1868 
G01 X28.9772 Y22.1520 
G01 X28.9100 Y22.1340 
G01 X27.9766 Y22.1340 
G01 X27.9592 Y22.1317 
G01 X27.9419 Y22.1340 
G01 X27.9245 Y22.1340 
G01 X27.9076 Y22.1385 
G01 X27.8903 Y22.1408 
G01 X27.8741 Y22.1475 
G01 X27.8573 Y22.1520 
G01 X27.8421 Y22.1607 
G01 X27.8260 Y22.1674 
G01 X27.8121 Y22.1781 
G01 X27.7970 Y22.1868 
G01 X27.7847 Y22.1991 
G01 X27.7708 Y22.2098 
G01 X27.7602 Y22.2236 
G01 X27.7478 Y22.2360 
G01 X27.7391 Y22.2511 
G01 X27.7285 Y22.2650 
G01 X27.7218 Y22.2811 
G01 X27.7145 Y22.2938 
G01 X27.3702 Y22.6380 
G01 X26.9159 Y22.8262 
G01 X26.4241 Y22.8262 
G01 X25.9697 Y22.6380 
G01 X25.6220 Y22.2902 
G01 X25.4338 Y21.8359 
G01 X25.4338 Y21.3441 
G01 X25.4654 Y21.2678 
G01 X25.4743 Y21.2463 
G01 X25.4920 Y21.2036 
G01 X25.4965 Y21.1691 
G01 X25.5011 Y21.1346 
G01 X25.4967 Y21.1009 
G01 X25.4920 Y21.0656 
G01 X25.4910 Y18.8560 
G01 X25.4927 Y18.8298 
G01 X25.4910 Y18.8214 
G01 X25.4910 Y18.8128 
G01 X25.4842 Y18.7874 
G01 X25.4790 Y18.7616 
G01 X25.4752 Y18.7539 
G01 X25.4730 Y18.7456 
G01 X25.4598 Y18.7228 
G01 X25.4482 Y18.6993 
G01 X25.4425 Y18.6928 
G01 X25.4382 Y18.6853 
G01 X25.4196 Y18.6667 
G01 X25.4023 Y18.6470 
G01 X25.3951 Y18.6422 
G01 X25.3890 Y18.6361 
G01 X25.3663 Y18.6230 
G01 X24.0536 Y17.7479 
G01 X24.0475 Y17.7418 
G01 X24.0248 Y17.7286 
G01 X24.0029 Y17.7141 
G01 X23.9947 Y17.7113 
G01 X23.9873 Y17.7070 
G01 X23.9619 Y17.7002 
G01 X23.9370 Y17.6918 
G01 X23.9284 Y17.6912 
G01 X23.9201 Y17.6890 
G01 X23.8938 Y17.6890 
G01 X23.8676 Y17.6873 
G01 X23.8591 Y17.6890 
G01 X17.9268 Y17.6890 
G01 X17.9242 Y17.6883 
G01 X17.8921 Y17.6890 
G01 X17.8599 Y17.6890 
G01 X17.8573 Y17.6897 
G01 X17.8546 Y17.6898 
G01 X17.8275 Y17.6976 
G01 X17.7843 Y17.6928 
G01 X17.7700 Y17.6890 
G01 X17.7499 Y17.6890 
G01 X17.7298 Y17.6868 
G01 X17.7152 Y17.6890 
G01 X17.6718 Y17.6890 
G01 X17.6457 Y17.6782 
G01 X17.6430 Y17.6778 
G01 X17.6124 Y17.6737 
G01 X17.5743 Y17.6528 
G01 X17.5626 Y17.6438 
G01 X17.5440 Y17.6361 
G01 X17.5263 Y17.6263 
G01 X17.5120 Y17.6228 
G01 X17.4718 Y17.6062 
G01 X17.4519 Y17.5862 
G01 X17.4475 Y17.5830 
G01 X17.4228 Y17.5693 
G01 X17.3957 Y17.5354 
G01 X17.3883 Y17.5226 
G01 X17.3740 Y17.5084 
G01 X17.3614 Y17.4926 
G01 X17.3495 Y17.4839 
G01 X17.3188 Y17.4532 
G01 X17.3080 Y17.4271 
G01 X17.3053 Y17.4224 
G01 X17.2852 Y17.3973 
G01 X17.2657 Y17.3719 
G01 X14.8557 Y14.3604 
G01 X14.8483 Y14.3476 
G01 X14.8340 Y14.3334 
G01 X14.8214 Y14.3176 
G01 X14.8095 Y14.3089 
G01 X14.7788 Y14.2782 
G01 X14.7680 Y14.2520 
G01 X14.7653 Y14.2474 
G01 X14.7476 Y14.2253 
G01 X14.7355 Y14.1836 
G01 X14.7336 Y14.1690 
G01 X14.7259 Y14.1503 
G01 X14.7203 Y14.1310 
G01 X14.7126 Y14.1183 
G01 X14.6960 Y14.0782 
G01 X14.6960 Y14.0499 
G01 X14.6953 Y14.0473 
G01 X14.6952 Y14.0446 
G01 X14.6863 Y14.0138 
G01 X14.6780 Y13.9828 
G01 X14.6693 Y13.9527 
G01 X14.6672 Y13.9478 
G01 X14.6506 Y13.9203 
G01 X14.6345 Y13.8925 
G01 X14.6312 Y13.8883 
G01 X14.6080 Y13.8660 
G01 X14.5581 Y13.8161 
G01 X14.4356 Y13.5204 
G01 X14.4356 Y11.8796 
G01 X14.5581 Y11.5839 
G01 X14.7843 Y11.3577 
G01 X15.0800 Y11.2352 
G01 X15.4000 Y11.2352 
G01 X15.6957 Y11.3577 
G01 X15.9219 Y11.5839 
G01 X16.0444 Y11.8796 
G01 X16.0444 Y13.5204 
G01 X15.9570 Y13.7315 
G01 X15.9437 Y13.7636 
G01 X15.9314 Y13.7933 
G01 X15.9310 Y13.7959 
G01 X15.9265 Y13.8304 
G01 X15.9223 Y13.8622 
G01 X15.9227 Y13.8649 
G01 X15.9224 Y13.8676 
G01 X15.9272 Y13.8993 
G01 X15.9314 Y13.9312 
G01 X15.9328 Y13.9364 
G01 X15.9457 Y13.9658 
G01 X15.9580 Y13.9955 
G01 X15.9607 Y14.0001 
G01 X15.9808 Y14.0252 
G01 X16.0003 Y14.0507 
G01 X16.8285 Y15.0848 
G01 X16.8480 Y15.1102 
G01 X16.8519 Y15.1140 
G01 X16.8777 Y15.1330 
G01 X16.9032 Y15.1526 
G01 X16.9079 Y15.1552 
G01 X16.9378 Y15.1669 
G01 X16.9675 Y15.1792 
G01 X16.9702 Y15.1795 
G01 X17.0046 Y15.1841 
G01 X17.0364 Y15.1883 
G01 X17.0391 Y15.1879 
G01 X17.0418 Y15.1882 
G01 X17.0735 Y15.1834 
G01 X17.1054 Y15.1792 
G01 X17.1106 Y15.1777 
G01 X17.1399 Y15.1649 
G01 X17.1697 Y15.1526 
G01 X17.1743 Y15.1498 
G01 X17.1994 Y15.1298 
G01 X17.2249 Y15.1102 
G01 X17.2286 Y15.1064 
G01 X17.2477 Y15.0805 
G01 X17.2672 Y15.0550 
G01 X17.2699 Y15.0503 
G01 X17.2815 Y15.0204 
G01 X17.2938 Y14.9908 
G01 X17.2942 Y14.9881 
G01 X17.2987 Y14.9536 
G01 X17.3029 Y14.9218 
G01 X17.3026 Y14.9191 
G01 X17.3029 Y14.9164 
G01 X17.2980 Y14.8847 
G01 X17.2938 Y14.8528 
G01 X17.2924 Y14.8476 
G01 X17.2795 Y14.8183 
G01 X17.2360 Y14.7132 
G01 X17.2360 Y14.0286 
G01 X17.2180 Y13.9614 
G01 X17.1832 Y13.9012 
G01 X17.0981 Y13.8161 
G01 X16.9756 Y13.5204 
G01 X16.9756 Y11.8796 
G01 X17.0981 Y11.5839 
G01 X17.3243 Y11.3577 
G01 X17.6200 Y11.2352 
G01 X17.9400 Y11.2352 
G01 X18.2357 Y11.3577 
G01 X18.4619 Y11.5839 
G01 X18.5844 Y11.8796 
G01 X18.5844 Y13.5204 
G01 X18.4619 Y13.8161 
G01 X18.4260 Y13.8520 
G01 X18.3768 Y13.9012 
G01 X18.3420 Y13.9614 
G01 X18.3240 Y14.0286 
G01 X18.3240 Y14.3050 
G01 X18.3420 Y14.3722 
G01 X18.3768 Y14.4325 
G01 X19.1734 Y15.2290 
G01 X19.2225 Y15.2782 
G01 X19.2828 Y15.3130 
G01 X19.3500 Y15.3310 
G01 X28.3794 Y15.3310 
G01 X28.4466 Y15.3130 
G01 X28.5068 Y15.2782 
G01 X28.5560 Y15.2290 
G01 X28.5908 Y15.1688 
G01 X28.6088 Y15.1016 
G01 X28.6088 Y14.9941 
G01 X28.7970 Y14.5397 
G01 X29.1447 Y14.1920 
G00 Z2.0000  
G00 X29.2406 Y16.7937 
G01 Z-0.1500 F200   
G01 X29.0937 Y16.9004 F350   
G01 X28.9654 Y17.0287 
G01 X28.8587 Y17.1756 
G01 X28.7763 Y17.3373 
G01 X28.7202 Y17.5100 
G01 X28.6918 Y17.6892 
G01 X28.6918 Y17.8708 
G01 X28.7202 Y18.0500 
G01 X28.7763 Y18.2227 
G01 X28.8587 Y18.3844 
G01 X28.9654 Y18.5313 
G01 X29.0937 Y18.6596 
G01 X29.2406 Y18.7663 
G01 X29.4023 Y18.8487 
G01 X29.5750 Y18.9048 
G01 X29.7542 Y18.9332 
G01 X29.9358 Y18.9332 
G01 X30.1150 Y18.9048 
G01 X30.2877 Y18.8487 
G01 X30.4494 Y18.7663 
G01 X30.5963 Y18.6596 
G01 X30.7246 Y18.5313 
G01 X30.8313 Y18.3844 
G01 X30.9044 Y18.2410 
G01 X32.1940 Y18.2410 
G01 X32.5590 Y18.6060 
G01 X32.5590 Y20.3807 
G01 X32.5904 Y20.4979 
G01 X32.6511 Y20.6031 
G01 X33.2149 Y21.1669 
G01 X33.1652 Y21.3200 
G01 X33.1368 Y21.4992 
G01 X33.1368 Y21.6808 
G01 X33.1652 Y21.8600 
G01 X33.2213 Y22.0327 
G01 X33.3037 Y22.1944 
G01 X33.4104 Y22.3413 
G01 X33.5387 Y22.4696 
G01 X33.6856 Y22.5763 
G01 X33.8473 Y22.6587 
G01 X34.0200 Y22.7148 
G01 X34.1992 Y22.7432 
G01 X34.3808 Y22.7432 
G01 X34.5600 Y22.7148 
G01 X34.7327 Y22.6587 
G01 X34.8944 Y22.5763 
G01 X35.0413 Y22.4696 
G01 X35.1696 Y22.3413 
G01 X35.2763 Y22.1944 
G01 X35.3587 Y22.0327 
G01 X35.4148 Y21.8600 
G01 X35.4432 Y21.6808 
G01 X35.4432 Y21.4992 
G01 X35.4148 Y21.3200 
G01 X35.3587 Y21.1473 
G01 X35.2763 Y20.9856 
G01 X35.1696 Y20.8387 
G01 X35.0413 Y20.7104 
G01 X34.8944 Y20.6037 
G01 X34.7327 Y20.5213 
G01 X34.5600 Y20.4652 
G01 X34.3808 Y20.4368 
G01 X34.1992 Y20.4368 
G01 X34.0200 Y20.4652 
G01 X33.8669 Y20.5149 
G01 X33.4810 Y20.1290 
G01 X33.4810 Y18.3543 
G01 X33.4496 Y18.2371 
G01 X33.3889 Y18.1319 
G01 X33.3031 Y18.0461 
G01 X32.6681 Y17.4111 
G01 X32.5629 Y17.3504 
G01 X32.4457 Y17.3190 
G01 X30.9044 Y17.3190 
G01 X30.8313 Y17.1756 
G01 X30.7246 Y17.0287 
G01 X30.5963 Y16.9004 
G01 X30.4494 Y16.7937 
G01 X30.2877 Y16.7113 
G01 X30.1150 Y16.6552 
G01 X29.9358 Y16.6268 
G01 X29.7542 Y16.6268 
G01 X29.5750 Y16.6552 
G01 X29.4023 Y16.7113 
G01 X29.2406 Y16.7937 
G00 Z2.0000  
G00 X26.3412 Y18.0651 
G01 Z-0.1500 F200   
G01 X26.3287 Y18.0568 F350   
G01 X26.3181 Y18.0461 
G01 X26.2783 Y18.0232 
G01 X24.4237 Y16.7868 
G01 X24.4131 Y16.7761 
G01 X24.3733 Y16.7532 
G01 X24.3352 Y16.7278 
G01 X24.3210 Y16.7229 
G01 X24.3079 Y16.7154 
G01 X24.2636 Y16.7035 
G01 X24.2202 Y16.6889 
G01 X24.2052 Y16.6879 
G01 X24.1907 Y16.6840 
G01 X24.1448 Y16.6840 
G01 X24.0991 Y16.6810 
G01 X24.0844 Y16.6840 
G01 X18.0016 Y16.6840 
G01 X15.7505 Y13.8701 
G01 X15.8003 Y13.8203 
G01 X15.8793 Y13.7021 
G01 X15.9337 Y13.5708 
G01 X15.9614 Y13.4314 
G01 X15.9614 Y11.9685 
G01 X15.9337 Y11.8292 
G01 X15.8793 Y11.6979 
G01 X15.8003 Y11.5797 
G01 X15.6999 Y11.4793 
G01 X15.5817 Y11.4003 
G01 X15.4504 Y11.3459 
G01 X15.3110 Y11.3182 
G01 X15.1689 Y11.3182 
G01 X15.0296 Y11.3459 
G01 X14.8983 Y11.4003 
G01 X14.7801 Y11.4793 
G01 X14.6797 Y11.5797 
G01 X14.6007 Y11.6979 
G01 X14.5463 Y11.8292 
G01 X14.5186 Y11.9685 
G01 X14.5186 Y13.4314 
G01 X14.5463 Y13.5708 
G01 X14.6007 Y13.7021 
G01 X14.6797 Y13.8203 
G01 X14.7790 Y13.9196 
G01 X14.7790 Y13.9445 
G01 X14.7751 Y13.9794 
G01 X14.7790 Y14.0049 
G01 X14.7790 Y14.0307 
G01 X14.7881 Y14.0647 
G01 X14.7934 Y14.0994 
G01 X14.8037 Y14.1230 
G01 X14.8104 Y14.1479 
G01 X14.8280 Y14.1784 
G01 X14.8421 Y14.2106 
G01 X14.8582 Y14.2307 
G01 X14.8711 Y14.2531 
G01 X14.8960 Y14.2779 
G01 X17.3982 Y17.4057 
G01 X17.4111 Y17.4281 
G01 X17.4360 Y17.4529 
G01 X17.4579 Y17.4804 
G01 X17.4787 Y17.4957 
G01 X17.4969 Y17.5139 
G01 X17.5274 Y17.5315 
G01 X17.5557 Y17.5523 
G01 X17.5797 Y17.5617 
G01 X17.6021 Y17.5746 
G01 X17.6360 Y17.5837 
G01 X17.6688 Y17.5965 
G01 X17.6944 Y17.5993 
G01 X17.7193 Y17.6060 
G01 X17.7545 Y17.6060 
G01 X17.7894 Y17.6099 
G01 X17.8149 Y17.6060 
G01 X23.9904 Y17.6060 
G01 X25.5740 Y18.6617 
G01 X25.5740 Y21.0157 
G01 X25.6054 Y21.1329 
G01 X25.6071 Y21.1359 
G01 X25.6013 Y21.1473 
G01 X25.5452 Y21.3200 
G01 X25.5168 Y21.4992 
G01 X25.5168 Y21.6808 
G01 X25.5452 Y21.8600 
G01 X25.6013 Y22.0327 
G01 X25.6837 Y22.1944 
G01 X25.7904 Y22.3413 
G01 X25.9187 Y22.4696 
G01 X26.0656 Y22.5763 
G01 X26.2273 Y22.6587 
G01 X26.4000 Y22.7148 
G01 X26.5792 Y22.7432 
G01 X26.7608 Y22.7432 
G01 X26.9400 Y22.7148 
G01 X27.1127 Y22.6587 
G01 X27.2744 Y22.5763 
G01 X27.4213 Y22.4696 
G01 X27.5496 Y22.3413 
G01 X27.6563 Y22.1944 
G01 X27.7294 Y22.0510 
G01 X29.0190 Y22.0510 
G01 X31.2890 Y24.3210 
G01 X31.2890 Y42.9890 
G01 X31.2290 Y43.0490 
G01 X14.6969 Y43.0490 
G01 X14.5797 Y43.0804 
G01 X14.4745 Y43.1411 
G01 X14.3887 Y43.2269 
G01 X14.2680 Y43.3476 
G01 X13.1197 Y43.3476 
G01 X13.0972 Y43.3569 
G01 X13.0801 Y43.3740 
G01 X13.0708 Y43.3965 
G01 X13.0708 Y45.6559 
G01 X13.0801 Y45.6784 
G01 X13.0972 Y45.6955 
G01 X13.1197 Y45.7048 
G01 X14.3631 Y45.7048 
G01 X14.3856 Y45.6955 
G01 X14.4027 Y45.6784 
G01 X14.4120 Y45.6559 
G01 X14.4120 Y44.5076 
G01 X14.9486 Y43.9710 
G01 X24.9390 Y43.9710 
G01 X24.9390 Y46.9768 
G01 X24.8506 Y47.0652 
G01 X24.8110 Y47.0450 
G01 X24.6148 Y46.9813 
G01 X24.4110 Y46.9490 
G01 X24.2046 Y46.9490 
G01 X24.0008 Y46.9813 
G01 X23.8045 Y47.0450 
G01 X23.6207 Y47.1387 
G01 X23.4537 Y47.2600 
G01 X23.3078 Y47.4059 
G01 X23.1865 Y47.5729 
G01 X23.0928 Y47.7567 
G01 X23.0291 Y47.9530 
G01 X22.9968 Y48.1568 
G01 X22.9968 Y48.3632 
G01 X23.0291 Y48.5670 
G01 X23.0928 Y48.7632 
G01 X23.1865 Y48.9471 
G01 X23.3078 Y49.1141 
G01 X23.4537 Y49.2600 
G01 X23.6207 Y49.3813 
G01 X23.8045 Y49.4749 
G01 X24.0008 Y49.5387 
G01 X24.2046 Y49.5710 
G01 X24.4110 Y49.5710 
G01 X24.6148 Y49.5387 
G01 X24.8110 Y49.4749 
G01 X24.9949 Y49.3813 
G01 X25.1619 Y49.2600 
G01 X25.3078 Y49.1141 
G01 X25.4291 Y48.9471 
G01 X25.5227 Y48.7632 
G01 X25.5865 Y48.5670 
G01 X25.6188 Y48.3632 
G01 X25.6188 Y48.1568 
G01 X25.5865 Y47.9530 
G01 X25.5227 Y47.7567 
G01 X25.5026 Y47.7172 
G01 X25.6831 Y47.5367 
G01 X25.7689 Y47.4509 
G01 X25.8296 Y47.3457 
G01 X25.8610 Y47.2285 
G01 X25.8610 Y43.9710 
G01 X31.4807 Y43.9710 
G01 X31.5979 Y43.9396 
G01 X31.7031 Y43.8789 
G01 X31.7889 Y43.7931 
G01 X32.1189 Y43.4631 
G01 X32.1796 Y43.3579 
G01 X32.2110 Y43.2407 
G01 X32.2110 Y24.0693 
G01 X32.1796 Y23.9521 
G01 X32.1189 Y23.8469 
G01 X32.0331 Y23.7611 
G01 X29.4931 Y21.2211 
G01 X29.3879 Y21.1604 
G01 X29.2707 Y21.1290 
G01 X27.7294 Y21.1290 
G01 X27.6563 Y20.9856 
G01 X27.5496 Y20.8387 
G01 X27.4213 Y20.7104 
G01 X27.2744 Y20.6037 
G01 X27.1127 Y20.5213 
G01 X26.9400 Y20.4652 
G01 X26.7608 Y20.4368 
G01 X26.5792 Y20.4368 
G01 X26.4960 Y20.4500 
G01 X26.4960 Y18.4298 
G01 X26.4989 Y18.3841 
G01 X26.4960 Y18.3694 
G01 X26.4960 Y18.3543 
G01 X26.4841 Y18.3100 
G01 X26.4751 Y18.2651 
G01 X26.4685 Y18.2516 
G01 X26.4646 Y18.2371 
G01 X26.4416 Y18.1973 
G01 X26.4213 Y18.1563 
G01 X26.4114 Y18.1450 
G01 X26.4039 Y18.1319 
G01 X26.3714 Y18.0995 
G01 X26.3412 Y18.0651 
G00 Z2.0000  
G00 X24.3844 Y18.8515 
G01 Z-0.1500 F200   
G01 X24.4098 Y18.8955 F350   
G01 X24.4230 Y18.9446 
G01 X24.4230 Y19.1590 
G01 X24.2910 Y19.1590 
G01 X24.2910 Y18.9579 
G01 X24.2817 Y18.9354 
G01 X24.2646 Y18.9183 
G01 X24.2421 Y18.9090 
G01 X23.2910 Y18.9090 
G01 X23.2910 Y18.7770 
G01 X24.2554 Y18.7770 
G01 X24.3045 Y18.7901 
G01 X24.3485 Y18.8156 
G01 X24.3844 Y18.8515 
G00 Z2.0000  
G00 X24.4230 Y19.7810 
G01 Z-0.1500 F200   
G01 X24.4230 Y19.9954 F350   
G01 X24.4098 Y20.0445 
G01 X24.3844 Y20.0885 
G01 X24.3485 Y20.1244 
G01 X24.3045 Y20.1498 
G01 X24.2554 Y20.1630 
G01 X23.2910 Y20.1630 
G01 X23.2910 Y20.0310 
G01 X24.2421 Y20.0310 
G01 X24.2646 Y20.0217 
G01 X24.2817 Y20.0046 
G01 X24.2910 Y19.9821 
G01 X24.2910 Y19.7810 
G01 X24.4230 Y19.7810 
G00 Z2.0000  
G00 X24.3844 Y20.8515 
G01 Z-0.1500 F200   
G01 X24.4098 Y20.8955 F350   
G01 X24.4230 Y20.9446 
G01 X24.4230 Y21.1590 
G01 X24.2910 Y21.1590 
G01 X24.2910 Y20.9579 
G01 X24.2817 Y20.9354 
G01 X24.2646 Y20.9183 
G01 X24.2421 Y20.9090 
G01 X23.2910 Y20.9090 
G01 X23.2910 Y20.7770 
G01 X24.2554 Y20.7770 
G01 X24.3045 Y20.7901 
G01 X24.3485 Y20.8156 
G01 X24.3844 Y20.8515 
G00 Z2.0000  
G00 X24.4230 Y21.7810 
G01 Z-0.1500 F200   
G01 X24.4230 Y21.9954 F350   
G01 X24.4098 Y22.0445 
G01 X24.3844 Y22.0885 
G01 X24.3485 Y22.1244 
G01 X24.3045 Y22.1498 
G01 X24.2554 Y22.1630 
G01 X23.2910 Y22.1630 
G01 X23.2910 Y22.0310 
G01 X24.2421 Y22.0310 
G01 X24.2646 Y22.0217 
G01 X24.2817 Y22.0046 
G01 X24.2910 Y21.9821 
G01 X24.2910 Y21.7810 
G01 X24.4230 Y21.7810 
G00 Z2.0000  
G00 X24.3740 Y22.9104 
G01 Z-0.1500 F200   
G01 X24.3740 Y24.0296 F350   
G01 X24.2896 Y24.1140 
G01 X21.6703 Y24.1140 
G01 X21.6231 Y24.0668 
G01 X21.5629 Y24.0320 
G01 X21.4957 Y24.0140 
G01 X10.9334 Y24.0140 
G01 X10.8662 Y24.0320 
G01 X10.8060 Y24.0668 
G01 X10.7568 Y24.1160 
G01 X10.7220 Y24.1762 
G01 X10.7040 Y24.2434 
G01 X10.7040 Y28.0482 
G01 X10.6212 Y28.2481 
G01 X10.4556 Y28.4137 
G01 X10.0220 Y28.8473 
G01 X10.0105 Y28.8557 
G01 X9.9975  Y28.8718 
G01 X9.9829  Y28.8864 
G01 X9.9758  Y28.8988 
G01 X9.9668  Y28.9099 
G01 X9.9585  Y28.9288 
G01 X9.9481  Y28.9467 
G01 X9.9444  Y28.9605 
G01 X9.9387  Y28.9735 
G01 X9.9355  Y28.9939 
G01 X9.9301  Y29.0139 
G01 X9.9301  Y29.0281 
G01 X9.9279  Y29.0422 
G01 X9.9301  Y29.0628 
G01 X9.9301  Y29.0834 
G01 X9.9338  Y29.0972 
G01 X9.9353  Y29.1114 
G01 X9.9427  Y29.1306 
G01 X9.9481  Y29.1506 
G01 X9.9552  Y29.1630 
G01 X9.9604  Y29.1763 
G01 X9.9725  Y29.1930 
G01 X9.9829  Y29.2109 
G01 X9.9930  Y29.2210 
G01 X10.0013 Y29.2325 
G01 X10.0174 Y29.2454 
G01 X10.0321 Y29.2601 
G01 X10.0444 Y29.2672 
G01 X10.0555 Y29.2761 
G01 X10.0744 Y29.2845 
G01 X10.0923 Y29.2949 
G01 X10.1061 Y29.2985 
G01 X11.6125 Y29.9659 
G01 X11.6151 Y29.9679 
G01 X11.6443 Y29.9800 
G01 X11.6731 Y29.9927 
G01 X11.6764 Y29.9932 
G01 X11.7445 Y30.0215 
G01 X11.7954 Y30.0749 
G01 X11.7970 Y30.0777 
G01 X11.8194 Y30.1000 
G01 X11.8411 Y30.1229 
G01 X11.8439 Y30.1246 
G01 X11.8961 Y30.1767 
G01 X11.9226 Y30.2455 
G01 X11.9230 Y30.2488 
G01 X11.9351 Y30.2780 
G01 X11.9465 Y30.3074 
G01 X11.9484 Y30.3100 
G01 X11.9766 Y30.3782 
G01 X11.9748 Y30.4519 
G01 X11.9740 Y30.4550 
G01 X11.9740 Y30.4866 
G01 X11.9732 Y30.5182 
G01 X11.9740 Y30.5213 
G01 X11.9740 Y43.0647 
G01 X11.9790 Y43.0835 
G01 X11.9920 Y43.1319 
G01 X12.0257 Y43.1903 
G01 X12.0308 Y43.1962 
G01 X12.0760 Y43.2413 
G01 X12.1836 Y43.3490 
G01 X12.1836 Y45.7034 
G01 X12.0992 Y45.7878 
G01 X10.7607 Y45.7878 
G01 X10.6764 Y45.7034 
G01 X10.6764 Y43.3490 
G01 X10.7840 Y43.2413 
G01 X10.8332 Y43.1921 
G01 X10.8680 Y43.1319 
G01 X10.8814 Y43.0819 
G01 X10.8860 Y43.0647 
G01 X10.8860 Y31.0265 
G01 X10.8882 Y31.0124 
G01 X10.8860 Y30.9918 
G01 X10.8860 Y30.9711 
G01 X10.8823 Y30.9574 
G01 X10.8808 Y30.9432 
G01 X10.8734 Y30.9239 
G01 X10.8680 Y30.9039 
G01 X10.8609 Y30.8916 
G01 X10.8557 Y30.8783 
G01 X10.8436 Y30.8616 
G01 X10.8332 Y30.8437 
G01 X10.8231 Y30.8336 
G01 X10.8148 Y30.8221 
G01 X10.7987 Y30.8091 
G01 X10.7840 Y30.7945 
G01 X10.7717 Y30.7874 
G01 X10.7606 Y30.7785 
G01 X10.7417 Y30.7701 
G01 X10.7238 Y30.7597 
G01 X10.7100 Y30.7560 
G01 X9.0989  Y30.0424 
G01 X9.0810  Y30.0320 
G01 X9.0672  Y30.0283 
G01 X9.0542  Y30.0225 
G01 X9.0338  Y30.0194 
G01 X9.0138  Y30.0140 
G01 X8.9995  Y30.0140 
G01 X8.9855  Y30.0118 
G01 X8.9649  Y30.0140 
G01 X8.0643  Y30.0140 
G01 X8.0275  Y30.0239 
G01 X7.9971  Y30.0320 
G01 X7.9796  Y30.0421 
G01 X7.9369  Y30.0668 
G01 X7.8896  Y30.1140 
G01 X5.2703  Y30.1140 
G01 X5.1860  Y30.0296 
G01 X5.1860  Y28.9104 
G01 X5.2703  Y28.8260 
G01 X7.8896  Y28.8260 
G01 X7.9369  Y28.8732 
G01 X7.9823  Y28.8994 
G01 X7.9971  Y28.9080 
G01 X8.0290  Y28.9166 
G01 X8.0643  Y28.9260 
G01 X8.3300  Y28.9260 
G01 X8.3972  Y28.9080 
G01 X8.4575  Y28.8732 
G01 X9.5140  Y27.8166 
G01 X9.5632  Y27.7675 
G01 X9.5980  Y27.7072 
G01 X9.6160  Y27.6400 
G01 X9.6160  Y20.6200 
G01 X9.5980  Y20.5528 
G01 X9.5632  Y20.4925 
G01 X9.1866  Y20.1160 
G01 X9.1375  Y20.0668 
G01 X9.0772  Y20.0320 
G01 X9.0100  Y20.0140 
G01 X8.0643  Y20.0140 
G01 X8.0275  Y20.0239 
G01 X7.9971  Y20.0320 
G01 X7.9796  Y20.0421 
G01 X7.9369  Y20.0668 
G01 X7.8896  Y20.1140 
G01 X5.2703  Y20.1140 
G01 X5.1860  Y20.0296 
G01 X5.1860  Y18.9103 
G01 X5.2703  Y18.8260 
G01 X7.8896  Y18.8260 
G01 X7.9369  Y18.8732 
G01 X7.9823  Y18.8994 
G01 X7.9971  Y18.9080 
G01 X8.0290  Y18.9166 
G01 X8.0643  Y18.9260 
G01 X9.4182  Y18.9260 
G01 X9.6181  Y19.0088 
G01 X9.7837  Y19.1744 
G01 X10.4064 Y19.7971 
G01 X10.4556 Y19.8463 
G01 X10.6212 Y20.0118 
G01 X10.7040 Y20.2118 
G01 X10.7040 Y22.6966 
G01 X10.7220 Y22.7638 
G01 X10.7568 Y22.8240 
G01 X10.8060 Y22.8732 
G01 X10.8662 Y22.9080 
G01 X10.9334 Y22.9260 
G01 X21.4957 Y22.9260 
G01 X21.5629 Y22.9080 
G01 X21.6231 Y22.8732 
G01 X21.6703 Y22.8260 
G01 X24.2896 Y22.8260 
G01 X24.3740 Y22.9104 
G00 Z2.0000  
G00 X24.2646 Y22.9183 
G01 Z-0.1500 F200   
G01 X24.2421 Y22.9090 F350   
G01 X21.7179 Y22.9090 
G01 X21.6954 Y22.9183 
G01 X21.6783 Y22.9354 
G01 X21.6690 Y22.9579 
G01 X21.6690 Y23.0090 
G01 X10.6210 Y23.0090 
G01 X10.6210 Y20.2593 
G01 X10.5896 Y20.1421 
G01 X10.5289 Y20.0369 
G01 X9.5931  Y19.1011 
G01 X9.4879  Y19.0404 
G01 X9.3707  Y19.0090 
G01 X7.8910  Y19.0090 
G01 X7.8910  Y18.9579 
G01 X7.8817  Y18.9354 
G01 X7.8646  Y18.9183 
G01 X7.8421  Y18.9090 
G01 X5.3179  Y18.9090 
G01 X5.2954  Y18.9183 
G01 X5.2783  Y18.9354 
G01 X5.2690  Y18.9579 
G01 X5.2690  Y19.9821 
G01 X5.2783  Y20.0046 
G01 X5.2954  Y20.0217 
G01 X5.3179  Y20.0310 
G01 X7.8421  Y20.0310 
G01 X7.8646  Y20.0217 
G01 X7.8817  Y20.0046 
G01 X7.8910  Y19.9821 
G01 X7.8910  Y19.9310 
G01 X9.1190  Y19.9310 
G01 X9.6990  Y20.5110 
G01 X9.6990  Y27.7490 
G01 X8.4390  Y29.0090 
G01 X7.8910  Y29.0090 
G01 X7.8910  Y28.9579 
G01 X7.8817  Y28.9354 
G01 X7.8646  Y28.9183 
G01 X7.8421  Y28.9090 
G01 X5.3179  Y28.9090 
G01 X5.2954  Y28.9183 
G01 X5.2783  Y28.9354 
G01 X5.2690  Y28.9579 
G01 X5.2690  Y29.9821 
G01 X5.2783  Y30.0046 
G01 X5.2954  Y30.0217 
G01 X5.3179  Y30.0310 
G01 X7.8421  Y30.0310 
G01 X7.8646  Y30.0217 
G01 X7.8817  Y30.0046 
G01 X7.8910  Y29.9821 
G01 X7.8910  Y29.9310 
G01 X9.0525  Y29.9310 
G01 X10.9690 Y30.7800 
G01 X10.9690 Y43.3476 
G01 X10.8083 Y43.3476 
G01 X10.7858 Y43.3569 
G01 X10.7687 Y43.3740 
G01 X10.7594 Y43.3965 
G01 X10.7594 Y45.6559 
G01 X10.7687 Y45.6784 
G01 X10.7858 Y45.6955 
G01 X10.8083 Y45.7048 
G01 X12.0517 Y45.7048 
G01 X12.0742 Y45.6955 
G01 X12.0913 Y45.6784 
G01 X12.1006 Y45.6559 
G01 X12.1006 Y43.3965 
G01 X12.0913 Y43.3740 
G01 X12.0742 Y43.3569 
G01 X12.0517 Y43.3476 
G01 X11.8910 Y43.3476 
G01 X11.8910 Y30.5158 
G01 X11.8948 Y30.4913 
G01 X11.8910 Y30.4554 
G01 X11.8910 Y30.4193 
G01 X11.8846 Y30.3953 
G01 X11.8819 Y30.3706 
G01 X11.8689 Y30.3369 
G01 X11.8596 Y30.3021 
G01 X11.8472 Y30.2805 
G01 X11.8382 Y30.2574 
G01 X11.8169 Y30.2282 
G01 X11.7989 Y30.1969 
G01 X11.7813 Y30.1794 
G01 X11.7667 Y30.1593 
G01 X11.7386 Y30.1366 
G01 X11.7131 Y30.1111 
G01 X11.6915 Y30.0987 
G01 X11.6722 Y30.0831 
G01 X11.6392 Y30.0685 
G01 X11.6079 Y30.0504 
G01 X11.5839 Y30.0440 
G01 X9.5909  Y29.1611 
G01 X10.4431 Y28.3089 
G01 X10.5289 Y28.2231 
G01 X10.5896 Y28.1179 
G01 X10.6210 Y28.0007 
G01 X10.6210 Y23.9310 
G01 X21.6690 Y23.9310 
G01 X21.6690 Y23.9821 
G01 X21.6783 Y24.0046 
G01 X21.6954 Y24.0217 
G01 X21.7179 Y24.0310 
G01 X24.2421 Y24.0310 
G01 X24.2646 Y24.0217 
G01 X24.2817 Y24.0046 
G01 X24.2910 Y23.9821 
G01 X24.2910 Y22.9579 
G01 X24.2817 Y22.9354 
G01 X24.2646 Y22.9183 
G00 Z2.0000  
G00 X24.3063 Y24.8260 
G01 Z-0.1500 F200   
G01 X24.3271 Y24.8380 F350   
G01 X24.3943 Y24.8560 
G01 X25.5082 Y24.8560 
G01 X25.7081 Y24.9388 
G01 X25.8612 Y25.0918 
G01 X25.9440 Y25.2918 
G01 X25.9440 Y27.3444 
G01 X25.9620 Y27.4116 
G01 X25.9968 Y27.4718 
G01 X26.0460 Y27.5210 
G01 X26.1062 Y27.5558 
G01 X26.1734 Y27.5738 
G01 X26.4626 Y27.5738 
G01 X26.4799 Y27.5761 
G01 X26.4973 Y27.5738 
G01 X26.5147 Y27.5738 
G01 X26.5316 Y27.5693 
G01 X26.5489 Y27.5670 
G01 X26.5651 Y27.5603 
G01 X26.5819 Y27.5558 
G01 X26.5970 Y27.5471 
G01 X26.6132 Y27.5404 
G01 X26.6270 Y27.5297 
G01 X26.6422 Y27.5210 
G01 X26.6545 Y27.5087 
G01 X26.6684 Y27.4980 
G01 X26.6790 Y27.4842 
G01 X26.6914 Y27.4718 
G01 X26.7001 Y27.4567 
G01 X26.7107 Y27.4428 
G01 X26.7174 Y27.4267 
G01 X26.7261 Y27.4116 
G01 X26.7307 Y27.3947 
G01 X26.7582 Y27.3282 
G01 X27.1497 Y26.9367 
G01 X27.1641 Y26.9328 
G01 X27.1792 Y26.9241 
G01 X27.1953 Y26.9174 
G01 X27.2092 Y26.9068 
G01 X27.2243 Y26.8980 
G01 X27.2366 Y26.8857 
G01 X27.2505 Y26.8751 
G01 X27.2611 Y26.8612 
G01 X27.2735 Y26.8488 
G01 X27.2822 Y26.8337 
G01 X27.2928 Y26.8199 
G01 X27.2995 Y26.8037 
G01 X27.3083 Y26.7886 
G01 X27.3128 Y26.7717 
G01 X27.3195 Y26.7556 
G01 X27.3218 Y26.7383 
G01 X27.3263 Y26.7214 
G01 X27.3263 Y26.7040 
G01 X27.3285 Y26.6866 
G01 X27.3263 Y26.6693 
G01 X27.3263 Y26.6518 
G01 X27.3217 Y26.6350 
G01 X27.3195 Y26.6177 
G01 X27.3128 Y26.6015 
G01 X27.3083 Y26.5846 
G01 X27.2995 Y26.5695 
G01 X27.2929 Y26.5534 
G01 X27.2822 Y26.5395 
G01 X27.2735 Y26.5244 
G01 X27.2611 Y26.5121 
G01 X27.2505 Y26.4982 
G01 X27.2366 Y26.4876 
G01 X27.2243 Y26.4752 
G01 X27.2092 Y26.4665 
G01 X27.1953 Y26.4559 
G01 X27.1792 Y26.4492 
G01 X27.1366 Y26.4246 
G01 X26.9865 Y26.3094 
G01 X26.8528 Y26.1757 
G01 X26.7376 Y26.0256 
G01 X26.6430 Y25.8618 
G01 X26.5706 Y25.6870 
G01 X26.5305 Y25.5372 
G01 X26.6639 Y25.5372 
G01 X26.7250 Y25.7254 
G01 X26.8187 Y25.9093 
G01 X26.9400 Y26.0763 
G01 X27.0859 Y26.2222 
G01 X27.2529 Y26.3435 
G01 X27.4367 Y26.4371 
G01 X27.6330 Y26.5009 
G01 X27.8368 Y26.5332 
G01 X28.0432 Y26.5332 
G01 X28.2470 Y26.5009 
G01 X28.4432 Y26.4371 
G01 X28.6271 Y26.3435 
G01 X28.7941 Y26.2222 
G01 X28.9400 Y26.0763 
G01 X29.0613 Y25.9093 
G01 X29.1549 Y25.7254 
G01 X29.2161 Y25.5372 
G01 X29.3495 Y25.5372 
G01 X29.3093 Y25.6870 
G01 X29.2370 Y25.8618 
G01 X29.1424 Y26.0256 
G01 X29.0272 Y26.1757 
G01 X28.8935 Y26.3094 
G01 X28.7434 Y26.4246 
G01 X28.7008 Y26.4492 
G01 X28.6847 Y26.4559 
G01 X28.6708 Y26.4665 
G01 X28.6557 Y26.4752 
G01 X28.6434 Y26.4876 
G01 X28.6295 Y26.4982 
G01 X28.6189 Y26.5120 
G01 X28.6065 Y26.5244 
G01 X28.5978 Y26.5395 
G01 X28.5871 Y26.5534 
G01 X28.5805 Y26.5695 
G01 X28.5717 Y26.5846 
G01 X28.5672 Y26.6015 
G01 X28.5605 Y26.6177 
G01 X28.5582 Y26.6350 
G01 X28.5537 Y26.6518 
G01 X28.5537 Y26.6693 
G01 X28.5514 Y26.6866 
G01 X28.5537 Y26.7040 
G01 X28.5537 Y26.7214 
G01 X28.5582 Y26.7383 
G01 X28.5605 Y26.7556 
G01 X28.5672 Y26.7717 
G01 X28.5717 Y26.7886 
G01 X28.5805 Y26.8037 
G01 X28.5871 Y26.8199 
G01 X28.5978 Y26.8337 
G01 X28.6065 Y26.8488 
G01 X28.6189 Y26.8612 
G01 X28.6295 Y26.8751 
G01 X28.6433 Y26.8857 
G01 X28.6557 Y26.8980 
G01 X28.6708 Y26.9068 
G01 X28.6847 Y26.9174 
G01 X28.7008 Y26.9241 
G01 X28.7159 Y26.9328 
G01 X28.7303 Y26.9367 
G01 X29.1218 Y27.3282 
G01 X29.3340 Y27.8405 
G01 X29.3340 Y28.3951 
G01 X29.1218 Y28.9074 
G01 X28.7296 Y29.2996 
G01 X28.2173 Y29.5118 
G01 X27.6627 Y29.5118 
G01 X27.1504 Y29.2996 
G01 X26.7582 Y28.9074 
G01 X26.7307 Y28.8409 
G01 X26.7261 Y28.8240 
G01 X26.7174 Y28.8089 
G01 X26.7107 Y28.7928 
G01 X26.7001 Y28.7789 
G01 X26.6914 Y28.7638 
G01 X26.6790 Y28.7514 
G01 X26.6684 Y28.7376 
G01 X26.6545 Y28.7269 
G01 X26.6422 Y28.7146 
G01 X26.6270 Y28.7059 
G01 X26.6132 Y28.6952 
G01 X26.5970 Y28.6885 
G01 X26.5819 Y28.6798 
G01 X26.5651 Y28.6753 
G01 X26.5489 Y28.6686 
G01 X26.5316 Y28.6663 
G01 X26.5147 Y28.6618 
G01 X26.4973 Y28.6618 
G01 X26.4799 Y28.6595 
G01 X26.4626 Y28.6618 
G01 X25.4696 Y28.6618 
G01 X25.2696 Y28.5790 
G01 X25.1041 Y28.4134 
G01 X24.9388 Y28.2481 
G01 X24.8673 Y28.0756 
G01 X24.8628 Y28.0587 
G01 X24.8541 Y28.0436 
G01 X24.8474 Y28.0274 
G01 X24.8368 Y28.0136 
G01 X24.8280 Y27.9984 
G01 X24.8157 Y27.9861 
G01 X24.8050 Y27.9722 
G01 X24.7912 Y27.9616 
G01 X24.7788 Y27.9492 
G01 X24.7637 Y27.9405 
G01 X24.7499 Y27.9299 
G01 X24.7337 Y27.9232 
G01 X24.7186 Y27.9145 
G01 X24.7017 Y27.9099 
G01 X24.6856 Y27.9033 
G01 X24.6683 Y27.9010 
G01 X24.6514 Y27.8965 
G01 X24.6339 Y27.8965 
G01 X24.6166 Y27.8942 
G01 X24.5993 Y27.8965 
G01 X24.5818 Y27.8965 
G01 X24.5650 Y27.9010 
G01 X24.5476 Y27.9033 
G01 X24.5315 Y27.9099 
G01 X24.5146 Y27.9145 
G01 X24.4995 Y27.9232 
G01 X24.4834 Y27.9299 
G01 X24.4695 Y27.9405 
G01 X24.4544 Y27.9492 
G01 X24.4420 Y27.9616 
G01 X24.4282 Y27.9722 
G01 X24.4176 Y27.9861 
G01 X24.2896 Y28.1140 
G01 X21.6703 Y28.1140 
G01 X21.5860 Y28.0296 
G01 X21.5860 Y26.9104 
G01 X21.6703 Y26.8260 
G01 X24.2896 Y26.8260 
G01 X24.3804 Y26.9167 
G01 X24.4296 Y26.9659 
G01 X24.4898 Y27.0007 
G01 X24.5398 Y27.0141 
G01 X24.5570 Y27.0187 
G01 X24.6266 Y27.0187 
G01 X24.6938 Y27.0007 
G01 X24.7540 Y26.9659 
G01 X24.8032 Y26.9167 
G01 X24.8380 Y26.8565 
G01 X24.8514 Y26.8065 
G01 X24.8560 Y26.7893 
G01 X24.8560 Y26.1734 
G01 X24.8380 Y26.1062 
G01 X24.8032 Y26.0460 
G01 X24.7540 Y25.9968 
G01 X24.6938 Y25.9620 
G01 X24.6266 Y25.9440 
G01 X24.5343 Y25.9440 
G01 X24.4671 Y25.9620 
G01 X24.4069 Y25.9968 
G01 X24.2896 Y26.1140 
G01 X21.6703 Y26.1140 
G01 X21.5860 Y26.0296 
G01 X21.5860 Y24.9104 
G01 X21.6703 Y24.8260 
G01 X24.3063 Y24.8260 
G00 Z2.0000  
G00 X24.2646 Y24.9183 
G01 Z-0.1500 F200   
G01 X24.2421 Y24.9090 F350   
G01 X21.7179 Y24.9090 
G01 X21.6954 Y24.9183 
G01 X21.6783 Y24.9354 
G01 X21.6690 Y24.9579 
G01 X21.6690 Y25.9821 
G01 X21.6783 Y26.0046 
G01 X21.6954 Y26.0217 
G01 X21.7179 Y26.0310 
G01 X24.2421 Y26.0310 
G01 X24.2646 Y26.0217 
G01 X24.2817 Y26.0046 
G01 X24.2910 Y25.9821 
G01 X24.2910 Y25.8610 
G01 X24.9390 Y25.8610 
G01 X24.9390 Y28.0007 
G01 X24.9704 Y28.1179 
G01 X25.0311 Y28.2231 
G01 X25.2089 Y28.4009 
G01 X25.2947 Y28.4867 
G01 X25.3999 Y28.5474 
G01 X25.5171 Y28.5788 
G01 X26.7113 Y28.5788 
G01 X26.7250 Y28.6210 
G01 X26.8187 Y28.8049 
G01 X26.9400 Y28.9719 
G01 X27.0859 Y29.1178 
G01 X27.2529 Y29.2391 
G01 X27.4367 Y29.3328 
G01 X27.6330 Y29.3965 
G01 X27.8368 Y29.4288 
G01 X28.0432 Y29.4288 
G01 X28.2470 Y29.3965 
G01 X28.4432 Y29.3328 
G01 X28.6271 Y29.2391 
G01 X28.7941 Y29.1178 
G01 X28.9400 Y28.9719 
G01 X29.0613 Y28.8049 
G01 X29.1549 Y28.6210 
G01 X29.2187 Y28.4248 
G01 X29.2510 Y28.2210 
G01 X29.2510 Y28.0146 
G01 X29.2187 Y27.8108 
G01 X29.1549 Y27.6146 
G01 X29.0613 Y27.4307 
G01 X28.9400 Y27.2637 
G01 X28.7941 Y27.1178 
G01 X28.6271 Y26.9965 
G01 X28.4432 Y26.9028 
G01 X28.2470 Y26.8391 
G01 X28.0432 Y26.8068 
G01 X27.8368 Y26.8068 
G01 X27.6330 Y26.8391 
G01 X27.4367 Y26.9028 
G01 X27.2529 Y26.9965 
G01 X27.0859 Y27.1178 
G01 X26.9400 Y27.2637 
G01 X26.8187 Y27.4307 
G01 X26.7250 Y27.6146 
G01 X26.7113 Y27.6568 
G01 X25.8610 Y27.6568 
G01 X25.8610 Y25.3393 
G01 X25.8296 Y25.2221 
G01 X25.7689 Y25.1169 
G01 X25.6831 Y25.0311 
G01 X25.5779 Y24.9704 
G01 X25.4607 Y24.9390 
G01 X24.2832 Y24.9390 
G01 X24.2817 Y24.9354 
G01 X24.2646 Y24.9183 
G00 Z2.0000  
G00 X24.2646 Y26.9183 
G01 Z-0.1500 F200   
G01 X24.2421 Y26.9090 F350   
G01 X21.7179 Y26.9090 
G01 X21.6954 Y26.9183 
G01 X21.6783 Y26.9354 
G01 X21.6690 Y26.9579 
G01 X21.6690 Y27.9821 
G01 X21.6783 Y28.0046 
G01 X21.6954 Y28.0217 
G01 X21.7179 Y28.0310 
G01 X24.2421 Y28.0310 
G01 X24.2646 Y28.0217 
G01 X24.2817 Y28.0046 
G01 X24.2910 Y27.9821 
G01 X24.2910 Y26.9579 
G01 X24.2817 Y26.9354 
G01 X24.2646 Y26.9183 
G00 Z2.0000  
G00 X24.2896 Y28.8260 
G01 Z-0.1500 F200   
G01 X24.3740 Y28.9104 F350   
G01 X24.3740 Y30.0296 
G01 X24.2896 Y30.1140 
G01 X21.6703 Y30.1140 
G01 X21.5860 Y30.0296 
G01 X21.5860 Y28.9104 
G01 X21.6703 Y28.8260 
G01 X24.2896 Y28.8260 
G00 Z2.0000  
G00 X24.2646 Y28.9183 
G01 Z-0.1500 F200   
G01 X24.2421 Y28.9090 F350   
G01 X21.7179 Y28.9090 
G01 X21.6954 Y28.9183 
G01 X21.6783 Y28.9354 
G01 X21.6690 Y28.9579 
G01 X21.6690 Y29.9821 
G01 X21.6783 Y30.0046 
G01 X21.6954 Y30.0217 
G01 X21.7179 Y30.0310 
G01 X24.2421 Y30.0310 
G01 X24.2646 Y30.0217 
G01 X24.2817 Y30.0046 
G01 X24.2910 Y29.9821 
G01 X24.2910 Y28.9579 
G01 X24.2817 Y28.9354 
G01 X24.2646 Y28.9183 
G00 Z2.0000  
G00 X24.2896 Y30.8260 
G01 Z-0.1500 F200   
G01 X24.3369 Y30.8732 F350   
G01 X24.3823 Y30.8994 
G01 X24.3971 Y30.9080 
G01 X24.4291 Y30.9166 
G01 X24.4643 Y30.9260 
G01 X24.9643 Y30.9260 
G01 X24.9711 Y30.9274 
G01 X24.9990 Y30.9260 
G01 X25.0269 Y30.9260 
G01 X25.0337 Y30.9242 
G01 X25.0406 Y30.9238 
G01 X25.0550 Y30.9192 
G01 X25.1069 Y30.9233 
G01 X25.1171 Y30.9260 
G01 X25.1415 Y30.9260 
G01 X25.1658 Y30.9279 
G01 X25.1761 Y30.9260 
G01 X25.2282 Y30.9260 
G01 X25.2422 Y30.9318 
G01 X25.2491 Y30.9327 
G01 X25.2557 Y30.9350 
G01 X25.2708 Y30.9362 
G01 X25.3171 Y30.9599 
G01 X25.3255 Y30.9663 
G01 X25.3480 Y30.9756 
G01 X25.3697 Y30.9867 
G01 X25.3800 Y30.9889 
G01 X25.4281 Y31.0088 
G01 X25.4388 Y31.0195 
G01 X25.4449 Y31.0230 
G01 X25.4501 Y31.0277 
G01 X25.4636 Y31.0346 
G01 X25.4974 Y31.0742 
G01 X25.5026 Y31.0833 
G01 X25.5198 Y31.1005 
G01 X25.5357 Y31.1190 
G01 X25.5444 Y31.1250 
G01 X25.5812 Y31.1618 
G01 X25.5870 Y31.1759 
G01 X25.5912 Y31.1814 
G01 X25.5942 Y31.1877 
G01 X25.6040 Y31.1992 
G01 X25.6201 Y31.2487 
G01 X25.6215 Y31.2592 
G01 X25.6308 Y31.2817 
G01 X25.6383 Y31.3048 
G01 X25.6441 Y31.3137 
G01 X25.6640 Y31.3618 
G01 X25.6640 Y31.3769 
G01 X25.6658 Y31.3837 
G01 X25.6662 Y31.3906 
G01 X25.6748 Y31.4171 
G01 X25.6820 Y31.4441 
G01 X25.6855 Y31.4502 
G01 X26.3690 Y33.5568 
G01 X26.3762 Y33.5838 
G01 X26.3797 Y33.5898 
G01 X26.3819 Y33.5964 
G01 X26.3971 Y33.6198 
G01 X26.4110 Y33.6440 
G01 X26.4159 Y33.6489 
G01 X26.4197 Y33.6548 
G01 X26.4405 Y33.6735 
G01 X26.4602 Y33.6932 
G01 X26.4662 Y33.6967 
G01 X26.4714 Y33.7013 
G01 X26.4963 Y33.7140 
G01 X26.5205 Y33.7280 
G01 X26.5272 Y33.7298 
G01 X26.5334 Y33.7330 
G01 X26.5607 Y33.7388 
G01 X26.5877 Y33.7460 
G01 X26.5946 Y33.7460 
G01 X26.6014 Y33.7474 
G01 X26.6293 Y33.7460 
G01 X26.6334 Y33.7460 
G01 X26.6508 Y33.7483 
G01 X26.6681 Y33.7460 
G01 X26.6855 Y33.7460 
G01 X26.7024 Y33.7415 
G01 X26.7197 Y33.7392 
G01 X26.7358 Y33.7325 
G01 X26.7527 Y33.7280 
G01 X26.7678 Y33.7193 
G01 X26.7840 Y33.7126 
G01 X26.7979 Y33.7019 
G01 X26.8130 Y33.6932 
G01 X26.8253 Y33.6809 
G01 X26.8392 Y33.6702 
G01 X26.8498 Y33.6564 
G01 X26.8622 Y33.6440 
G01 X26.8709 Y33.6289 
G01 X26.8815 Y33.6150 
G01 X26.8882 Y33.5989 
G01 X26.8955 Y33.5862 
G01 X27.2500 Y33.2318 
G01 X27.2662 Y33.2186 
G01 X27.2744 Y33.2073 
G01 X27.2843 Y33.1974 
G01 X27.2948 Y33.1793 
G01 X27.3071 Y33.1623 
G01 X27.3121 Y33.1493 
G01 X27.3191 Y33.1372 
G01 X27.3245 Y33.1169 
G01 X27.3320 Y33.0974 
G01 X27.3335 Y33.0835 
G01 X27.3371 Y33.0700 
G01 X27.3371 Y33.0490 
G01 X27.3393 Y33.0282 
G01 X27.3371 Y33.0144 
G01 X27.3371 Y33.0004 
G01 X27.3317 Y32.9802 
G01 X27.3284 Y32.9595 
G01 X27.3227 Y32.9467 
G01 X27.3191 Y32.9332 
G01 X27.3086 Y32.9151 
G01 X27.3001 Y32.8960 
G01 X27.2913 Y32.8851 
G01 X27.2843 Y32.8730 
G01 X27.2695 Y32.8582 
G01 X27.2564 Y32.8419 
G01 X27.2450 Y32.8337 
G01 X27.2351 Y32.8238 
G01 X27.2170 Y32.8133 
G01 X27.1027 Y32.7303 
G01 X26.9597 Y32.5873 
G01 X26.8408 Y32.4236 
G01 X26.7490 Y32.2433 
G01 X26.6864 Y32.0510 
G01 X26.6806 Y32.0142 
G01 X26.8143 Y32.0142 
G01 X26.8152 Y32.0200 
G01 X26.8713 Y32.1927 
G01 X26.9537 Y32.3544 
G01 X27.0604 Y32.5013 
G01 X27.1887 Y32.6296 
G01 X27.3356 Y32.7363 
G01 X27.4973 Y32.8187 
G01 X27.6700 Y32.8748 
G01 X27.8492 Y32.9032 
G01 X28.0308 Y32.9032 
G01 X28.2100 Y32.8748 
G01 X28.3827 Y32.8187 
G01 X28.5444 Y32.7363 
G01 X28.6913 Y32.6296 
G01 X28.8196 Y32.5013 
G01 X28.9263 Y32.3544 
G01 X29.0087 Y32.1927 
G01 X29.0648 Y32.0200 
G01 X29.0657 Y32.0142 
G01 X29.1994 Y32.0142 
G01 X29.1936 Y32.0510 
G01 X29.1310 Y32.2433 
G01 X29.0392 Y32.4236 
G01 X28.9203 Y32.5873 
G01 X28.7772 Y32.7303 
G01 X28.6630 Y32.8133 
G01 X28.6449 Y32.8238 
G01 X28.6350 Y32.8337 
G01 X28.6236 Y32.8419 
G01 X28.6105 Y32.8582 
G01 X28.5957 Y32.8730 
G01 X28.5887 Y32.8851 
G01 X28.5799 Y32.8960 
G01 X28.5714 Y32.9151 
G01 X28.5609 Y32.9332 
G01 X28.5573 Y32.9467 
G01 X28.5516 Y32.9595 
G01 X28.5483 Y32.9802 
G01 X28.5429 Y33.0004 
G01 X28.5429 Y33.0144 
G01 X28.5407 Y33.0282 
G01 X28.5429 Y33.0490 
G01 X28.5429 Y33.0700 
G01 X28.5465 Y33.0835 
G01 X28.5480 Y33.0974 
G01 X28.5555 Y33.1169 
G01 X28.5609 Y33.1372 
G01 X28.5679 Y33.1493 
G01 X28.5729 Y33.1623 
G01 X28.5852 Y33.1793 
G01 X28.5957 Y33.1974 
G01 X28.6056 Y33.2073 
G01 X28.6138 Y33.2186 
G01 X28.6300 Y33.2318 
G01 X28.9880 Y33.5897 
G01 X29.1762 Y34.0441 
G01 X29.1762 Y34.5359 
G01 X28.9880 Y34.9902 
G01 X28.6297 Y35.3486 
G01 X28.5805 Y35.3978 
G01 X28.5465 Y35.4567 
G01 X28.5277 Y35.5252 
G01 X28.5277 Y35.5948 
G01 X28.5327 Y35.6136 
G01 X28.5457 Y35.6620 
G01 X28.5794 Y35.7204 
G01 X28.5841 Y35.7259 
G01 X28.6297 Y35.7714 
G01 X28.9880 Y36.1297 
G01 X29.1762 Y36.5841 
G01 X29.1762 Y37.0759 
G01 X28.9880 Y37.5302 
G01 X28.6402 Y37.8780 
G01 X28.1859 Y38.0662 
G01 X27.6941 Y38.0662 
G01 X27.2397 Y37.8780 
G01 X26.8955 Y37.5338 
G01 X26.8882 Y37.5211 
G01 X26.8815 Y37.5050 
G01 X26.8709 Y37.4911 
G01 X26.8622 Y37.4760 
G01 X26.8498 Y37.4636 
G01 X26.8392 Y37.4498 
G01 X26.8253 Y37.4391 
G01 X26.8130 Y37.4268 
G01 X26.7979 Y37.4181 
G01 X26.7840 Y37.4074 
G01 X26.7678 Y37.4007 
G01 X26.7527 Y37.3920 
G01 X26.7358 Y37.3875 
G01 X26.7197 Y37.3808 
G01 X26.7024 Y37.3785 
G01 X26.6855 Y37.3740 
G01 X26.6681 Y37.3740 
G01 X26.6508 Y37.3717 
G01 X26.6334 Y37.3740 
G01 X25.2918 Y37.3740 
G01 X25.0918 Y37.2912 
G01 X22.7336 Y34.9329 
G01 X22.5188 Y34.7181 
G01 X22.4360 Y34.5182 
G01 X22.4360 Y34.3434 
G01 X22.4180 Y34.2762 
G01 X22.3832 Y34.2160 
G01 X22.3340 Y34.1668 
G01 X22.2738 Y34.1320 
G01 X22.2066 Y34.1140 
G01 X21.6703 Y34.1140 
G01 X21.5860 Y34.0296 
G01 X21.5860 Y32.9104 
G01 X21.6703 Y32.8260 
G01 X24.2896 Y32.8260 
G01 X24.3740 Y32.9104 
G01 X24.3740 Y34.0296 
G01 X24.2896 Y34.1140 
G01 X24.0564 Y34.1140 
G01 X23.9892 Y34.1320 
G01 X23.9289 Y34.1668 
G01 X23.8797 Y34.2160 
G01 X23.8450 Y34.2762 
G01 X23.8270 Y34.3434 
G01 X23.8270 Y34.4130 
G01 X23.8450 Y34.4802 
G01 X23.8797 Y34.5404 
G01 X23.9061 Y34.5668 
G01 X23.9289 Y34.5896 
G01 X25.5462 Y36.2068 
G01 X25.5725 Y36.2332 
G01 X25.6328 Y36.2680 
G01 X25.7000 Y36.2860 
G01 X26.6334 Y36.2860 
G01 X26.6508 Y36.2883 
G01 X26.6681 Y36.2860 
G01 X26.6855 Y36.2860 
G01 X26.7024 Y36.2815 
G01 X26.7197 Y36.2792 
G01 X26.7358 Y36.2725 
G01 X26.7527 Y36.2680 
G01 X26.7678 Y36.2593 
G01 X26.7840 Y36.2526 
G01 X26.7979 Y36.2419 
G01 X26.8130 Y36.2332 
G01 X26.8253 Y36.2209 
G01 X26.8392 Y36.2102 
G01 X26.8498 Y36.1964 
G01 X26.8622 Y36.1840 
G01 X26.8709 Y36.1689 
G01 X26.8815 Y36.1550 
G01 X26.8882 Y36.1389 
G01 X26.8955 Y36.1262 
G01 X27.2503 Y35.7714 
G01 X27.2995 Y35.7222 
G01 X27.3343 Y35.6620 
G01 X27.3477 Y35.6120 
G01 X27.3523 Y35.5948 
G01 X27.3523 Y35.5252 
G01 X27.3343 Y35.4580 
G01 X27.2995 Y35.3978 
G01 X26.8955 Y34.9938 
G01 X26.8882 Y34.9811 
G01 X26.8815 Y34.9650 
G01 X26.8709 Y34.9511 
G01 X26.8622 Y34.9360 
G01 X26.8498 Y34.9236 
G01 X26.8392 Y34.9098 
G01 X26.8253 Y34.8991 
G01 X26.8130 Y34.8868 
G01 X26.7979 Y34.8781 
G01 X26.7840 Y34.8674 
G01 X26.7678 Y34.8607 
G01 X26.7527 Y34.8520 
G01 X26.7358 Y34.8475 
G01 X26.7197 Y34.8408 
G01 X26.7024 Y34.8385 
G01 X26.6855 Y34.8340 
G01 X26.6681 Y34.8340 
G01 X26.6508 Y34.8317 
G01 X26.6334 Y34.8340 
G01 X26.1907 Y34.8340 
G01 X26.1838 Y34.8325 
G01 X26.1560 Y34.8340 
G01 X26.1281 Y34.8340 
G01 X26.1213 Y34.8358 
G01 X26.1144 Y34.8362 
G01 X26.1000 Y34.8408 
G01 X26.0481 Y34.8367 
G01 X26.0379 Y34.8340 
G01 X26.0135 Y34.8340 
G01 X25.9892 Y34.8321 
G01 X25.9789 Y34.8340 
G01 X25.9268 Y34.8340 
G01 X25.9128 Y34.8282 
G01 X25.9059 Y34.8273 
G01 X25.8993 Y34.8250 
G01 X25.8842 Y34.8238 
G01 X25.8378 Y34.8001 
G01 X25.8295 Y34.7937 
G01 X25.8070 Y34.7844 
G01 X25.7853 Y34.7733 
G01 X25.7750 Y34.7711 
G01 X25.7269 Y34.7512 
G01 X25.7161 Y34.7405 
G01 X25.7101 Y34.7370 
G01 X25.7049 Y34.7323 
G01 X25.6914 Y34.7254 
G01 X25.6576 Y34.6858 
G01 X25.6524 Y34.6767 
G01 X25.6351 Y34.6595 
G01 X25.6193 Y34.6410 
G01 X25.6106 Y34.6350 
G01 X25.5738 Y34.5981 
G01 X25.5680 Y34.5841 
G01 X25.5638 Y34.5786 
G01 X25.5608 Y34.5723 
G01 X25.5510 Y34.5608 
G01 X25.5349 Y34.5113 
G01 X25.5335 Y34.5008 
G01 X25.5242 Y34.4783 
G01 X25.5167 Y34.4552 
G01 X25.5109 Y34.4463 
G01 X25.4910 Y34.3982 
G01 X25.4910 Y34.3830 
G01 X25.4892 Y34.3763 
G01 X25.4888 Y34.3694 
G01 X25.4802 Y34.3428 
G01 X25.4730 Y34.3159 
G01 X25.4695 Y34.3098 
G01 X24.7860 Y32.2032 
G01 X24.7787 Y32.1762 
G01 X24.7753 Y32.1702 
G01 X24.7731 Y32.1636 
G01 X24.7579 Y32.1402 
G01 X24.7440 Y32.1160 
G01 X24.7390 Y32.1110 
G01 X24.7353 Y32.1052 
G01 X24.7145 Y32.0865 
G01 X24.6948 Y32.0668 
G01 X24.6888 Y32.0633 
G01 X24.6836 Y32.0586 
G01 X24.6587 Y32.0460 
G01 X24.6345 Y32.0320 
G01 X24.6278 Y32.0302 
G01 X24.6216 Y32.0270 
G01 X24.5943 Y32.0212 
G01 X24.5673 Y32.0140 
G01 X24.5604 Y32.0140 
G01 X24.5536 Y32.0125 
G01 X24.5257 Y32.0140 
G01 X24.4643 Y32.0140 
G01 X24.4275 Y32.0239 
G01 X24.3971 Y32.0320 
G01 X24.3796 Y32.0421 
G01 X24.3369 Y32.0668 
G01 X24.2896 Y32.1140 
G01 X21.6703 Y32.1140 
G01 X21.5860 Y32.0296 
G01 X21.5860 Y30.9103 
G01 X21.6703 Y30.8260 
G01 X24.2896 Y30.8260 
G00 Z2.0000  
G00 X24.2646 Y30.9183 
G01 Z-0.1500 F200   
G01 X24.2421 Y30.9090 F350   
G01 X21.7179 Y30.9090 
G01 X21.6954 Y30.9183 
G01 X21.6783 Y30.9354 
G01 X21.6690 Y30.9579 
G01 X21.6690 Y31.9821 
G01 X21.6783 Y32.0046 
G01 X21.6954 Y32.0217 
G01 X21.7179 Y32.0310 
G01 X24.2421 Y32.0310 
G01 X24.2646 Y32.0217 
G01 X24.2817 Y32.0046 
G01 X24.2910 Y31.9821 
G01 X24.2910 Y31.9310 
G01 X24.7849 Y31.9310 
G01 X25.5928 Y34.4209 
G01 X25.6054 Y34.4679 
G01 X25.6115 Y34.4784 
G01 X25.6152 Y34.4900 
G01 X25.6417 Y34.5309 
G01 X25.6661 Y34.5731 
G01 X25.6747 Y34.5817 
G01 X25.6813 Y34.5918 
G01 X25.7175 Y34.6244 
G01 X25.7519 Y34.6589 
G01 X25.7625 Y34.6650 
G01 X25.7715 Y34.6731 
G01 X25.8149 Y34.6952 
G01 X25.8571 Y34.7196 
G01 X25.8688 Y34.7227 
G01 X25.8796 Y34.7282 
G01 X25.9272 Y34.7384 
G01 X25.9743 Y34.7510 
G01 X25.9865 Y34.7510 
G01 X25.9983 Y34.7535 
G01 X26.0469 Y34.7510 
G01 X26.8806 Y34.7510 
G01 X26.9537 Y34.8944 
G01 X27.0604 Y35.0413 
G01 X27.1887 Y35.1696 
G01 X27.3356 Y35.2763 
G01 X27.4973 Y35.3587 
G01 X27.6700 Y35.4148 
G01 X27.8492 Y35.4432 
G01 X28.0308 Y35.4432 
G01 X28.2100 Y35.4148 
G01 X28.3827 Y35.3587 
G01 X28.5444 Y35.2763 
G01 X28.6913 Y35.1696 
G01 X28.8196 Y35.0413 
G01 X28.9263 Y34.8944 
G01 X29.0087 Y34.7327 
G01 X29.0648 Y34.5600 
G01 X29.0932 Y34.3808 
G01 X29.0932 Y34.1992 
G01 X29.0648 Y34.0200 
G01 X29.0087 Y33.8473 
G01 X28.9263 Y33.6856 
G01 X28.8196 Y33.5387 
G01 X28.6913 Y33.4104 
G01 X28.5444 Y33.3037 
G01 X28.3827 Y33.2213 
G01 X28.2100 Y33.1652 
G01 X28.0308 Y33.1368 
G01 X27.8492 Y33.1368 
G01 X27.6700 Y33.1652 
G01 X27.4973 Y33.2213 
G01 X27.3356 Y33.3037 
G01 X27.1887 Y33.4104 
G01 X27.0604 Y33.5387 
G01 X26.9537 Y33.6856 
G01 X26.8806 Y33.8290 
G01 X26.3701 Y33.8290 
G01 X25.5622 Y31.3391 
G01 X25.5496 Y31.2921 
G01 X25.5435 Y31.2815 
G01 X25.5398 Y31.2700 
G01 X25.5132 Y31.2291 
G01 X25.4889 Y31.1869 
G01 X25.4803 Y31.1783 
G01 X25.4737 Y31.1682 
G01 X25.4375 Y31.1356 
G01 X25.4031 Y31.1011 
G01 X25.3925 Y31.0950 
G01 X25.3835 Y31.0869 
G01 X25.3401 Y31.0648 
G01 X25.2979 Y31.0404 
G01 X25.2862 Y31.0373 
G01 X25.2754 Y31.0318 
G01 X25.2278 Y31.0216 
G01 X25.1807 Y31.0090 
G01 X25.1685 Y31.0090 
G01 X25.1567 Y31.0065 
G01 X25.1080 Y31.0090 
G01 X24.2910 Y31.0090 
G01 X24.2910 Y30.9579 
G01 X24.2817 Y30.9354 
G01 X24.2646 Y30.9183 
G00 Z2.0000  
G00 X24.2646 Y32.9183 
G01 Z-0.1500 F200   
G01 X24.2421 Y32.9090 F350   
G01 X21.7179 Y32.9090 
G01 X21.6954 Y32.9183 
G01 X21.6783 Y32.9354 
G01 X21.6690 Y32.9579 
G01 X21.6690 Y33.9821 
G01 X21.6783 Y34.0046 
G01 X21.6954 Y34.0217 
G01 X21.7179 Y34.0310 
G01 X22.5190 Y34.0310 
G01 X22.5190 Y34.4707 
G01 X22.5504 Y34.5879 
G01 X22.6111 Y34.6931 
G01 X22.6969 Y34.7789 
G01 X25.1169 Y37.1989 
G01 X25.2221 Y37.2596 
G01 X25.3393 Y37.2910 
G01 X26.8806 Y37.2910 
G01 X26.9537 Y37.4344 
G01 X27.0604 Y37.5813 
G01 X27.1887 Y37.7096 
G01 X27.3356 Y37.8163 
G01 X27.4973 Y37.8987 
G01 X27.6700 Y37.9548 
G01 X27.8492 Y37.9832 
G01 X28.0308 Y37.9832 
G01 X28.2100 Y37.9548 
G01 X28.3827 Y37.8987 
G01 X28.5444 Y37.8163 
G01 X28.6913 Y37.7096 
G01 X28.8196 Y37.5813 
G01 X28.9263 Y37.4344 
G01 X29.0087 Y37.2727 
G01 X29.0648 Y37.1000 
G01 X29.0932 Y36.9208 
G01 X29.0932 Y36.7392 
G01 X29.0648 Y36.5600 
G01 X29.0087 Y36.3873 
G01 X28.9263 Y36.2256 
G01 X28.8196 Y36.0787 
G01 X28.6913 Y35.9504 
G01 X28.5444 Y35.8437 
G01 X28.3827 Y35.7613 
G01 X28.2100 Y35.7052 
G01 X28.0308 Y35.6768 
G01 X27.8492 Y35.6768 
G01 X27.6700 Y35.7052 
G01 X27.4973 Y35.7613 
G01 X27.3356 Y35.8437 
G01 X27.1887 Y35.9504 
G01 X27.0604 Y36.0787 
G01 X26.9537 Y36.2256 
G01 X26.8806 Y36.3690 
G01 X25.5910 Y36.3690 
G01 X23.4410 Y34.2190 
G01 X23.4410 Y34.0310 
G01 X24.2421 Y34.0310 
G01 X24.2646 Y34.0217 
G01 X24.2817 Y34.0046 
G01 X24.2910 Y33.9821 
G01 X24.2910 Y32.9579 
G01 X24.2817 Y32.9354 
G01 X24.2646 Y32.9183 
G00 Z2.0000  
G00 X26.6806 Y31.4858 
G01 Z-0.1500 F200   
G01 X26.6864 Y31.4490 F350   
G01 X26.7490 Y31.2567 
G01 X26.8408 Y31.0764 
G01 X26.9597 Y30.9127 
G01 X27.1027 Y30.7697 
G01 X27.2664 Y30.6508 
G01 X27.4467 Y30.5589 
G01 X27.6390 Y30.4964 
G01 X27.6758 Y30.4906 
G01 X27.6758 Y30.6243 
G01 X27.6700 Y30.6252 
G01 X27.4973 Y30.6813 
G01 X27.3356 Y30.7637 
G01 X27.1887 Y30.8704 
G01 X27.0604 Y30.9987 
G01 X26.9537 Y31.1456 
G01 X26.8713 Y31.3073 
G01 X26.8152 Y31.4800 
G01 X26.8143 Y31.4858 
G01 X26.6806 Y31.4858 
G00 Z2.0000  
G00 X28.2042 Y30.6243 
G01 Z-0.1500 F200   
G01 X28.2042 Y30.4906 F350   
G01 X28.2410 Y30.4964 
G01 X28.4333 Y30.5589 
G01 X28.6136 Y30.6508 
G01 X28.7772 Y30.7697 
G01 X28.9203 Y30.9127 
G01 X29.0392 Y31.0764 
G01 X29.1310 Y31.2567 
G01 X29.1936 Y31.4490 
G01 X29.1994 Y31.4858 
G01 X29.0657 Y31.4858 
G01 X29.0648 Y31.4800 
G01 X29.0087 Y31.3073 
G01 X28.9263 Y31.1456 
G01 X28.8196 Y30.9987 
G01 X28.6913 Y30.8704 
G01 X28.5444 Y30.7637 
G01 X28.3827 Y30.6813 
G01 X28.2100 Y30.6252 
G01 X28.2042 Y30.6243 
G00 Z2.0000  
G00 X28.2550 Y23.9461 
G01 Z-0.1500 F200   
G01 X28.2550 Y23.8127 F350   
G01 X28.4048 Y23.8528 
G01 X28.5796 Y23.9252 
G01 X28.7434 Y24.0198 
G01 X28.8935 Y24.1350 
G01 X29.0272 Y24.2687 
G01 X29.1424 Y24.4188 
G01 X29.2370 Y24.5826 
G01 X29.3093 Y24.7574 
G01 X29.3495 Y24.9072 
G01 X29.2161 Y24.9072 
G01 X29.1549 Y24.7189 
G01 X29.0613 Y24.5351 
G01 X28.9400 Y24.3681 
G01 X28.7941 Y24.2222 
G01 X28.6271 Y24.1009 
G01 X28.4432 Y24.0072 
G01 X28.2550 Y23.9461 
G00 Z2.0000  
G00 X27.6250 Y23.9461 
G01 Z-0.1500 F200   
G01 X27.4367 Y24.0072 F350   
G01 X27.2529 Y24.1009 
G01 X27.0859 Y24.2222 
G01 X26.9400 Y24.3681 
G01 X26.8187 Y24.5351 
G01 X26.7250 Y24.7189 
G01 X26.6639 Y24.9072 
G01 X26.5305 Y24.9072 
G01 X26.5706 Y24.7574 
G01 X26.6430 Y24.5826 
G01 X26.7376 Y24.4188 
G01 X26.8528 Y24.2687 
G01 X26.9865 Y24.1350 
G01 X27.1366 Y24.0198 
G01 X27.3004 Y23.9252 
G01 X27.4752 Y23.8528 
G01 X27.6250 Y23.8127 
G01 X27.6250 Y23.9461 
G00 Z2.0000  
G00 X22.6690 Y22.1630 
G01 Z-0.1500 F200   
G01 X21.7046 Y22.1630 F350   
G01 X21.6555 Y22.1498 
G01 X21.6115 Y22.1244 
G01 X21.5756 Y22.0885 
G01 X21.5501 Y22.0445 
G01 X21.5370 Y21.9954 
G01 X21.5370 Y21.7810 
G01 X21.6690 Y21.7810 
G01 X21.6690 Y21.9821 
G01 X21.6783 Y22.0046 
G01 X21.6954 Y22.0217 
G01 X21.7179 Y22.0310 
G01 X22.6690 Y22.0310 
G01 X22.6690 Y22.1630 
G00 Z2.0000  
G00 X22.6690 Y20.9090 
G01 Z-0.1500 F200   
G01 X21.7179 Y20.9090 F350   
G01 X21.6954 Y20.9183 
G01 X21.6783 Y20.9354 
G01 X21.6690 Y20.9579 
G01 X21.6690 Y21.1590 
G01 X21.5370 Y21.1590 
G01 X21.5370 Y20.9446 
G01 X21.5501 Y20.8955 
G01 X21.5756 Y20.8515 
G01 X21.6115 Y20.8156 
G01 X21.6555 Y20.7901 
G01 X21.7046 Y20.7770 
G01 X22.6690 Y20.7770 
G01 X22.6690 Y20.9090 
G00 Z2.0000  
G00 X22.6690 Y20.1630 
G01 Z-0.1500 F200   
G01 X21.7046 Y20.1630 F350   
G01 X21.6555 Y20.1498 
G01 X21.6115 Y20.1244 
G01 X21.5756 Y20.0885 
G01 X21.5501 Y20.0445 
G01 X21.5370 Y19.9954 
G01 X21.5370 Y19.7810 
G01 X21.6690 Y19.7810 
G01 X21.6690 Y19.9821 
G01 X21.6783 Y20.0046 
G01 X21.6954 Y20.0217 
G01 X21.7179 Y20.0310 
G01 X22.6690 Y20.0310 
G01 X22.6690 Y20.1630 
G00 Z2.0000  
G00 X22.6690 Y18.9090 
G01 Z-0.1500 F200   
G01 X21.7179 Y18.9090 F350   
G01 X21.6954 Y18.9183 
G01 X21.6783 Y18.9354 
G01 X21.6690 Y18.9579 
G01 X21.6690 Y19.1590 
G01 X21.5370 Y19.1590 
G01 X21.5370 Y18.9446 
G01 X21.5501 Y18.8955 
G01 X21.5756 Y18.8515 
G01 X21.6115 Y18.8156 
G01 X21.6555 Y18.7901 
G01 X21.7046 Y18.7770 
G01 X22.6690 Y18.7770 
G01 X22.6690 Y18.9090 
G00 Z2.0000  
G00 X20.8760 Y14.0113 
G01 Z-0.1500 F200   
G01 X20.7673 Y14.0903 F350   
G01 X20.6476 Y14.1513 
G01 X20.5842 Y14.1719 
G01 X20.5842 Y14.0318 
G01 X20.6617 Y13.9997 
G01 X20.7799 Y13.9207 
G01 X20.8803 Y13.8203 
G01 X20.9593 Y13.7021 
G01 X21.0137 Y13.5708 
G01 X21.0414 Y13.4314 
G01 X21.0414 Y12.9642 
G01 X21.1734 Y12.9642 
G01 X21.1734 Y13.4276 
G01 X21.1524 Y13.5602 
G01 X21.1109 Y13.6880 
G01 X21.0499 Y13.8077 
G01 X20.9709 Y13.9164 
G01 X20.8760 Y14.0113 
G00 Z2.0000  
G00 X20.0558 Y14.0318 
G01 Z-0.1500 F200   
G01 X20.0558 Y14.1719 F350   
G01 X19.9924 Y14.1513 
G01 X19.8727 Y14.0903 
G01 X19.7640 Y14.0113 
G01 X19.6691 Y13.9164 
G01 X19.5901 Y13.8077 
G01 X19.5291 Y13.6880 
G01 X19.4876 Y13.5602 
G01 X19.4666 Y13.4276 
G01 X19.4666 Y12.9642 
G01 X19.5986 Y12.9642 
G01 X19.5986 Y13.4314 
G01 X19.6263 Y13.5708 
G01 X19.6807 Y13.7021 
G01 X19.7597 Y13.8203 
G01 X19.8601 Y13.9207 
G01 X19.9783 Y13.9997 
G01 X20.0558 Y14.0318 
G00 Z2.0000  
G00 X19.5986 Y12.4358 
G01 Z-0.1500 F200   
G01 X19.4666 Y12.4358 F350   
G01 X19.4666 Y11.9724 
G01 X19.4876 Y11.8398 
G01 X19.5291 Y11.7120 
G01 X19.5901 Y11.5923 
G01 X19.6691 Y11.4836 
G01 X19.7640 Y11.3887 
G01 X19.8727 Y11.3097 
G01 X19.9924 Y11.2487 
G01 X20.0558 Y11.2281 
G01 X20.0558 Y11.3682 
G01 X19.9783 Y11.4003 
G01 X19.8601 Y11.4793 
G01 X19.7597 Y11.5797 
G01 X19.6807 Y11.6979 
G01 X19.6263 Y11.8292 
G01 X19.5986 Y11.9685 
G01 X19.5986 Y12.4358 
G00 Z2.0000  
G00 X21.0414 Y12.4358 
G01 Z-0.1500 F200   
G01 X21.0414 Y11.9685 F350   
G01 X21.0137 Y11.8292 
G01 X20.9593 Y11.6979 
G01 X20.8803 Y11.5797 
G01 X20.7799 Y11.4793 
G01 X20.6617 Y11.4003 
G01 X20.5842 Y11.3682 
G01 X20.5842 Y11.2281 
G01 X20.6476 Y11.2487 
G01 X20.7673 Y11.3097 
G01 X20.8760 Y11.3887 
G01 X20.9709 Y11.4836 
G01 X21.0499 Y11.5923 
G01 X21.1109 Y11.7120 
G01 X21.1524 Y11.8398 
G01 X21.1734 Y11.9724 
G01 X21.1734 Y12.4358 
G01 X21.0414 Y12.4358 
G00 Z2.0000  
G00 X13.4214 Y11.9685 
G01 Z-0.1500 F200   
G01 X13.3937 Y11.8292 F350   
G01 X13.3393 Y11.6979 
G01 X13.2603 Y11.5797 
G01 X13.1599 Y11.4793 
G01 X13.0417 Y11.4003 
G01 X12.9104 Y11.3459 
G01 X12.7711 Y11.3182 
G01 X12.6289 Y11.3182 
G01 X12.4896 Y11.3459 
G01 X12.3583 Y11.4003 
G01 X12.2401 Y11.4793 
G01 X12.1396 Y11.5797 
G01 X12.0607 Y11.6979 
G01 X12.0063 Y11.8292 
G01 X11.9786 Y11.9685 
G01 X11.9786 Y13.4314 
G01 X12.0063 Y13.5708 
G01 X12.0607 Y13.7021 
G01 X12.1396 Y13.8203 
G01 X12.2401 Y13.9207 
G01 X12.3583 Y13.9997 
G01 X12.4896 Y14.0541 
G01 X12.6289 Y14.0818 
G01 X12.7711 Y14.0818 
G01 X12.9104 Y14.0541 
G01 X13.0417 Y13.9997 
G01 X13.1599 Y13.9207 
G01 X13.2603 Y13.8203 
G01 X13.3393 Y13.7021 
G01 X13.3937 Y13.5708 
G01 X13.4214 Y13.4314 
G01 X13.4214 Y11.9685 
G00 Z2.0000  
G00 X13.5044 Y11.8796 
G01 Z-0.1500 F200   
G01 X13.5044 Y13.5204 F350   
G01 X13.3819 Y13.8161 
G01 X13.1557 Y14.0423 
G01 X12.8600 Y14.1648 
G01 X12.5400 Y14.1648 
G01 X12.2443 Y14.0423 
G01 X12.0181 Y13.8161 
G01 X11.8956 Y13.5204 
G01 X11.8956 Y11.8796 
G01 X12.0181 Y11.5839 
G01 X12.2443 Y11.3577 
G01 X12.5400 Y11.2352 
G01 X12.8600 Y11.2352 
G01 X13.1557 Y11.3577 
G01 X13.3819 Y11.5839 
G01 X13.5044 Y11.8796 
G00 Z2.0000  
G00 X10.9644 Y11.8796 
G01 Z-0.1500 F200   
G01 X10.9644 Y13.5204 F350   
G01 X10.8419 Y13.8161 
G01 X10.6157 Y14.0423 
G01 X10.3200 Y14.1648 
G01 X10.0000 Y14.1648 
G01 X9.7043  Y14.0423 
G01 X9.4781  Y13.8161 
G01 X9.3556  Y13.5204 
G01 X9.3556  Y11.8796 
G01 X9.4781  Y11.5839 
G01 X9.7043  Y11.3577 
G01 X10.0000 Y11.2352 
G01 X10.3200 Y11.2352 
G01 X10.6157 Y11.3577 
G01 X10.8419 Y11.5839 
G01 X10.9644 Y11.8796 
G00 Z2.0000  
G00 X10.8537 Y11.8292 
G01 Z-0.1500 F200   
G01 X10.7993 Y11.6979 F350   
G01 X10.7203 Y11.5797 
G01 X10.6199 Y11.4793 
G01 X10.5017 Y11.4003 
G01 X10.3704 Y11.3459 
G01 X10.2310 Y11.3182 
G01 X10.0889 Y11.3182 
G01 X9.9496  Y11.3459 
G01 X9.8183  Y11.4003 
G01 X9.7001  Y11.4793 
G01 X9.5997  Y11.5797 
G01 X9.5207  Y11.6979 
G01 X9.4663  Y11.8292 
G01 X9.4386  Y11.9685 
G01 X9.4386  Y13.4314 
G01 X9.4663  Y13.5708 
G01 X9.5207  Y13.7021 
G01 X9.5997  Y13.8203 
G01 X9.7001  Y13.9207 
G01 X9.8183  Y13.9997 
G01 X9.9496  Y14.0541 
G01 X10.0889 Y14.0818 
G01 X10.2310 Y14.0818 
G01 X10.3704 Y14.0541 
G01 X10.5017 Y13.9997 
G01 X10.6199 Y13.9207 
G01 X10.7203 Y13.8203 
G01 X10.7993 Y13.7021 
G01 X10.8537 Y13.5708 
G01 X10.8814 Y13.4314 
G01 X10.8814 Y11.9685 
G01 X10.8537 Y11.8292 
G00 Z2.0000  
G00 X8.4244  Y11.8796 
G01 Z-0.1500 F200   
G01 X8.4244  Y13.5204 F350   
G01 X8.3019  Y13.8161 
G01 X8.0757  Y14.0423 
G01 X7.7800  Y14.1648 
G01 X7.4600  Y14.1648 
G01 X7.1643  Y14.0423 
G01 X6.9381  Y13.8161 
G01 X6.8156  Y13.5204 
G01 X6.8156  Y13.4734 
G01 X6.7976  Y13.4062 
G01 X6.7628  Y13.3460 
G01 X6.7136  Y13.2968 
G01 X6.6534  Y13.2620 
G01 X6.5862  Y13.2440 
G01 X5.3800  Y13.2440 
G01 X5.3128  Y13.2620 
G01 X5.2525  Y13.2968 
G01 X4.4560  Y14.0934 
G01 X4.4068  Y14.1425 
G01 X4.3720  Y14.2028 
G01 X4.3540  Y14.2700 
G01 X4.3540  Y22.5600 
G01 X4.3720  Y22.6272 
G01 X4.4068  Y22.6875 
G01 X4.5684  Y22.8490 
G01 X4.6175  Y22.8982 
G01 X4.6778  Y22.9330 
G01 X4.7450  Y22.9510 
G01 X5.0707  Y22.9510 
G01 X5.1379  Y22.9330 
G01 X5.1981  Y22.8982 
G01 X5.2703  Y22.8260 
G01 X7.8896  Y22.8260 
G01 X7.9740  Y22.9104 
G01 X7.9740  Y24.0296 
G01 X7.8896  Y24.1140 
G01 X5.2703  Y24.1140 
G01 X5.2481  Y24.0918 
G01 X5.1879  Y24.0570 
G01 X5.1207  Y24.0390 
G01 X4.3368  Y24.0390 
G01 X4.1368  Y23.9562 
G01 X3.5636  Y23.3829 
G01 X3.3488  Y23.1681 
G01 X3.2660  Y22.9682 
G01 X3.2660  Y13.8618 
G01 X3.3488  Y13.6618 
G01 X4.5571  Y12.4536 
G01 X4.7718  Y12.2388 
G01 X4.9718  Y12.1560 
G01 X6.5862  Y12.1560 
G01 X6.6534  Y12.1380 
G01 X6.7136  Y12.1032 
G01 X6.7628  Y12.0540 
G01 X6.7976  Y11.9938 
G01 X6.8156  Y11.9266 
G01 X6.8156  Y11.8796 
G01 X6.9381  Y11.5839 
G01 X7.1643  Y11.3577 
G01 X7.4600  Y11.2352 
G01 X7.7800  Y11.2352 
G01 X8.0757  Y11.3577 
G01 X8.3019  Y11.5839 
G01 X8.4244  Y11.8796 
G00 Z2.0000  
G00 X8.3137  Y11.8292 
G01 Z-0.1500 F200   
G01 X8.2593  Y11.6979 F350   
G01 X8.1803  Y11.5797 
G01 X8.0799  Y11.4793 
G01 X7.9617  Y11.4003 
G01 X7.8304  Y11.3459 
G01 X7.6910  Y11.3182 
G01 X7.5489  Y11.3182 
G01 X7.4096  Y11.3459 
G01 X7.2783  Y11.4003 
G01 X7.1601  Y11.4793 
G01 X7.0597  Y11.5797 
G01 X6.9807  Y11.6979 
G01 X6.9263  Y11.8292 
G01 X6.8986  Y11.9685 
G01 X6.8986  Y12.2390 
G01 X5.0193  Y12.2390 
G01 X4.9021  Y12.2704 
G01 X4.7969  Y12.3311 
G01 X4.7111  Y12.4169 
G01 X3.4411  Y13.6869 
G01 X3.3804  Y13.7921 
G01 X3.3490  Y13.9093 
G01 X3.3490  Y22.9207 
G01 X3.3804  Y23.0379 
G01 X3.4411  Y23.1431 
G01 X3.5269  Y23.2289 
G01 X4.1619  Y23.8639 
G01 X4.2671  Y23.9246 
G01 X4.3843  Y23.9560 
G01 X5.2690  Y23.9560 
G01 X5.2690  Y23.9821 
G01 X5.2783  Y24.0046 
G01 X5.2954  Y24.0217 
G01 X5.3179  Y24.0310 
G01 X7.8421  Y24.0310 
G01 X7.8646  Y24.0217 
G01 X7.8817  Y24.0046 
G01 X7.8910  Y23.9821 
G01 X7.8910  Y22.9579 
G01 X7.8817  Y22.9354 
G01 X7.8646  Y22.9183 
G01 X7.8421  Y22.9090 
G01 X5.3179  Y22.9090 
G01 X5.2954  Y22.9183 
G01 X5.2783  Y22.9354 
G01 X5.2690  Y22.9579 
G01 X5.2690  Y23.0340 
G01 X4.6360  Y23.0340 
G01 X4.2710  Y22.6690 
G01 X4.2710  Y14.1610 
G01 X5.2710  Y13.1610 
G01 X6.8986  Y13.1610 
G01 X6.8986  Y13.4314 
G01 X6.9263  Y13.5708 
G01 X6.9807  Y13.7021 
G01 X7.0597  Y13.8203 
G01 X7.1601  Y13.9207 
G01 X7.2783  Y13.9997 
G01 X7.4096  Y14.0541 
G01 X7.5489  Y14.0818 
G01 X7.6910  Y14.0818 
G01 X7.8304  Y14.0541 
G01 X7.9617  Y13.9997 
G01 X8.0799  Y13.9207 
G01 X8.1803  Y13.8203 
G01 X8.2593  Y13.7021 
G01 X8.3137  Y13.5708 
G01 X8.3414  Y13.4314 
G01 X8.3414  Y11.9685 
G01 X8.3137  Y11.8292 
G00 Z2.0000  
G00 X8.1760  Y6.3913  
G01 Z-0.1500 F200   
G01 X8.0673  Y6.4703  F350   
G01 X7.9476  Y6.5313  
G01 X7.8842  Y6.5519  
G01 X7.8842  Y6.4118  
G01 X7.9617  Y6.3797  
G01 X8.0799  Y6.3007  
G01 X8.1803  Y6.2003  
G01 X8.2593  Y6.0821  
G01 X8.3137  Y5.9508  
G01 X8.3414  Y5.8114  
G01 X8.3414  Y5.3442  
G01 X8.4734  Y5.3442  
G01 X8.4734  Y5.8076  
G01 X8.4524  Y5.9402  
G01 X8.4109  Y6.0680  
G01 X8.3499  Y6.1877  
G01 X8.2709  Y6.2964  
G01 X8.1760  Y6.3913  
G00 Z2.0000  
G00 X14.5891 Y6.2964  
G01 Z-0.1500 F200   
G01 X14.5101 Y6.1877  F350   
G01 X14.4491 Y6.0680  
G01 X14.4076 Y5.9402  
G01 X14.3866 Y5.8076  
G01 X14.3866 Y5.3442  
G01 X14.5186 Y5.3442  
G01 X14.5186 Y5.8114  
G01 X14.5463 Y5.9508  
G01 X14.6007 Y6.0821  
G01 X14.6797 Y6.2003  
G01 X14.7801 Y6.3007  
G01 X14.8983 Y6.3797  
G01 X14.9758 Y6.4118  
G01 X14.9758 Y6.5519  
G01 X14.9124 Y6.5313  
G01 X14.7927 Y6.4703  
G01 X14.6840 Y6.3913  
G01 X14.5891 Y6.2964  
G00 Z2.0000  
G00 X15.5042 Y6.4118  
G01 Z-0.1500 F200   
G01 X15.5817 Y6.3797  F350   
G01 X15.6999 Y6.3007  
G01 X15.8003 Y6.2003  
G01 X15.8793 Y6.0821  
G01 X15.9337 Y5.9508  
G01 X15.9614 Y5.8114  
G01 X15.9614 Y5.3442  
G01 X16.0934 Y5.3442  
G01 X16.0934 Y5.8076  
G01 X16.0724 Y5.9402  
G01 X16.0309 Y6.0680  
G01 X15.9699 Y6.1877  
G01 X15.8909 Y6.2964  
G01 X15.7960 Y6.3913  
G01 X15.6873 Y6.4703  
G01 X15.5676 Y6.5313  
G01 X15.5042 Y6.5519  
G01 X15.5042 Y6.4118  
G00 Z2.0000  
G00 X7.9740  Y20.9104 
G01 Z-0.1500 F200   
G01 X7.9740  Y22.0296 F350   
G01 X7.8896  Y22.1140 
G01 X5.2703  Y22.1140 
G01 X5.1860  Y22.0296 
G01 X5.1860  Y20.9104 
G01 X5.2703  Y20.8260 
G01 X7.8896  Y20.8260 
G01 X7.9740  Y20.9104 
G00 Z2.0000  
G00 X7.8646  Y20.9183 
G01 Z-0.1500 F200   
G01 X7.8421  Y20.9090 F350   
G01 X5.3179  Y20.9090 
G01 X5.2954  Y20.9183 
G01 X5.2783  Y20.9354 
G01 X5.2690  Y20.9579 
G01 X5.2690  Y21.9821 
G01 X5.2783  Y22.0046 
G01 X5.2954  Y22.0217 
G01 X5.3179  Y22.0310 
G01 X7.8421  Y22.0310 
G01 X7.8646  Y22.0217 
G01 X7.8817  Y22.0046 
G01 X7.8910  Y21.9821 
G01 X7.8910  Y20.9579 
G01 X7.8817  Y20.9354 
G01 X7.8646  Y20.9183 
G00 Z2.0000  
G00 X7.8896  Y24.8260 
G01 Z-0.1500 F200   
G01 X7.9740  Y24.9104 F350   
G01 X7.9740  Y26.0296 
G01 X7.8896  Y26.1140 
G01 X5.2703  Y26.1140 
G01 X5.2023  Y26.0460 
G01 X5.1531  Y25.9968 
G01 X5.0929  Y25.9620 
G01 X5.0257  Y25.9440 
G01 X4.7450  Y25.9440 
G01 X4.6778  Y25.9620 
G01 X4.6175  Y25.9968 
G01 X4.4560  Y26.1584 
G01 X4.4068  Y26.2075 
G01 X4.3720  Y26.2678 
G01 X4.3540  Y26.3350 
G01 X4.3540  Y35.6638 
G01 X4.3720  Y35.7310 
G01 X4.4068  Y35.7912 
G01 X4.4560  Y35.8404 
G01 X4.5162  Y35.8752 
G01 X4.5834  Y35.8932 
G01 X4.7223  Y35.8932 
G01 X5.2346  Y36.1054 
G01 X5.6268  Y36.4976 
G01 X5.8390  Y37.0099 
G01 X5.8390  Y37.5645 
G01 X5.6268  Y38.0768 
G01 X5.2353  Y38.4683 
G01 X5.2209  Y38.4722 
G01 X5.2058  Y38.4809 
G01 X5.1897  Y38.4876 
G01 X5.1758  Y38.4982 
G01 X5.1607  Y38.5070 
G01 X5.1483  Y38.5193 
G01 X5.1345  Y38.5299 
G01 X5.1239  Y38.5438 
G01 X5.1115  Y38.5562 
G01 X5.1028  Y38.5713 
G01 X5.0921  Y38.5851 
G01 X5.0855  Y38.6013 
G01 X5.0767  Y38.6164 
G01 X5.0722  Y38.6333 
G01 X5.0655  Y38.6494 
G01 X5.0632  Y38.6667 
G01 X5.0587  Y38.6836 
G01 X5.0587  Y38.7010 
G01 X5.0564  Y38.7184 
G01 X5.0587  Y38.7357 
G01 X5.0587  Y38.7532 
G01 X5.0633  Y38.7700 
G01 X5.0655  Y38.7873 
G01 X5.0722  Y38.8035 
G01 X5.0767  Y38.8204 
G01 X5.0855  Y38.8355 
G01 X5.0921  Y38.8516 
G01 X5.1028  Y38.8655 
G01 X5.1115  Y38.8806 
G01 X5.1239  Y38.8929 
G01 X5.1345  Y38.9068 
G01 X5.1483  Y38.9174 
G01 X5.1607  Y38.9298 
G01 X5.1758  Y38.9385 
G01 X5.1897  Y38.9491 
G01 X5.2058  Y38.9558 
G01 X5.2484  Y38.9804 
G01 X5.3985  Y39.0956 
G01 X5.5322  Y39.2293 
G01 X5.6474  Y39.3794 
G01 X5.7420  Y39.5432 
G01 X5.8144  Y39.7180 
G01 X5.8545  Y39.8678 
G01 X5.7211  Y39.8678 
G01 X5.6600  Y39.6795 
G01 X5.5663  Y39.4957 
G01 X5.4450  Y39.3287 
G01 X5.2991  Y39.1828 
G01 X5.1321  Y39.0615 
G01 X4.9482  Y38.9678 
G01 X4.7520  Y38.9041 
G01 X4.5482  Y38.8718 
G01 X4.3418  Y38.8718 
G01 X4.1380  Y38.9041 
G01 X3.9417  Y38.9678 
G01 X3.7579  Y39.0615 
G01 X3.5909  Y39.1828 
G01 X3.4450  Y39.3287 
G01 X3.3237  Y39.4957 
G01 X3.2300  Y39.6795 
G01 X3.1689  Y39.8678 
G01 X3.0355  Y39.8678 
G01 X3.0756  Y39.7180 
G01 X3.1480  Y39.5432 
G01 X3.2426  Y39.3794 
G01 X3.3578  Y39.2293 
G01 X3.4915  Y39.0956 
G01 X3.6416  Y38.9804 
G01 X3.6842  Y38.9558 
G01 X3.7003  Y38.9491 
G01 X3.7142  Y38.9385 
G01 X3.7293  Y38.9298 
G01 X3.7416  Y38.9174 
G01 X3.7555  Y38.9068 
G01 X3.7661  Y38.8929 
G01 X3.7785  Y38.8806 
G01 X3.7872  Y38.8655 
G01 X3.7978  Y38.8516 
G01 X3.8045  Y38.8355 
G01 X3.8133  Y38.8204 
G01 X3.8178  Y38.8035 
G01 X3.8245  Y38.7873 
G01 X3.8267  Y38.7700 
G01 X3.8313  Y38.7532 
G01 X3.8313  Y38.7357 
G01 X3.8335  Y38.7184 
G01 X3.8313  Y38.7010 
G01 X3.8313  Y38.6836 
G01 X3.8268  Y38.6667 
G01 X3.8245  Y38.6494 
G01 X3.8178  Y38.6333 
G01 X3.8133  Y38.6164 
G01 X3.8045  Y38.6013 
G01 X3.7978  Y38.5851 
G01 X3.7872  Y38.5713 
G01 X3.7785  Y38.5562 
G01 X3.7661  Y38.5438 
G01 X3.7555  Y38.5299 
G01 X3.7416  Y38.5193 
G01 X3.7293  Y38.5070 
G01 X3.7142  Y38.4982 
G01 X3.7003  Y38.4876 
G01 X3.6842  Y38.4809 
G01 X3.6691  Y38.4722 
G01 X3.6547  Y38.4683 
G01 X3.2632  Y38.0768 
G01 X3.0510  Y37.5645 
G01 X3.0510  Y37.0099 
G01 X3.2393  Y36.5554 
G01 X3.2480  Y36.5403 
G01 X3.2525  Y36.5234 
G01 X3.2592  Y36.5073 
G01 X3.2615  Y36.4900 
G01 X3.2660  Y36.4731 
G01 X3.2660  Y36.4556 
G01 X3.2683  Y36.4383 
G01 X3.2660  Y36.4210 
G01 X3.2660  Y25.9268 
G01 X3.3488  Y25.7268 
G01 X3.5144  Y25.5613 
G01 X4.1368  Y24.9388 
G01 X4.3368  Y24.8560 
G01 X5.1657  Y24.8560 
G01 X5.2329  Y24.8380 
G01 X5.2537  Y24.8260 
G01 X7.8896  Y24.8260 
G00 Z2.0000  
G00 X7.8646  Y24.9183 
G01 Z-0.1500 F200   
G01 X7.8421  Y24.9090 F350   
G01 X5.3179  Y24.9090 
G01 X5.2954  Y24.9183 
G01 X5.2783  Y24.9354 
G01 X5.2768  Y24.9390 
G01 X4.3843  Y24.9390 
G01 X4.2671  Y24.9704 
G01 X4.1619  Y25.0311 
G01 X3.5269  Y25.6661 
G01 X3.4411  Y25.7519 
G01 X3.3804  Y25.8571 
G01 X3.3490  Y25.9743 
G01 X3.3490  Y36.5653 
G01 X3.3237  Y36.6001 
G01 X3.2300  Y36.7839 
G01 X3.1663  Y36.9802 
G01 X3.1340  Y37.1840 
G01 X3.1340  Y37.3904 
G01 X3.1663  Y37.5942 
G01 X3.2300  Y37.7904 
G01 X3.3237  Y37.9743 
G01 X3.4450  Y38.1413 
G01 X3.5909  Y38.2872 
G01 X3.7579  Y38.4085 
G01 X3.9417  Y38.5022 
G01 X4.1380  Y38.5659 
G01 X4.3418  Y38.5982 
G01 X4.5482  Y38.5982 
G01 X4.7520  Y38.5659 
G01 X4.9482  Y38.5022 
G01 X5.1321  Y38.4085 
G01 X5.2991  Y38.2872 
G01 X5.4450  Y38.1413 
G01 X5.5663  Y37.9743 
G01 X5.6600  Y37.7904 
G01 X5.7237  Y37.5942 
G01 X5.7560  Y37.3904 
G01 X5.7560  Y37.1840 
G01 X5.7237  Y36.9802 
G01 X5.6600  Y36.7839 
G01 X5.5663  Y36.6001 
G01 X5.4450  Y36.4331 
G01 X5.2991  Y36.2872 
G01 X5.1321  Y36.1659 
G01 X4.9482  Y36.0722 
G01 X4.7520  Y36.0085 
G01 X4.5482  Y35.9762 
G01 X4.3418  Y35.9762 
G01 X4.2710  Y35.9874 
G01 X4.2710  Y26.2260 
G01 X4.6360  Y25.8610 
G01 X5.2690  Y25.8610 
G01 X5.2690  Y25.9821 
G01 X5.2783  Y26.0046 
G01 X5.2954  Y26.0217 
G01 X5.3179  Y26.0310 
G01 X7.8421  Y26.0310 
G01 X7.8646  Y26.0217 
G01 X7.8817  Y26.0046 
G01 X7.8910  Y25.9821 
G01 X7.8910  Y24.9579 
G01 X7.8817  Y24.9354 
G01 X7.8646  Y24.9183 
G00 Z2.0000  
G00 X7.8896  Y26.8260 
G01 Z-0.1500 F200   
G01 X7.9740  Y26.9104 F350   
G01 X7.9740  Y28.0296 
G01 X7.8896  Y28.1140 
G01 X5.2703  Y28.1140 
G01 X5.1860  Y28.0296 
G01 X5.1860  Y26.9104 
G01 X5.2703  Y26.8260 
G01 X7.8896  Y26.8260 
G00 Z2.0000  
G00 X7.8646  Y26.9183 
G01 Z-0.1500 F200   
G01 X7.8421  Y26.9090 F350   
G01 X5.3179  Y26.9090 
G01 X5.2954  Y26.9183 
G01 X5.2783  Y26.9354 
G01 X5.2690  Y26.9579 
G01 X5.2690  Y27.9821 
G01 X5.2783  Y28.0046 
G01 X5.2954  Y28.0217 
G01 X5.3179  Y28.0310 
G01 X7.8421  Y28.0310 
G01 X7.8646  Y28.0217 
G01 X7.8817  Y28.0046 
G01 X7.8910  Y27.9821 
G01 X7.8910  Y26.9579 
G01 X7.8817  Y26.9354 
G01 X7.8646  Y26.9183 
G00 Z2.0000  
G00 X7.8399  Y30.8260 
G01 Z-0.1500 F200   
G01 X7.9740  Y30.9601 F350   
G01 X7.9740  Y31.9798 
G01 X7.8399  Y32.1140 
G01 X5.3201  Y32.1140 
G01 X5.1860  Y31.9798 
G01 X5.1860  Y30.9601 
G01 X5.3201  Y30.8260 
G01 X7.8399  Y30.8260 
G00 Z2.0000  
G00 X7.8277  Y30.9312 
G01 Z-0.1500 F200   
G01 X7.7740  Y30.9090 F350   
G01 X5.3860  Y30.9090 
G01 X5.3323  Y30.9312 
G01 X5.2912  Y30.9723 
G01 X5.2690  Y31.0260 
G01 X5.2690  Y31.9140 
G01 X5.2912  Y31.9677 
G01 X5.3323  Y32.0088 
G01 X5.3860  Y32.0310 
G01 X7.7740  Y32.0310 
G01 X7.8277  Y32.0088 
G01 X7.8688  Y31.9677 
G01 X7.8910  Y31.9140 
G01 X7.8910  Y31.0260 
G01 X7.8688  Y30.9723 
G01 X7.8277  Y30.9312 
G00 Z2.0000  
G00 X7.8896  Y32.8260 
G01 Z-0.1500 F200   
G01 X7.9740  Y32.9104 F350   
G01 X7.9740  Y34.0296 
G01 X7.8896  Y34.1140 
G01 X5.2703  Y34.1140 
G01 X5.1860  Y34.0296 
G01 X5.1860  Y32.9104 
G01 X5.2703  Y32.8260 
G01 X7.8896  Y32.8260 
G00 Z2.0000  
G00 X7.8646  Y32.9183 
G01 Z-0.1500 F200   
G01 X7.8421  Y32.9090 F350   
G01 X5.3179  Y32.9090 
G01 X5.2954  Y32.9183 
G01 X5.2783  Y32.9354 
G01 X5.2690  Y32.9579 
G01 X5.2690  Y33.9821 
G01 X5.2783  Y34.0046 
G01 X5.2954  Y34.0217 
G01 X5.3179  Y34.0310 
G01 X7.8421  Y34.0310 
G01 X7.8646  Y34.0217 
G01 X7.8817  Y34.0046 
G01 X7.8910  Y33.9821 
G01 X7.8910  Y32.9579 
G01 X7.8817  Y32.9354 
G01 X7.8646  Y32.9183 
G00 Z2.0000  
G00 X5.8545  Y40.4978 
G01 Z-0.1500 F200   
G01 X5.8144  Y40.6476 F350   
G01 X5.7420  Y40.8224 
G01 X5.6474  Y40.9862 
G01 X5.5322  Y41.1363 
G01 X5.3985  Y41.2700 
G01 X5.2484  Y41.3852 
G01 X5.0846  Y41.4798 
G01 X4.9098  Y41.5521 
G01 X4.7600  Y41.5923 
G01 X4.7600  Y41.4589 
G01 X4.9482  Y41.3978 
G01 X5.1321  Y41.3041 
G01 X5.2991  Y41.1828 
G01 X5.4450  Y41.0369 
G01 X5.5663  Y40.8699 
G01 X5.6600  Y40.6860 
G01 X5.7211  Y40.4978 
G01 X5.8545  Y40.4978 
G00 Z2.0000  
G00 X3.1689  Y40.4978 
G01 Z-0.1500 F200   
G01 X3.2300  Y40.6860 F350   
G01 X3.3237  Y40.8699 
G01 X3.4450  Y41.0369 
G01 X3.5909  Y41.1828 
G01 X3.7579  Y41.3041 
G01 X3.9417  Y41.3978 
G01 X4.1300  Y41.4589 
G01 X4.1300  Y41.5923 
G01 X3.9802  Y41.5521 
G01 X3.8054  Y41.4798 
G01 X3.6416  Y41.3852 
G01 X3.4915  Y41.2700 
G01 X3.3578  Y41.1363 
G01 X3.2426  Y40.9862 
G01 X3.1480  Y40.8224 
G01 X3.0756  Y40.6476 
G01 X3.0355  Y40.4978 
G01 X3.1689  Y40.4978 
G00 Z2.0000  
G00 X3.4588  Y47.7841 
G01 Z-0.1500 F200   
G01 X4.1086  Y47.6100 F350   
G01 X4.7814  Y47.6100 
G01 X5.4312  Y47.7841 
G01 X6.0138  Y48.1205 
G01 X6.4895  Y48.5962 
G01 X6.8259  Y49.1788 
G01 X7.0000  Y49.8286 
G01 X7.0000  Y50.5014 
G01 X6.8259  Y51.1512 
G01 X6.4895  Y51.7338 
G01 X6.0138  Y52.2095 
G01 X5.4312  Y52.5459 
G01 X4.7814  Y52.7200 
G01 X4.1086  Y52.7200 
G01 X3.4588  Y52.5459 
G01 X2.8762  Y52.2095 
G01 X2.4005  Y51.7338 
G01 X2.0641  Y51.1512 
G01 X1.8900  Y50.5014 
G01 X1.8900  Y49.8286 
G01 X2.0641  Y49.1788 
G01 X2.4005  Y48.5962 
G01 X2.8762  Y48.1205 
G01 X3.4588  Y47.7841 
G00 Z2.0000  
G00 X8.3546  Y45.7623 
G01 Z-0.1500 F200   
G01 X8.3291  Y45.7183 F350   
G01 X8.3160  Y45.6692 
G01 X8.3160  Y44.8920 
G01 X8.4480  Y44.8920 
G01 X8.4480  Y45.6559 
G01 X8.4573  Y45.6784 
G01 X8.4744  Y45.6955 
G01 X8.4969  Y45.7048 
G01 X8.7528  Y45.7048 
G01 X8.7528  Y45.8368 
G01 X8.4836  Y45.8368 
G01 X8.4345  Y45.8236 
G01 X8.3905  Y45.7982 
G01 X8.3546  Y45.7623 
G00 Z2.0000  
G00 X9.4844  Y45.7048 
G01 Z-0.1500 F200   
G01 X9.7403  Y45.7048 F350   
G01 X9.7628  Y45.6955 
G01 X9.7799  Y45.6784 
G01 X9.7892  Y45.6559 
G01 X9.7892  Y44.8920 
G01 X9.9212  Y44.8920 
G01 X9.9212  Y45.6692 
G01 X9.9080  Y45.7183 
G01 X9.8826  Y45.7623 
G01 X9.8467  Y45.7982 
G01 X9.8027  Y45.8236 
G01 X9.7536  Y45.8368 
G01 X9.4844  Y45.8368 
G01 X9.4844  Y45.7048 
G00 Z2.0000  
G00 X9.7892  Y44.1604 
G01 Z-0.1500 F200   
G01 X9.7892  Y43.3965 F350   
G01 X9.7799  Y43.3740 
G01 X9.7628  Y43.3569 
G01 X9.7403  Y43.3476 
G01 X9.4844  Y43.3476 
G01 X9.4844  Y43.2156 
G01 X9.7536  Y43.2156 
G01 X9.8027  Y43.2287 
G01 X9.8467  Y43.2542 
G01 X9.8826  Y43.2901 
G01 X9.9080  Y43.3341 
G01 X9.9212  Y43.3832 
G01 X9.9212  Y44.1604 
G01 X9.7892  Y44.1604 
G00 Z2.0000  
G00 X8.4480  Y44.1604 
G01 Z-0.1500 F200   
G01 X8.3160  Y44.1604 F350   
G01 X8.3160  Y43.3832 
G01 X8.3291  Y43.3341 
G01 X8.3546  Y43.2901 
G01 X8.3905  Y43.2542 
G01 X8.4345  Y43.2287 
G01 X8.4836  Y43.2156 
G01 X8.7528  Y43.2156 
G01 X8.7528  Y43.3476 
G01 X8.4969  Y43.3476 
G01 X8.4744  Y43.3569 
G01 X8.4573  Y43.3740 
G01 X8.4480  Y43.3965 
G01 X8.4480  Y44.1604 
G00 Z2.0000  
G00 X9.4860  Y49.5643 
G01 Z-0.1500 F200   
G01 X9.5703  Y49.4800 F350   
G01 X13.2896 Y49.4800 
G01 X13.3740 Y49.5643 
G01 X13.3740 Y51.8836 
G01 X13.2896 Y51.9680 
G01 X9.5703  Y51.9680 
G01 X9.4860  Y51.8836 
G01 X9.4860  Y49.5643 
G00 Z2.0000  
G00 X9.5783  Y49.5894 
G01 Z-0.1500 F200   
G01 X9.5690  Y49.6119 F350   
G01 X9.5690  Y51.8361 
G01 X9.5783  Y51.8586 
G01 X9.5954  Y51.8757 
G01 X9.6179  Y51.8850 
G01 X13.2421 Y51.8850 
G01 X13.2646 Y51.8757 
G01 X13.2817 Y51.8586 
G01 X13.2910 Y51.8361 
G01 X13.2910 Y49.6119 
G01 X13.2817 Y49.5894 
G01 X13.2646 Y49.5723 
G01 X13.2421 Y49.5630 
G01 X9.6179  Y49.5630 
G01 X9.5954  Y49.5723 
G01 X9.5783  Y49.5894 
G00 Z2.0000  
G00 X20.3250 Y49.2135 
G01 Z-0.1500 F200   
G01 X20.2098 Y49.0634 F350   
G01 X20.1152 Y48.8996 
G01 X20.0428 Y48.7248 
G01 X20.0027 Y48.5750 
G01 X20.1361 Y48.5750 
G01 X20.1972 Y48.7632 
G01 X20.2909 Y48.9471 
G01 X20.4122 Y49.1141 
G01 X20.5581 Y49.2600 
G01 X20.7251 Y49.3813 
G01 X20.9090 Y49.4749 
G01 X21.0972 Y49.5361 
G01 X21.0972 Y49.6695 
G01 X20.9474 Y49.6294 
G01 X20.7726 Y49.5570 
G01 X20.6088 Y49.4624 
G01 X20.4587 Y49.3472 
G01 X20.3250 Y49.2135 
G00 Z2.0000  
G00 X20.1361 Y47.9450 
G01 Z-0.1500 F200   
G01 X20.0027 Y47.9450 F350   
G01 X20.0428 Y47.7952 
G01 X20.1152 Y47.6204 
G01 X20.2098 Y47.4566 
G01 X20.3250 Y47.3065 
G01 X20.4587 Y47.1728 
G01 X20.6088 Y47.0576 
G01 X20.7726 Y46.9630 
G01 X20.9474 Y46.8906 
G01 X21.0972 Y46.8505 
G01 X21.0972 Y46.9839 
G01 X20.9090 Y47.0450 
G01 X20.7251 Y47.1387 
G01 X20.5581 Y47.2600 
G01 X20.4122 Y47.4059 
G01 X20.2909 Y47.5729 
G01 X20.1972 Y47.7567 
G01 X20.1361 Y47.9450 
G00 Z2.0000  
G00 X33.3562 Y48.1205 
G01 Z-0.1500 F200   
G01 X33.9388 Y47.7841 F350   
G01 X34.5886 Y47.6100 
G01 X35.2614 Y47.6100 
G01 X35.9112 Y47.7841 
G01 X36.4938 Y48.1205 
G01 X36.9695 Y48.5962 
G01 X37.3059 Y49.1788 
G01 X37.4800 Y49.8286 
G01 X37.4800 Y50.5014 
G01 X37.3059 Y51.1512 
G01 X36.9695 Y51.7338 
G01 X36.4938 Y52.2095 
G01 X35.9112 Y52.5459 
G01 X35.2614 Y52.7200 
G01 X34.5886 Y52.7200 
G01 X33.9388 Y52.5459 
G01 X33.3562 Y52.2095 
G01 X32.8805 Y51.7338 
G01 X32.5441 Y51.1512 
G01 X32.3700 Y50.5014 
G01 X32.3700 Y49.8286 
G01 X32.5441 Y49.1788 
G01 X32.8805 Y48.5962 
G01 X33.3562 Y48.1205 
G00 Z2.0000  
G00 X0.9786  Y1.0464  
G01 Z-0.1500 F200   
G01 X0.9306  Y1.1294  F350   
G01 X0.9058  Y1.2221  
G01 X0.9058  Y3.2540  
