(.../eagle/ULP/pcb-gcode-3/pcb-gcode.ulp)
(Copyright 2005 - 2012 by John Johnson)
(See readme.txt for licensing terms.)
(This file generated from the board:)
(.../ReflowController/reflow_controller.brd)
(Current profile is .../pcb-gcode-3/profiles/mach.pp  )
(This file generated 08/09/2015 19:40)
(Settings from pcb-machine.h)
(spindle on time = 5.0000)
(  Tool Size)
(0.1200  )
(spindle speed = 30000.0000)
(tool change at 0.0000  0.0000  15.0000 )
(feed rate xy = F350   )
(feed rate z  = F200   )
(Z Axis Settings)
(  High     Up        Down     Drill)
(5.0000  	2.0000  	-0.1500 	-2.0000 )
(Settings from pcb-defaults.h)
(isolate min = 0.0010)
(isolate max = 0.3000)
(isolate step = 0.1000)
(Generated top outlines, top drill, bottom outlines, bottom drill, )
(Unit of measure: mm)
(Metric Mode)
G21
(Absolute Coordinates)
G90
S30000
G00 Z5.0000  
G00 X0.0000  Y0.0000  
M03
G04 P5.000000
G00 Z2.0000  
G00 X7.0597  Y3.9597  
G01 Z-0.1500 F200   
G01 X7.1601  Y3.8592  F350   
G01 X7.2783  Y3.7803  
G01 X7.4096  Y3.7259  
G01 X7.5489  Y3.6982  
G01 X7.6910  Y3.6982  
G01 X7.8304  Y3.7259  
G01 X7.9617  Y3.7803  
G01 X8.0799  Y3.8592  
G01 X8.1803  Y3.9597  
G01 X8.2593  Y4.0779  
G01 X8.3137  Y4.2092  
G01 X8.3414  Y4.3485  
G01 X8.3414  Y5.8114  
G01 X8.3137  Y5.9508  
G01 X8.2593  Y6.0821  
G01 X8.1803  Y6.2003  
G01 X8.0799  Y6.3007  
G01 X7.9617  Y6.3797  
G01 X7.8304  Y6.4341  
G01 X7.6910  Y6.4618  
G01 X7.5489  Y6.4618  
G01 X7.4096  Y6.4341  
G01 X7.2783  Y6.3797  
G01 X7.1601  Y6.3007  
G01 X7.0597  Y6.2003  
G01 X6.9807  Y6.0821  
G01 X6.9263  Y5.9508  
G01 X6.8986  Y5.8114  
G01 X6.8986  Y4.3485  
G01 X6.9263  Y4.2092  
G01 X6.9807  Y4.0779  
G01 X7.0597  Y3.9597  
G00 Z2.0000  
G00 X9.5997  Y3.9597  
G01 Z-0.1500 F200   
G01 X9.7001  Y3.8592  F350   
G01 X9.8183  Y3.7803  
G01 X9.9496  Y3.7259  
G01 X10.0889 Y3.6982  
G01 X10.2310 Y3.6982  
G01 X10.3704 Y3.7259  
G01 X10.5017 Y3.7803  
G01 X10.6199 Y3.8592  
G01 X10.7203 Y3.9597  
G01 X10.7993 Y4.0779  
G01 X10.8537 Y4.2092  
G01 X10.8814 Y4.3485  
G01 X10.8814 Y5.8114  
G01 X10.8537 Y5.9508  
G01 X10.7993 Y6.0821  
G01 X10.7203 Y6.2003  
G01 X10.6199 Y6.3007  
G01 X10.5017 Y6.3797  
G01 X10.3704 Y6.4341  
G01 X10.2310 Y6.4618  
G01 X10.0889 Y6.4618  
G01 X9.9496  Y6.4341  
G01 X9.8183  Y6.3797  
G01 X9.7001  Y6.3007  
G01 X9.5997  Y6.2003  
G01 X9.5207  Y6.0821  
G01 X9.4663  Y5.9508  
G01 X9.4386  Y5.8114  
G01 X9.4386  Y4.3485  
G01 X9.4663  Y4.2092  
G01 X9.5207  Y4.0779  
G01 X9.5997  Y3.9597  
G00 Z2.0000  
G00 X12.1396 Y3.9597  
G01 Z-0.1500 F200   
G01 X12.2401 Y3.8592  F350   
G01 X12.3583 Y3.7803  
G01 X12.4896 Y3.7259  
G01 X12.6289 Y3.6982  
G01 X12.7711 Y3.6982  
G01 X12.9104 Y3.7259  
G01 X13.0417 Y3.7803  
G01 X13.1599 Y3.8592  
G01 X13.2603 Y3.9597  
G01 X13.3393 Y4.0779  
G01 X13.3937 Y4.2092  
G01 X13.4214 Y4.3485  
G01 X13.4214 Y5.8114  
G01 X13.3937 Y5.9508  
G01 X13.3393 Y6.0821  
G01 X13.2603 Y6.2003  
G01 X13.1599 Y6.3007  
G01 X13.0417 Y6.3797  
G01 X12.9104 Y6.4341  
G01 X12.7711 Y6.4618  
G01 X12.6289 Y6.4618  
G01 X12.4896 Y6.4341  
G01 X12.3583 Y6.3797  
G01 X12.2401 Y6.3007  
G01 X12.1396 Y6.2003  
G01 X12.0607 Y6.0821  
G01 X12.0063 Y5.9508  
G01 X11.9786 Y5.8114  
G01 X11.9786 Y4.3485  
G01 X12.0063 Y4.2092  
G01 X12.0607 Y4.0779  
G01 X12.1396 Y3.9597  
G00 Z2.0000  
G00 X14.6797 Y3.9597  
G01 Z-0.1500 F200   
G01 X14.7801 Y3.8592  F350   
G01 X14.8983 Y3.7803  
G01 X15.0296 Y3.7259  
G01 X15.1689 Y3.6982  
G01 X15.3110 Y3.6982  
G01 X15.4504 Y3.7259  
G01 X15.5817 Y3.7803  
G01 X15.6999 Y3.8592  
G01 X15.8003 Y3.9597  
G01 X15.8793 Y4.0779  
G01 X15.9337 Y4.2092  
G01 X15.9614 Y4.3485  
G01 X15.9614 Y5.8114  
G01 X15.9337 Y5.9508  
G01 X15.8793 Y6.0821  
G01 X15.8003 Y6.2003  
G01 X15.6999 Y6.3007  
G01 X15.5817 Y6.3797  
G01 X15.4504 Y6.4341  
G01 X15.3110 Y6.4618  
G01 X15.1689 Y6.4618  
G01 X15.0296 Y6.4341  
G01 X14.8983 Y6.3797  
G01 X14.7801 Y6.3007  
G01 X14.6797 Y6.2003  
G01 X14.6007 Y6.0821  
G01 X14.5463 Y5.9508  
G01 X14.5186 Y5.8114  
G01 X14.5186 Y4.3485  
G01 X14.5463 Y4.2092  
G01 X14.6007 Y4.0779  
G01 X14.6797 Y3.9597  
G00 Z2.0000  
G00 X17.2197 Y3.9597  
G01 Z-0.1500 F200   
G01 X17.3201 Y3.8592  F350   
G01 X17.4383 Y3.7803  
G01 X17.5696 Y3.7259  
G01 X17.7089 Y3.6982  
G01 X17.8511 Y3.6982  
G01 X17.9904 Y3.7259  
G01 X18.1217 Y3.7803  
G01 X18.2399 Y3.8592  
G01 X18.3403 Y3.9597  
G01 X18.4193 Y4.0779  
G01 X18.4737 Y4.2092  
G01 X18.5014 Y4.3485  
G01 X18.5014 Y5.8114  
G01 X18.4737 Y5.9508  
G01 X18.4193 Y6.0821  
G01 X18.3403 Y6.2003  
G01 X18.2399 Y6.3007  
G01 X18.1217 Y6.3797  
G01 X17.9904 Y6.4341  
G01 X17.8511 Y6.4618  
G01 X17.7089 Y6.4618  
G01 X17.5696 Y6.4341  
G01 X17.4383 Y6.3797  
G01 X17.3201 Y6.3007  
G01 X17.2197 Y6.2003  
G01 X17.1407 Y6.0821  
G01 X17.0863 Y5.9508  
G01 X17.0586 Y5.8114  
G01 X17.0586 Y4.3485  
G01 X17.0863 Y4.2092  
G01 X17.1407 Y4.0779  
G01 X17.2197 Y3.9597  
G00 Z2.0000  
G00 X19.7597 Y3.9597  
G01 Z-0.1500 F200   
G01 X19.8601 Y3.8592  F350   
G01 X19.9783 Y3.7803  
G01 X20.1096 Y3.7259  
G01 X20.2489 Y3.6982  
G01 X20.3910 Y3.6982  
G01 X20.5304 Y3.7259  
G01 X20.6617 Y3.7803  
G01 X20.7799 Y3.8592  
G01 X20.8803 Y3.9597  
G01 X20.9593 Y4.0779  
G01 X21.0137 Y4.2092  
G01 X21.0414 Y4.3485  
G01 X21.0414 Y5.8114  
G01 X21.0137 Y5.9508  
G01 X20.9593 Y6.0821  
G01 X20.8803 Y6.2003  
G01 X20.7799 Y6.3007  
G01 X20.6617 Y6.3797  
G01 X20.5304 Y6.4341  
G01 X20.3910 Y6.4618  
G01 X20.2489 Y6.4618  
G01 X20.1096 Y6.4341  
G01 X19.9783 Y6.3797  
G01 X19.8601 Y6.3007  
G01 X19.7597 Y6.2003  
G01 X19.6807 Y6.0821  
G01 X19.6263 Y5.9508  
G01 X19.5986 Y5.8114  
G01 X19.5986 Y4.3485  
G01 X19.6263 Y4.2092  
G01 X19.6807 Y4.0779  
G01 X19.7597 Y3.9597  
G00 Z2.0000  
G00 X22.2996 Y3.9597  
G01 Z-0.1500 F200   
G01 X22.4001 Y3.8592  F350   
G01 X22.5183 Y3.7803  
G01 X22.6496 Y3.7259  
G01 X22.7889 Y3.6982  
G01 X22.9310 Y3.6982  
G01 X23.0704 Y3.7259  
G01 X23.2017 Y3.7803  
G01 X23.3199 Y3.8592  
G01 X23.4203 Y3.9597  
G01 X23.4993 Y4.0779  
G01 X23.5537 Y4.2092  
G01 X23.5814 Y4.3485  
G01 X23.5814 Y5.8114  
G01 X23.5537 Y5.9508  
G01 X23.4993 Y6.0821  
G01 X23.4203 Y6.2003  
G01 X23.3199 Y6.3007  
G01 X23.2017 Y6.3797  
G01 X23.0704 Y6.4341  
G01 X22.9310 Y6.4618  
G01 X22.7889 Y6.4618  
G01 X22.6496 Y6.4341  
G01 X22.5183 Y6.3797  
G01 X22.4001 Y6.3007  
G01 X22.2996 Y6.2003  
G01 X22.2207 Y6.0821  
G01 X22.1663 Y5.9508  
G01 X22.1386 Y5.8114  
G01 X22.1386 Y4.3485  
G01 X22.1663 Y4.2092  
G01 X22.2207 Y4.0779  
G01 X22.2996 Y3.9597  
G00 Z2.0000  
G00 X27.3843 Y4.1431  
G01 Z-0.1500 F200   
G01 X27.5581 Y3.9693  F350   
G01 X27.7569 Y3.8249  
G01 X27.9758 Y3.7134  
G01 X28.2095 Y3.6374  
G01 X28.4521 Y3.5990  
G01 X28.6979 Y3.5990  
G01 X28.9405 Y3.6374  
G01 X29.1742 Y3.7134  
G01 X29.3931 Y3.8249  
G01 X29.5919 Y3.9693  
G01 X29.7657 Y4.1431  
G01 X29.9101 Y4.3419  
G01 X30.0216 Y4.5608  
G01 X30.0976 Y4.7945  
G01 X30.1360 Y5.0371  
G01 X30.1360 Y5.2829  
G01 X30.0976 Y5.5255  
G01 X30.0216 Y5.7592  
G01 X29.9101 Y5.9781  
G01 X29.7657 Y6.1769  
G01 X29.5919 Y6.3507  
G01 X29.3931 Y6.4951  
G01 X29.1742 Y6.6066  
G01 X28.9405 Y6.6826  
G01 X28.6979 Y6.7210  
G01 X28.4521 Y6.7210  
G01 X28.2095 Y6.6826  
G01 X27.9758 Y6.6066  
G01 X27.7569 Y6.4951  
G01 X27.5581 Y6.3507  
G01 X27.3843 Y6.1769  
G01 X27.2399 Y5.9781  
G01 X27.1284 Y5.7592  
G01 X27.0524 Y5.5255  
G01 X27.0140 Y5.2829  
G01 X27.0140 Y5.0371  
G01 X27.0524 Y4.7945  
G01 X27.1284 Y4.5608  
G01 X27.2399 Y4.3419  
G01 X27.3843 Y4.1431  
G00 Z2.0000  
G00 X27.3843 Y9.1431  
G01 Z-0.1500 F200   
G01 X27.5581 Y8.9693  F350   
G01 X27.7569 Y8.8249  
G01 X27.9758 Y8.7134  
G01 X28.2095 Y8.6374  
G01 X28.4521 Y8.5990  
G01 X28.6979 Y8.5990  
G01 X28.9405 Y8.6374  
G01 X29.1742 Y8.7134  
G01 X29.3931 Y8.8249  
G01 X29.5919 Y8.9693  
G01 X29.7657 Y9.1431  
G01 X29.9101 Y9.3419  
G01 X30.0216 Y9.5608  
G01 X30.0976 Y9.7945  
G01 X30.1360 Y10.0371 
G01 X30.1360 Y10.2829 
G01 X30.0976 Y10.5255 
G01 X30.0216 Y10.7592 
G01 X29.9101 Y10.9781 
G01 X29.7657 Y11.1769 
G01 X29.5919 Y11.3507 
G01 X29.3931 Y11.4951 
G01 X29.1742 Y11.6066 
G01 X28.9405 Y11.6826 
G01 X28.6979 Y11.7210 
G01 X28.4521 Y11.7210 
G01 X28.2095 Y11.6826 
G01 X27.9758 Y11.6066 
G01 X27.7569 Y11.4951 
G01 X27.5581 Y11.3507 
G01 X27.3843 Y11.1769 
G01 X27.2399 Y10.9781 
G01 X27.1284 Y10.7592 
G01 X27.0524 Y10.5255 
G01 X27.0140 Y10.2829 
G01 X27.0140 Y10.0371 
G01 X27.0524 Y9.7945  
G01 X27.1284 Y9.5608  
G01 X27.2399 Y9.3419  
G01 X27.3843 Y9.1431  
G00 Z2.0000  
G00 X23.3199 Y11.4793 
G01 Z-0.1500 F200   
G01 X23.4203 Y11.5797 F350   
G01 X23.4993 Y11.6979 
G01 X23.5537 Y11.8292 
G01 X23.5814 Y11.9685 
G01 X23.5814 Y13.4314 
G01 X23.5537 Y13.5708 
G01 X23.4993 Y13.7021 
G01 X23.4203 Y13.8203 
G01 X23.3199 Y13.9207 
G01 X23.2017 Y13.9997 
G01 X23.0704 Y14.0541 
G01 X22.9310 Y14.0818 
G01 X22.7889 Y14.0818 
G01 X22.6496 Y14.0541 
G01 X22.5183 Y13.9997 
G01 X22.4001 Y13.9207 
G01 X22.2996 Y13.8203 
G01 X22.2207 Y13.7021 
G01 X22.1663 Y13.5708 
G01 X22.1386 Y13.4314 
G01 X22.1386 Y11.9685 
G01 X22.1663 Y11.8292 
G01 X22.2207 Y11.6979 
G01 X22.2996 Y11.5797 
G01 X22.4001 Y11.4793 
G01 X22.5183 Y11.4003 
G01 X22.6496 Y11.3459 
G01 X22.7889 Y11.3182 
G01 X22.9310 Y11.3182 
G01 X23.0704 Y11.3459 
G01 X23.2017 Y11.4003 
G01 X23.3199 Y11.4793 
G00 Z2.0000  
G00 X20.7799 Y11.4793 
G01 Z-0.1500 F200   
G01 X20.8803 Y11.5797 F350   
G01 X20.9593 Y11.6979 
G01 X21.0137 Y11.8292 
G01 X21.0414 Y11.9685 
G01 X21.0414 Y13.4314 
G01 X21.0137 Y13.5708 
G01 X20.9593 Y13.7021 
G01 X20.8803 Y13.8203 
G01 X20.7799 Y13.9207 
G01 X20.6617 Y13.9997 
G01 X20.5304 Y14.0541 
G01 X20.3910 Y14.0818 
G01 X20.2489 Y14.0818 
G01 X20.1096 Y14.0541 
G01 X19.9783 Y13.9997 
G01 X19.8601 Y13.9207 
G01 X19.7597 Y13.8203 
G01 X19.6807 Y13.7021 
G01 X19.6263 Y13.5708 
G01 X19.5986 Y13.4314 
G01 X19.5986 Y11.9685 
G01 X19.6263 Y11.8292 
G01 X19.6807 Y11.6979 
G01 X19.7597 Y11.5797 
G01 X19.8601 Y11.4793 
G01 X19.9783 Y11.4003 
G01 X20.1096 Y11.3459 
G01 X20.2489 Y11.3182 
G01 X20.3910 Y11.3182 
G01 X20.5304 Y11.3459 
G01 X20.6617 Y11.4003 
G01 X20.7799 Y11.4793 
G00 Z2.0000  
G00 X18.2399 Y11.4793 
G01 Z-0.1500 F200   
G01 X18.3403 Y11.5797 F350   
G01 X18.4193 Y11.6979 
G01 X18.4737 Y11.8292 
G01 X18.5014 Y11.9685 
G01 X18.5014 Y13.4314 
G01 X18.4737 Y13.5708 
G01 X18.4193 Y13.7021 
G01 X18.3403 Y13.8203 
G01 X18.2399 Y13.9207 
G01 X18.1217 Y13.9997 
G01 X17.9904 Y14.0541 
G01 X17.8511 Y14.0818 
G01 X17.7089 Y14.0818 
G01 X17.5696 Y14.0541 
G01 X17.4383 Y13.9997 
G01 X17.3201 Y13.9207 
G01 X17.2197 Y13.8203 
G01 X17.1407 Y13.7021 
G01 X17.0863 Y13.5708 
G01 X17.0586 Y13.4314 
G01 X17.0586 Y11.9685 
G01 X17.0863 Y11.8292 
G01 X17.1407 Y11.6979 
G01 X17.2197 Y11.5797 
G01 X17.3201 Y11.4793 
G01 X17.4383 Y11.4003 
G01 X17.5696 Y11.3459 
G01 X17.7089 Y11.3182 
G01 X17.8511 Y11.3182 
G01 X17.9904 Y11.3459 
G01 X18.1217 Y11.4003 
G01 X18.2399 Y11.4793 
G00 Z2.0000  
G00 X15.6999 Y11.4793 
G01 Z-0.1500 F200   
G01 X15.8003 Y11.5797 F350   
G01 X15.8793 Y11.6979 
G01 X15.9337 Y11.8292 
G01 X15.9614 Y11.9685 
G01 X15.9614 Y13.4314 
G01 X15.9337 Y13.5708 
G01 X15.8793 Y13.7021 
G01 X15.8003 Y13.8203 
G01 X15.6999 Y13.9207 
G01 X15.5817 Y13.9997 
G01 X15.4504 Y14.0541 
G01 X15.3110 Y14.0818 
G01 X15.1689 Y14.0818 
G01 X15.0296 Y14.0541 
G01 X14.8983 Y13.9997 
G01 X14.7801 Y13.9207 
G01 X14.6797 Y13.8203 
G01 X14.6007 Y13.7021 
G01 X14.5463 Y13.5708 
G01 X14.5186 Y13.4314 
G01 X14.5186 Y11.9685 
G01 X14.5463 Y11.8292 
G01 X14.6007 Y11.6979 
G01 X14.6797 Y11.5797 
G01 X14.7801 Y11.4793 
G01 X14.8983 Y11.4003 
G01 X15.0296 Y11.3459 
G01 X15.1689 Y11.3182 
G01 X15.3110 Y11.3182 
G01 X15.4504 Y11.3459 
G01 X15.5817 Y11.4003 
G01 X15.6999 Y11.4793 
G00 Z2.0000  
G00 X13.1599 Y11.4793 
G01 Z-0.1500 F200   
G01 X13.2603 Y11.5797 F350   
G01 X13.3393 Y11.6979 
G01 X13.3937 Y11.8292 
G01 X13.4214 Y11.9685 
G01 X13.4214 Y13.4314 
G01 X13.3937 Y13.5708 
G01 X13.3393 Y13.7021 
G01 X13.2603 Y13.8203 
G01 X13.1599 Y13.9207 
G01 X13.0417 Y13.9997 
G01 X12.9104 Y14.0541 
G01 X12.7711 Y14.0818 
G01 X12.6289 Y14.0818 
G01 X12.4896 Y14.0541 
G01 X12.3583 Y13.9997 
G01 X12.2401 Y13.9207 
G01 X12.1396 Y13.8203 
G01 X12.0607 Y13.7021 
G01 X12.0063 Y13.5708 
G01 X11.9786 Y13.4314 
G01 X11.9786 Y11.9685 
G01 X12.0063 Y11.8292 
G01 X12.0607 Y11.6979 
G01 X12.1396 Y11.5797 
G01 X12.2401 Y11.4793 
G01 X12.3583 Y11.4003 
G01 X12.4896 Y11.3459 
G01 X12.6289 Y11.3182 
G01 X12.7711 Y11.3182 
G01 X12.9104 Y11.3459 
G01 X13.0417 Y11.4003 
G01 X13.1599 Y11.4793 
G00 Z2.0000  
G00 X10.6199 Y11.4793 
G01 Z-0.1500 F200   
G01 X10.7203 Y11.5797 F350   
G01 X10.7993 Y11.6979 
G01 X10.8537 Y11.8292 
G01 X10.8814 Y11.9685 
G01 X10.8814 Y13.4314 
G01 X10.8537 Y13.5708 
G01 X10.7993 Y13.7021 
G01 X10.7203 Y13.8203 
G01 X10.6199 Y13.9207 
G01 X10.5017 Y13.9997 
G01 X10.3704 Y14.0541 
G01 X10.2310 Y14.0818 
G01 X10.0889 Y14.0818 
G01 X9.9496  Y14.0541 
G01 X9.8183  Y13.9997 
G01 X9.7001  Y13.9207 
G01 X9.5997  Y13.8203 
G01 X9.5207  Y13.7021 
G01 X9.4663  Y13.5708 
G01 X9.4386  Y13.4314 
G01 X9.4386  Y11.9685 
G01 X9.4663  Y11.8292 
G01 X9.5207  Y11.6979 
G01 X9.5997  Y11.5797 
G01 X9.7001  Y11.4793 
G01 X9.8183  Y11.4003 
G01 X9.9496  Y11.3459 
G01 X10.0889 Y11.3182 
G01 X10.2310 Y11.3182 
G01 X10.3704 Y11.3459 
G01 X10.5017 Y11.4003 
G01 X10.6199 Y11.4793 
G00 Z2.0000  
G00 X8.0799  Y11.4793 
G01 Z-0.1500 F200   
G01 X8.1803  Y11.5797 F350   
G01 X8.2593  Y11.6979 
G01 X8.3137  Y11.8292 
G01 X8.3414  Y11.9685 
G01 X8.3414  Y13.4314 
G01 X8.3137  Y13.5708 
G01 X8.2593  Y13.7021 
G01 X8.1803  Y13.8203 
G01 X8.0799  Y13.9207 
G01 X7.9617  Y13.9997 
G01 X7.8304  Y14.0541 
G01 X7.6910  Y14.0818 
G01 X7.5489  Y14.0818 
G01 X7.4096  Y14.0541 
G01 X7.2783  Y13.9997 
G01 X7.1601  Y13.9207 
G01 X7.0597  Y13.8203 
G01 X6.9807  Y13.7021 
G01 X6.9263  Y13.5708 
G01 X6.8986  Y13.4314 
G01 X6.8986  Y11.9685 
G01 X6.9263  Y11.8292 
G01 X6.9807  Y11.6979 
G01 X7.0597  Y11.5797 
G01 X7.1601  Y11.4793 
G01 X7.2783  Y11.4003 
G01 X7.4096  Y11.3459 
G01 X7.5489  Y11.3182 
G01 X7.6910  Y11.3182 
G01 X7.8304  Y11.3459 
G01 X7.9617  Y11.4003 
G01 X8.0799  Y11.4793 
G00 Z2.0000  
G00 X28.9654 Y14.4887 
G01 Z-0.1500 F200   
G01 X29.0937 Y14.3604 F350   
G01 X29.2406 Y14.2537 
G01 X29.4023 Y14.1713 
G01 X29.5750 Y14.1152 
G01 X29.7542 Y14.0868 
G01 X29.9358 Y14.0868 
G01 X30.1150 Y14.1152 
G01 X30.2877 Y14.1713 
G01 X30.4494 Y14.2537 
G01 X30.5963 Y14.3604 
G01 X30.7246 Y14.4887 
G01 X30.8313 Y14.6356 
G01 X30.9137 Y14.7973 
G01 X30.9698 Y14.9700 
G01 X30.9982 Y15.1492 
G01 X30.9982 Y15.3308 
G01 X30.9698 Y15.5100 
G01 X30.9137 Y15.6827 
G01 X30.8313 Y15.8444 
G01 X30.7246 Y15.9913 
G01 X30.5963 Y16.1196 
G01 X30.4494 Y16.2263 
G01 X30.2877 Y16.3087 
G01 X30.1150 Y16.3648 
G01 X29.9358 Y16.3932 
G01 X29.7542 Y16.3932 
G01 X29.5750 Y16.3648 
G01 X29.4023 Y16.3087 
G01 X29.2406 Y16.2263 
G01 X29.0937 Y16.1196 
G01 X28.9654 Y15.9913 
G01 X28.8587 Y15.8444 
G01 X28.7763 Y15.6827 
G01 X28.7202 Y15.5100 
G01 X28.6918 Y15.3308 
G01 X28.6918 Y15.1492 
G01 X28.7202 Y14.9700 
G01 X28.7763 Y14.7973 
G01 X28.8587 Y14.6356 
G01 X28.9654 Y14.4887 
G00 Z2.0000  
G00 X28.9654 Y17.0287 
G01 Z-0.1500 F200   
G01 X29.0937 Y16.9004 F350   
G01 X29.2406 Y16.7937 
G01 X29.4023 Y16.7113 
G01 X29.5750 Y16.6552 
G01 X29.7542 Y16.6268 
G01 X29.9358 Y16.6268 
G01 X30.1150 Y16.6552 
G01 X30.2877 Y16.7113 
G01 X30.4494 Y16.7937 
G01 X30.5963 Y16.9004 
G01 X30.7246 Y17.0287 
G01 X30.8313 Y17.1756 
G01 X30.9137 Y17.3373 
G01 X30.9698 Y17.5100 
G01 X30.9982 Y17.6892 
G01 X30.9982 Y17.8708 
G01 X30.9698 Y18.0500 
G01 X30.9137 Y18.2227 
G01 X30.8313 Y18.3844 
G01 X30.7246 Y18.5313 
G01 X30.5963 Y18.6596 
G01 X30.4494 Y18.7663 
G01 X30.2877 Y18.8487 
G01 X30.1150 Y18.9048 
G01 X29.9358 Y18.9332 
G01 X29.7542 Y18.9332 
G01 X29.5750 Y18.9048 
G01 X29.4023 Y18.8487 
G01 X29.2406 Y18.7663 
G01 X29.0937 Y18.6596 
G01 X28.9654 Y18.5313 
G01 X28.8587 Y18.3844 
G01 X28.7763 Y18.2227 
G01 X28.7202 Y18.0500 
G01 X28.6918 Y17.8708 
G01 X28.6918 Y17.6892 
G01 X28.7202 Y17.5100 
G01 X28.7763 Y17.3373 
G01 X28.8587 Y17.1756 
G01 X28.9654 Y17.0287 
G00 Z2.0000  
G00 X27.4213 Y20.7104 
G01 Z-0.1500 F200   
G01 X27.5496 Y20.8387 F350   
G01 X27.6563 Y20.9856 
G01 X27.7387 Y21.1473 
G01 X27.7948 Y21.3200 
G01 X27.8232 Y21.4992 
G01 X27.8232 Y21.6808 
G01 X27.7948 Y21.8600 
G01 X27.7387 Y22.0327 
G01 X27.6563 Y22.1944 
G01 X27.5496 Y22.3413 
G01 X27.4213 Y22.4696 
G01 X27.2744 Y22.5763 
G01 X27.1127 Y22.6587 
G01 X26.9400 Y22.7148 
G01 X26.7608 Y22.7432 
G01 X26.5792 Y22.7432 
G01 X26.4000 Y22.7148 
G01 X26.2273 Y22.6587 
G01 X26.0656 Y22.5763 
G01 X25.9187 Y22.4696 
G01 X25.7904 Y22.3413 
G01 X25.6837 Y22.1944 
G01 X25.6013 Y22.0327 
G01 X25.5452 Y21.8600 
G01 X25.5168 Y21.6808 
G01 X25.5168 Y21.4992 
G01 X25.5452 Y21.3200 
G01 X25.6013 Y21.1473 
G01 X25.6837 Y20.9856 
G01 X25.7904 Y20.8387 
G01 X25.9187 Y20.7104 
G01 X26.0656 Y20.6037 
G01 X26.2273 Y20.5213 
G01 X26.4000 Y20.4652 
G01 X26.5792 Y20.4368 
G01 X26.7608 Y20.4368 
G01 X26.9400 Y20.4652 
G01 X27.1127 Y20.5213 
G01 X27.2744 Y20.6037 
G01 X27.4213 Y20.7104 
G00 Z2.0000  
G00 X27.4367 Y24.0072 
G01 Z-0.1500 F200   
G01 X27.6330 Y23.9435 F350   
G01 X27.8368 Y23.9112 
G01 X28.0432 Y23.9112 
G01 X28.2470 Y23.9435 
G01 X28.4432 Y24.0072 
G01 X28.6271 Y24.1009 
G01 X28.7941 Y24.2222 
G01 X28.9400 Y24.3681 
G01 X29.0613 Y24.5351 
G01 X29.1549 Y24.7189 
G01 X29.2187 Y24.9152 
G01 X29.2510 Y25.1190 
G01 X29.2510 Y25.3254 
G01 X29.2187 Y25.5292 
G01 X29.1549 Y25.7254 
G01 X29.0613 Y25.9093 
G01 X28.9400 Y26.0763 
G01 X28.7941 Y26.2222 
G01 X28.6271 Y26.3435 
G01 X28.4432 Y26.4371 
G01 X28.2470 Y26.5009 
G01 X28.0432 Y26.5332 
G01 X27.8368 Y26.5332 
G01 X27.6330 Y26.5009 
G01 X27.4367 Y26.4371 
G01 X27.2529 Y26.3435 
G01 X27.0859 Y26.2222 
G01 X26.9400 Y26.0763 
G01 X26.8187 Y25.9093 
G01 X26.7250 Y25.7254 
G01 X26.6613 Y25.5292 
G01 X26.6290 Y25.3254 
G01 X26.6290 Y25.1190 
G01 X26.6613 Y24.9152 
G01 X26.7250 Y24.7189 
G01 X26.8187 Y24.5351 
G01 X26.9400 Y24.3681 
G01 X27.0859 Y24.2222 
G01 X27.2529 Y24.1009 
G01 X27.4367 Y24.0072 
G00 Z2.0000  
G00 X27.4367 Y26.9028 
G01 Z-0.1500 F200   
G01 X27.6330 Y26.8391 F350   
G01 X27.8368 Y26.8068 
G01 X28.0432 Y26.8068 
G01 X28.2470 Y26.8391 
G01 X28.4432 Y26.9028 
G01 X28.6271 Y26.9965 
G01 X28.7941 Y27.1178 
G01 X28.9400 Y27.2637 
G01 X29.0613 Y27.4307 
G01 X29.1549 Y27.6146 
G01 X29.2187 Y27.8108 
G01 X29.2510 Y28.0146 
G01 X29.2510 Y28.2210 
G01 X29.2187 Y28.4248 
G01 X29.1549 Y28.6210 
G01 X29.0613 Y28.8049 
G01 X28.9400 Y28.9719 
G01 X28.7941 Y29.1178 
G01 X28.6271 Y29.2391 
G01 X28.4432 Y29.3328 
G01 X28.2470 Y29.3965 
G01 X28.0432 Y29.4288 
G01 X27.8368 Y29.4288 
G01 X27.6330 Y29.3965 
G01 X27.4367 Y29.3328 
G01 X27.2529 Y29.2391 
G01 X27.0859 Y29.1178 
G01 X26.9400 Y28.9719 
G01 X26.8187 Y28.8049 
G01 X26.7250 Y28.6210 
G01 X26.6613 Y28.4248 
G01 X26.6290 Y28.2210 
G01 X26.6290 Y28.0146 
G01 X26.6613 Y27.8108 
G01 X26.7250 Y27.6146 
G01 X26.8187 Y27.4307 
G01 X26.9400 Y27.2637 
G01 X27.0859 Y27.1178 
G01 X27.2529 Y26.9965 
G01 X27.4367 Y26.9028 
G00 Z2.0000  
G00 X27.4973 Y30.6813 
G01 Z-0.1500 F200   
G01 X27.6700 Y30.6252 F350   
G01 X27.8492 Y30.5968 
G01 X28.0308 Y30.5968 
G01 X28.2100 Y30.6252 
G01 X28.3827 Y30.6813 
G01 X28.5444 Y30.7637 
G01 X28.6913 Y30.8704 
G01 X28.8196 Y30.9987 
G01 X28.9263 Y31.1456 
G01 X29.0087 Y31.3073 
G01 X29.0648 Y31.4800 
G01 X29.0932 Y31.6592 
G01 X29.0932 Y31.8408 
G01 X29.0648 Y32.0200 
G01 X29.0087 Y32.1927 
G01 X28.9263 Y32.3544 
G01 X28.8196 Y32.5013 
G01 X28.6913 Y32.6296 
G01 X28.5444 Y32.7363 
G01 X28.3827 Y32.8187 
G01 X28.2100 Y32.8748 
G01 X28.0308 Y32.9032 
G01 X27.8492 Y32.9032 
G01 X27.6700 Y32.8748 
G01 X27.4973 Y32.8187 
G01 X27.3356 Y32.7363 
G01 X27.1887 Y32.6296 
G01 X27.0604 Y32.5013 
G01 X26.9537 Y32.3544 
G01 X26.8713 Y32.1927 
G01 X26.8152 Y32.0200 
G01 X26.7868 Y31.8408 
G01 X26.7868 Y31.6592 
G01 X26.8152 Y31.4800 
G01 X26.8713 Y31.3073 
G01 X26.9537 Y31.1456 
G01 X27.0604 Y30.9987 
G01 X27.1887 Y30.8704 
G01 X27.3356 Y30.7637 
G01 X27.4973 Y30.6813 
G00 Z2.0000  
G00 X27.4973 Y33.2213 
G01 Z-0.1500 F200   
G01 X27.6700 Y33.1652 F350   
G01 X27.8492 Y33.1368 
G01 X28.0308 Y33.1368 
G01 X28.2100 Y33.1652 
G01 X28.3827 Y33.2213 
G01 X28.5444 Y33.3037 
G01 X28.6913 Y33.4104 
G01 X28.8196 Y33.5387 
G01 X28.9263 Y33.6856 
G01 X29.0087 Y33.8473 
G01 X29.0648 Y34.0200 
G01 X29.0932 Y34.1992 
G01 X29.0932 Y34.3808 
G01 X29.0648 Y34.5600 
G01 X29.0087 Y34.7327 
G01 X28.9263 Y34.8944 
G01 X28.8196 Y35.0413 
G01 X28.6913 Y35.1696 
G01 X28.5444 Y35.2763 
G01 X28.3827 Y35.3587 
G01 X28.2100 Y35.4148 
G01 X28.0308 Y35.4432 
G01 X27.8492 Y35.4432 
G01 X27.6700 Y35.4148 
G01 X27.4973 Y35.3587 
G01 X27.3356 Y35.2763 
G01 X27.1887 Y35.1696 
G01 X27.0604 Y35.0413 
G01 X26.9537 Y34.8944 
G01 X26.8713 Y34.7327 
G01 X26.8152 Y34.5600 
G01 X26.7868 Y34.3808 
G01 X26.7868 Y34.1992 
G01 X26.8152 Y34.0200 
G01 X26.8713 Y33.8473 
G01 X26.9537 Y33.6856 
G01 X27.0604 Y33.5387 
G01 X27.1887 Y33.4104 
G01 X27.3356 Y33.3037 
G01 X27.4973 Y33.2213 
G00 Z2.0000  
G00 X27.4973 Y35.7613 
G01 Z-0.1500 F200   
G01 X27.6700 Y35.7052 F350   
G01 X27.8492 Y35.6768 
G01 X28.0308 Y35.6768 
G01 X28.2100 Y35.7052 
G01 X28.3827 Y35.7613 
G01 X28.5444 Y35.8437 
G01 X28.6913 Y35.9504 
G01 X28.8196 Y36.0787 
G01 X28.9263 Y36.2256 
G01 X29.0087 Y36.3873 
G01 X29.0648 Y36.5600 
G01 X29.0932 Y36.7392 
G01 X29.0932 Y36.9208 
G01 X29.0648 Y37.1000 
G01 X29.0087 Y37.2727 
G01 X28.9263 Y37.4344 
G01 X28.8196 Y37.5813 
G01 X28.6913 Y37.7096 
G01 X28.5444 Y37.8163 
G01 X28.3827 Y37.8987 
G01 X28.2100 Y37.9548 
G01 X28.0308 Y37.9832 
G01 X27.8492 Y37.9832 
G01 X27.6700 Y37.9548 
G01 X27.4973 Y37.8987 
G01 X27.3356 Y37.8163 
G01 X27.1887 Y37.7096 
G01 X27.0604 Y37.5813 
G01 X26.9537 Y37.4344 
G01 X26.8713 Y37.2727 
G01 X26.8152 Y37.1000 
G01 X26.7868 Y36.9208 
G01 X26.7868 Y36.7392 
G01 X26.8152 Y36.5600 
G01 X26.8713 Y36.3873 
G01 X26.9537 Y36.2256 
G01 X27.0604 Y36.0787 
G01 X27.1887 Y35.9504 
G01 X27.3356 Y35.8437 
G01 X27.4973 Y35.7613 
G00 Z2.0000  
G00 X25.1619 Y47.2600 
G01 Z-0.1500 F200   
G01 X25.3078 Y47.4059 F350   
G01 X25.4291 Y47.5729 
G01 X25.5227 Y47.7567 
G01 X25.5865 Y47.9530 
G01 X25.6188 Y48.1568 
G01 X25.6188 Y48.3632 
G01 X25.5865 Y48.5670 
G01 X25.5227 Y48.7632 
G01 X25.4291 Y48.9471 
G01 X25.3078 Y49.1141 
G01 X25.1619 Y49.2600 
G01 X24.9949 Y49.3813 
G01 X24.8110 Y49.4749 
G01 X24.6148 Y49.5387 
G01 X24.4110 Y49.5710 
G01 X24.2046 Y49.5710 
G01 X24.0008 Y49.5387 
G01 X23.8045 Y49.4749 
G01 X23.6207 Y49.3813 
G01 X23.4537 Y49.2600 
G01 X23.3078 Y49.1141 
G01 X23.1865 Y48.9471 
G01 X23.0928 Y48.7632 
G01 X23.0291 Y48.5670 
G01 X22.9968 Y48.3632 
G01 X22.9968 Y48.1568 
G01 X23.0291 Y47.9530 
G01 X23.0928 Y47.7567 
G01 X23.1865 Y47.5729 
G01 X23.3078 Y47.4059 
G01 X23.4537 Y47.2600 
G01 X23.6207 Y47.1387 
G01 X23.8045 Y47.0450 
G01 X24.0008 Y46.9813 
G01 X24.2046 Y46.9490 
G01 X24.4110 Y46.9490 
G01 X24.6148 Y46.9813 
G01 X24.8110 Y47.0450 
G01 X24.9949 Y47.1387 
G01 X25.1619 Y47.2600 
G00 Z2.0000  
G00 X22.2663 Y47.2600 
G01 Z-0.1500 F200   
G01 X22.4122 Y47.4059 F350   
G01 X22.5335 Y47.5729 
G01 X22.6272 Y47.7567 
G01 X22.6909 Y47.9530 
G01 X22.7232 Y48.1568 
G01 X22.7232 Y48.3632 
G01 X22.6909 Y48.5670 
G01 X22.6272 Y48.7632 
G01 X22.5335 Y48.9471 
G01 X22.4122 Y49.1141 
G01 X22.2663 Y49.2600 
G01 X22.0993 Y49.3813 
G01 X21.9154 Y49.4749 
G01 X21.7192 Y49.5387 
G01 X21.5154 Y49.5710 
G01 X21.3090 Y49.5710 
G01 X21.1052 Y49.5387 
G01 X20.9090 Y49.4749 
G01 X20.7251 Y49.3813 
G01 X20.5581 Y49.2600 
G01 X20.4122 Y49.1141 
G01 X20.2909 Y48.9471 
G01 X20.1972 Y48.7632 
G01 X20.1335 Y48.5670 
G01 X20.1012 Y48.3632 
G01 X20.1012 Y48.1568 
G01 X20.1335 Y47.9530 
G01 X20.1972 Y47.7567 
G01 X20.2909 Y47.5729 
G01 X20.4122 Y47.4059 
G01 X20.5581 Y47.2600 
G01 X20.7251 Y47.1387 
G01 X20.9090 Y47.0450 
G01 X21.1052 Y46.9813 
G01 X21.3090 Y46.9490 
G01 X21.5154 Y46.9490 
G01 X21.7192 Y46.9813 
G01 X21.9154 Y47.0450 
G01 X22.0993 Y47.1387 
G01 X22.2663 Y47.2600 
G00 Z2.0000  
G00 X5.4450  Y41.0369 
G01 Z-0.1500 F200   
G01 X5.2991  Y41.1828 F350   
G01 X5.1321  Y41.3041 
G01 X4.9482  Y41.3978 
G01 X4.7520  Y41.4615 
G01 X4.5482  Y41.4938 
G01 X4.3418  Y41.4938 
G01 X4.1380  Y41.4615 
G01 X3.9417  Y41.3978 
G01 X3.7579  Y41.3041 
G01 X3.5909  Y41.1828 
G01 X3.4450  Y41.0369 
G01 X3.3237  Y40.8699 
G01 X3.2300  Y40.6860 
G01 X3.1663  Y40.4898 
G01 X3.1340  Y40.2860 
G01 X3.1340  Y40.0796 
G01 X3.1663  Y39.8758 
G01 X3.2300  Y39.6795 
G01 X3.3237  Y39.4957 
G01 X3.4450  Y39.3287 
G01 X3.5909  Y39.1828 
G01 X3.7579  Y39.0615 
G01 X3.9417  Y38.9678 
G01 X4.1380  Y38.9041 
G01 X4.3418  Y38.8718 
G01 X4.5482  Y38.8718 
G01 X4.7520  Y38.9041 
G01 X4.9482  Y38.9678 
G01 X5.1321  Y39.0615 
G01 X5.2991  Y39.1828 
G01 X5.4450  Y39.3287 
G01 X5.5663  Y39.4957 
G01 X5.6600  Y39.6795 
G01 X5.7237  Y39.8758 
G01 X5.7560  Y40.0796 
G01 X5.7560  Y40.2860 
G01 X5.7237  Y40.4898 
G01 X5.6600  Y40.6860 
G01 X5.5663  Y40.8699 
G01 X5.4450  Y41.0369 
G00 Z2.0000  
G00 X5.4450  Y38.1413 
G01 Z-0.1500 F200   
G01 X5.2991  Y38.2872 F350   
G01 X5.1321  Y38.4085 
G01 X4.9482  Y38.5022 
G01 X4.7520  Y38.5659 
G01 X4.5482  Y38.5982 
G01 X4.3418  Y38.5982 
G01 X4.1380  Y38.5659 
G01 X3.9417  Y38.5022 
G01 X3.7579  Y38.4085 
G01 X3.5909  Y38.2872 
G01 X3.4450  Y38.1413 
G01 X3.3237  Y37.9743 
G01 X3.2300  Y37.7904 
G01 X3.1663  Y37.5942 
G01 X3.1340  Y37.3904 
G01 X3.1340  Y37.1840 
G01 X3.1663  Y36.9802 
G01 X3.2300  Y36.7839 
G01 X3.3237  Y36.6001 
G01 X3.4450  Y36.4331 
G01 X3.5909  Y36.2872 
G01 X3.7579  Y36.1659 
G01 X3.9417  Y36.0722 
G01 X4.1380  Y36.0085 
G01 X4.3418  Y35.9762 
G01 X4.5482  Y35.9762 
G01 X4.7520  Y36.0085 
G01 X4.9482  Y36.0722 
G01 X5.1321  Y36.1659 
G01 X5.2991  Y36.2872 
G01 X5.4450  Y36.4331 
G01 X5.5663  Y36.6001 
G01 X5.6600  Y36.7839 
G01 X5.7237  Y36.9802 
G01 X5.7560  Y37.1840 
G01 X5.7560  Y37.3904 
G01 X5.7237  Y37.5942 
G01 X5.6600  Y37.7904 
G01 X5.5663  Y37.9743 
G01 X5.4450  Y38.1413 
G00 Z2.0000  
G00 X33.5387 Y22.4696 
G01 Z-0.1500 F200   
G01 X33.4104 Y22.3413 F350   
G01 X33.3037 Y22.1944 
G01 X33.2213 Y22.0327 
G01 X33.1652 Y21.8600 
G01 X33.1368 Y21.6808 
G01 X33.1368 Y21.4992 
G01 X33.1652 Y21.3200 
G01 X33.2213 Y21.1473 
G01 X33.3037 Y20.9856 
G01 X33.4104 Y20.8387 
G01 X33.5387 Y20.7104 
G01 X33.6856 Y20.6037 
G01 X33.8473 Y20.5213 
G01 X34.0200 Y20.4652 
G01 X34.1992 Y20.4368 
G01 X34.3808 Y20.4368 
G01 X34.5600 Y20.4652 
G01 X34.7327 Y20.5213 
G01 X34.8944 Y20.6037 
G01 X35.0413 Y20.7104 
G01 X35.1696 Y20.8387 
G01 X35.2763 Y20.9856 
G01 X35.3587 Y21.1473 
G01 X35.4148 Y21.3200 
G01 X35.4432 Y21.4992 
G01 X35.4432 Y21.6808 
G01 X35.4148 Y21.8600 
G01 X35.3587 Y22.0327 
G01 X35.2763 Y22.1944 
G01 X35.1696 Y22.3413 
G01 X35.0413 Y22.4696 
G01 X34.8944 Y22.5763 
G01 X34.7327 Y22.6587 
G01 X34.5600 Y22.7148 
G01 X34.3808 Y22.7432 
G01 X34.1992 Y22.7432 
G01 X34.0200 Y22.7148 
G01 X33.8473 Y22.6587 
G01 X33.6856 Y22.5763 
G01 X33.5387 Y22.4696 
G00 Z2.0000  
G00 X6.9820  Y3.8960  
G01 Z-0.1500 F200   
G01 X7.0964  Y3.7816  F350   
G01 X7.2309  Y3.6917  
G01 X7.3804  Y3.6298  
G01 X7.5391  Y3.5982  
G01 X7.7009  Y3.5982  
G01 X7.8596  Y3.6298  
G01 X8.0091  Y3.6917  
G01 X8.1436  Y3.7816  
G01 X8.2580  Y3.8960  
G01 X8.3479  Y4.0305  
G01 X8.4098  Y4.1800  
G01 X8.4414  Y4.3387  
G01 X8.4414  Y5.8213  
G01 X8.4098  Y5.9800  
G01 X8.3479  Y6.1295  
G01 X8.2580  Y6.2640  
G01 X8.1436  Y6.3784  
G01 X8.0091  Y6.4683  
G01 X7.8596  Y6.5302  
G01 X7.7009  Y6.5618  
G01 X7.5391  Y6.5618  
G01 X7.3804  Y6.5302  
G01 X7.2309  Y6.4683  
G01 X7.0964  Y6.3784  
G01 X6.9820  Y6.2640  
G01 X6.8921  Y6.1295  
G01 X6.8302  Y5.9800  
G01 X6.7986  Y5.8213  
G01 X6.7986  Y4.3387  
G01 X6.8302  Y4.1800  
G01 X6.8921  Y4.0305  
G01 X6.9820  Y3.8960  
G00 Z2.0000  
G00 X9.5220  Y3.8960  
G01 Z-0.1500 F200   
G01 X9.6364  Y3.7816  F350   
G01 X9.7709  Y3.6917  
G01 X9.9204  Y3.6298  
G01 X10.0791 Y3.5982  
G01 X10.2409 Y3.5982  
G01 X10.3996 Y3.6298  
G01 X10.5491 Y3.6917  
G01 X10.6836 Y3.7816  
G01 X10.7980 Y3.8960  
G01 X10.8879 Y4.0305  
G01 X10.9498 Y4.1800  
G01 X10.9814 Y4.3387  
G01 X10.9814 Y5.8213  
G01 X10.9498 Y5.9800  
G01 X10.8879 Y6.1295  
G01 X10.7980 Y6.2640  
G01 X10.6836 Y6.3784  
G01 X10.5491 Y6.4683  
G01 X10.3996 Y6.5302  
G01 X10.2409 Y6.5618  
G01 X10.0791 Y6.5618  
G01 X9.9204  Y6.5302  
G01 X9.7709  Y6.4683  
G01 X9.6364  Y6.3784  
G01 X9.5220  Y6.2640  
G01 X9.4321  Y6.1295  
G01 X9.3702  Y5.9800  
G01 X9.3386  Y5.8213  
G01 X9.3386  Y4.3387  
G01 X9.3702  Y4.1800  
G01 X9.4321  Y4.0305  
G01 X9.5220  Y3.8960  
G00 Z2.0000  
G00 X12.0620 Y3.8960  
G01 Z-0.1500 F200   
G01 X12.1764 Y3.7816  F350   
G01 X12.3109 Y3.6917  
G01 X12.4604 Y3.6298  
G01 X12.6191 Y3.5982  
G01 X12.7809 Y3.5982  
G01 X12.9396 Y3.6298  
G01 X13.0891 Y3.6917  
G01 X13.2236 Y3.7816  
G01 X13.3380 Y3.8960  
G01 X13.4279 Y4.0305  
G01 X13.4898 Y4.1800  
G01 X13.5214 Y4.3387  
G01 X13.5214 Y5.8213  
G01 X13.4898 Y5.9800  
G01 X13.4279 Y6.1295  
G01 X13.3380 Y6.2640  
G01 X13.2236 Y6.3784  
G01 X13.0891 Y6.4683  
G01 X12.9396 Y6.5302  
G01 X12.7809 Y6.5618  
G01 X12.6191 Y6.5618  
G01 X12.4604 Y6.5302  
G01 X12.3109 Y6.4683  
G01 X12.1764 Y6.3784  
G01 X12.0620 Y6.2640  
G01 X11.9721 Y6.1295  
G01 X11.9102 Y5.9800  
G01 X11.8786 Y5.8213  
G01 X11.8786 Y4.3387  
G01 X11.9102 Y4.1800  
G01 X11.9721 Y4.0305  
G01 X12.0620 Y3.8960  
G00 Z2.0000  
G00 X14.6020 Y3.8960  
G01 Z-0.1500 F200   
G01 X14.7164 Y3.7816  F350   
G01 X14.8509 Y3.6917  
G01 X15.0004 Y3.6298  
G01 X15.1591 Y3.5982  
G01 X15.3209 Y3.5982  
G01 X15.4796 Y3.6298  
G01 X15.6291 Y3.6917  
G01 X15.7636 Y3.7816  
G01 X15.8780 Y3.8960  
G01 X15.9679 Y4.0305  
G01 X16.0298 Y4.1800  
G01 X16.0614 Y4.3387  
G01 X16.0614 Y5.8213  
G01 X16.0298 Y5.9800  
G01 X15.9679 Y6.1295  
G01 X15.8780 Y6.2640  
G01 X15.7636 Y6.3784  
G01 X15.6291 Y6.4683  
G01 X15.4796 Y6.5302  
G01 X15.3209 Y6.5618  
G01 X15.1591 Y6.5618  
G01 X15.0004 Y6.5302  
G01 X14.8509 Y6.4683  
G01 X14.7164 Y6.3784  
G01 X14.6020 Y6.2640  
G01 X14.5121 Y6.1295  
G01 X14.4502 Y5.9800  
G01 X14.4186 Y5.8213  
G01 X14.4186 Y4.3387  
G01 X14.4502 Y4.1800  
G01 X14.5121 Y4.0305  
G01 X14.6020 Y3.8960  
G00 Z2.0000  
G00 X17.1420 Y3.8960  
G01 Z-0.1500 F200   
G01 X17.2564 Y3.7816  F350   
G01 X17.3909 Y3.6917  
G01 X17.5404 Y3.6298  
G01 X17.6991 Y3.5982  
G01 X17.8609 Y3.5982  
G01 X18.0196 Y3.6298  
G01 X18.1691 Y3.6917  
G01 X18.3036 Y3.7816  
G01 X18.4180 Y3.8960  
G01 X18.5079 Y4.0305  
G01 X18.5698 Y4.1800  
G01 X18.6014 Y4.3387  
G01 X18.6014 Y5.8213  
G01 X18.5698 Y5.9800  
G01 X18.5079 Y6.1295  
G01 X18.4180 Y6.2640  
G01 X18.3036 Y6.3784  
G01 X18.1691 Y6.4683  
G01 X18.0196 Y6.5302  
G01 X17.8609 Y6.5618  
G01 X17.6991 Y6.5618  
G01 X17.5404 Y6.5302  
G01 X17.3909 Y6.4683  
G01 X17.2564 Y6.3784  
G01 X17.1420 Y6.2640  
G01 X17.0521 Y6.1295  
G01 X16.9902 Y5.9800  
G01 X16.9586 Y5.8213  
G01 X16.9586 Y4.3387  
G01 X16.9902 Y4.1800  
G01 X17.0521 Y4.0305  
G01 X17.1420 Y3.8960  
G00 Z2.0000  
G00 X19.6820 Y3.8960  
G01 Z-0.1500 F200   
G01 X19.7964 Y3.7816  F350   
G01 X19.9309 Y3.6917  
G01 X20.0804 Y3.6298  
G01 X20.2391 Y3.5982  
G01 X20.4009 Y3.5982  
G01 X20.5596 Y3.6298  
G01 X20.7091 Y3.6917  
G01 X20.8436 Y3.7816  
G01 X20.9580 Y3.8960  
G01 X21.0479 Y4.0305  
G01 X21.1098 Y4.1800  
G01 X21.1414 Y4.3387  
G01 X21.1414 Y5.8213  
G01 X21.1098 Y5.9800  
G01 X21.0479 Y6.1295  
G01 X20.9580 Y6.2640  
G01 X20.8436 Y6.3784  
G01 X20.7091 Y6.4683  
G01 X20.5596 Y6.5302  
G01 X20.4009 Y6.5618  
G01 X20.2391 Y6.5618  
G01 X20.0804 Y6.5302  
G01 X19.9309 Y6.4683  
G01 X19.7964 Y6.3784  
G01 X19.6820 Y6.2640  
G01 X19.5921 Y6.1295  
G01 X19.5302 Y5.9800  
G01 X19.4986 Y5.8213  
G01 X19.4986 Y4.3387  
G01 X19.5302 Y4.1800  
G01 X19.5921 Y4.0305  
G01 X19.6820 Y3.8960  
G00 Z2.0000  
G00 X22.2220 Y3.8960  
G01 Z-0.1500 F200   
G01 X22.3364 Y3.7816  F350   
G01 X22.4709 Y3.6917  
G01 X22.6204 Y3.6298  
G01 X22.7791 Y3.5982  
G01 X22.9409 Y3.5982  
G01 X23.0996 Y3.6298  
G01 X23.2491 Y3.6917  
G01 X23.3836 Y3.7816  
G01 X23.4980 Y3.8960  
G01 X23.5879 Y4.0305  
G01 X23.6498 Y4.1800  
G01 X23.6814 Y4.3387  
G01 X23.6814 Y5.8213  
G01 X23.6498 Y5.9800  
G01 X23.5879 Y6.1295  
G01 X23.4980 Y6.2640  
G01 X23.3836 Y6.3784  
G01 X23.2491 Y6.4683  
G01 X23.0996 Y6.5302  
G01 X22.9409 Y6.5618  
G01 X22.7791 Y6.5618  
G01 X22.6204 Y6.5302  
G01 X22.4709 Y6.4683  
G01 X22.3364 Y6.3784  
G01 X22.2220 Y6.2640  
G01 X22.1321 Y6.1295  
G01 X22.0702 Y5.9800  
G01 X22.0386 Y5.8213  
G01 X22.0386 Y4.3387  
G01 X22.0702 Y4.1800  
G01 X22.1321 Y4.0305  
G01 X22.2220 Y3.8960  
G00 Z2.0000  
G00 X27.3235 Y4.0625  
G01 Z-0.1500 F200   
G01 X27.4775 Y3.9085  F350   
G01 X27.6502 Y3.7760  
G01 X27.8388 Y3.6671  
G01 X28.0399 Y3.5838  
G01 X28.2503 Y3.5274  
G01 X28.4661 Y3.4990  
G01 X28.6839 Y3.4990  
G01 X28.8997 Y3.5274  
G01 X29.1101 Y3.5838  
G01 X29.3112 Y3.6671  
G01 X29.4998 Y3.7760  
G01 X29.6725 Y3.9085  
G01 X29.8265 Y4.0625  
G01 X29.9590 Y4.2352  
G01 X30.0679 Y4.4238  
G01 X30.1512 Y4.6249  
G01 X30.2076 Y4.8353  
G01 X30.2360 Y5.0511  
G01 X30.2360 Y5.2689  
G01 X30.2076 Y5.4847  
G01 X30.1512 Y5.6951  
G01 X30.0679 Y5.8962  
G01 X29.9590 Y6.0848  
G01 X29.8265 Y6.2575  
G01 X29.6725 Y6.4115  
G01 X29.4998 Y6.5440  
G01 X29.3112 Y6.6529  
G01 X29.1101 Y6.7362  
G01 X28.8997 Y6.7926  
G01 X28.6839 Y6.8210  
G01 X28.4661 Y6.8210  
G01 X28.2503 Y6.7926  
G01 X28.0399 Y6.7362  
G01 X27.8388 Y6.6529  
G01 X27.6502 Y6.5440  
G01 X27.4775 Y6.4115  
G01 X27.3235 Y6.2575  
G01 X27.1910 Y6.0848  
G01 X27.0821 Y5.8962  
G01 X26.9988 Y5.6951  
G01 X26.9424 Y5.4847  
G01 X26.9140 Y5.2689  
G01 X26.9140 Y5.0511  
G01 X26.9424 Y4.8353  
G01 X26.9988 Y4.6249  
G01 X27.0821 Y4.4238  
G01 X27.1910 Y4.2352  
G01 X27.3235 Y4.0625  
G00 Z2.0000  
G00 X27.3235 Y9.0625  
G01 Z-0.1500 F200   
G01 X27.4775 Y8.9085  F350   
G01 X27.6502 Y8.7760  
G01 X27.8388 Y8.6671  
G01 X28.0399 Y8.5838  
G01 X28.2503 Y8.5274  
G01 X28.4661 Y8.4990  
G01 X28.6839 Y8.4990  
G01 X28.8997 Y8.5274  
G01 X29.1101 Y8.5838  
G01 X29.3112 Y8.6671  
G01 X29.4998 Y8.7760  
G01 X29.6725 Y8.9085  
G01 X29.8265 Y9.0625  
G01 X29.9590 Y9.2352  
G01 X30.0679 Y9.4238  
G01 X30.1512 Y9.6249  
G01 X30.2076 Y9.8353  
G01 X30.2360 Y10.0511 
G01 X30.2360 Y10.2689 
G01 X30.2076 Y10.4847 
G01 X30.1512 Y10.6951 
G01 X30.0679 Y10.8962 
G01 X29.9590 Y11.0848 
G01 X29.8265 Y11.2575 
G01 X29.6725 Y11.4115 
G01 X29.4998 Y11.5440 
G01 X29.3112 Y11.6529 
G01 X29.1101 Y11.7362 
G01 X28.8997 Y11.7926 
G01 X28.6839 Y11.8210 
G01 X28.4661 Y11.8210 
G01 X28.2503 Y11.7926 
G01 X28.0399 Y11.7362 
G01 X27.8388 Y11.6529 
G01 X27.6502 Y11.5440 
G01 X27.4775 Y11.4115 
G01 X27.3235 Y11.2575 
G01 X27.1910 Y11.0848 
G01 X27.0821 Y10.8962 
G01 X26.9988 Y10.6951 
G01 X26.9424 Y10.4847 
G01 X26.9140 Y10.2689 
G01 X26.9140 Y10.0511 
G01 X26.9424 Y9.8353  
G01 X26.9988 Y9.6249  
G01 X27.0821 Y9.4238  
G01 X27.1910 Y9.2352  
G01 X27.3235 Y9.0625  
G00 Z2.0000  
G00 X23.3836 Y11.4016 
G01 Z-0.1500 F200   
G01 X23.4980 Y11.5160 F350   
G01 X23.5879 Y11.6505 
G01 X23.6498 Y11.8000 
G01 X23.6814 Y11.9587 
G01 X23.6814 Y13.4413 
G01 X23.6498 Y13.6000 
G01 X23.5879 Y13.7495 
G01 X23.4980 Y13.8840 
G01 X23.3836 Y13.9984 
G01 X23.2491 Y14.0883 
G01 X23.0996 Y14.1502 
G01 X22.9409 Y14.1818 
G01 X22.7791 Y14.1818 
G01 X22.6204 Y14.1502 
G01 X22.4709 Y14.0883 
G01 X22.3364 Y13.9984 
G01 X22.2220 Y13.8840 
G01 X22.1321 Y13.7495 
G01 X22.0702 Y13.6000 
G01 X22.0386 Y13.4413 
G01 X22.0386 Y11.9587 
G01 X22.0702 Y11.8000 
G01 X22.1321 Y11.6505 
G01 X22.2220 Y11.5160 
G01 X22.3364 Y11.4016 
G01 X22.4709 Y11.3117 
G01 X22.6204 Y11.2498 
G01 X22.7791 Y11.2182 
G01 X22.9409 Y11.2182 
G01 X23.0996 Y11.2498 
G01 X23.2491 Y11.3117 
G01 X23.3836 Y11.4016 
G00 Z2.0000  
G00 X20.8436 Y11.4016 
G01 Z-0.1500 F200   
G01 X20.9580 Y11.5160 F350   
G01 X21.0479 Y11.6505 
G01 X21.1098 Y11.8000 
G01 X21.1414 Y11.9587 
G01 X21.1414 Y13.4413 
G01 X21.1098 Y13.6000 
G01 X21.0479 Y13.7495 
G01 X20.9580 Y13.8840 
G01 X20.8436 Y13.9984 
G01 X20.7091 Y14.0883 
G01 X20.5596 Y14.1502 
G01 X20.4009 Y14.1818 
G01 X20.2391 Y14.1818 
G01 X20.0804 Y14.1502 
G01 X19.9309 Y14.0883 
G01 X19.7964 Y13.9984 
G01 X19.6820 Y13.8840 
G01 X19.5921 Y13.7495 
G01 X19.5302 Y13.6000 
G01 X19.4986 Y13.4413 
G01 X19.4986 Y11.9587 
G01 X19.5302 Y11.8000 
G01 X19.5921 Y11.6505 
G01 X19.6820 Y11.5160 
G01 X19.7964 Y11.4016 
G01 X19.9309 Y11.3117 
G01 X20.0804 Y11.2498 
G01 X20.2391 Y11.2182 
G01 X20.4009 Y11.2182 
G01 X20.5596 Y11.2498 
G01 X20.7091 Y11.3117 
G01 X20.8436 Y11.4016 
G00 Z2.0000  
G00 X18.3036 Y11.4016 
G01 Z-0.1500 F200   
G01 X18.4180 Y11.5160 F350   
G01 X18.5079 Y11.6505 
G01 X18.5698 Y11.8000 
G01 X18.6014 Y11.9587 
G01 X18.6014 Y13.4413 
G01 X18.5698 Y13.6000 
G01 X18.5079 Y13.7495 
G01 X18.4180 Y13.8840 
G01 X18.3036 Y13.9984 
G01 X18.1691 Y14.0883 
G01 X18.0196 Y14.1502 
G01 X17.8609 Y14.1818 
G01 X17.6991 Y14.1818 
G01 X17.5404 Y14.1502 
G01 X17.3909 Y14.0883 
G01 X17.2564 Y13.9984 
G01 X17.1420 Y13.8840 
G01 X17.0521 Y13.7495 
G01 X16.9902 Y13.6000 
G01 X16.9586 Y13.4413 
G01 X16.9586 Y11.9587 
G01 X16.9902 Y11.8000 
G01 X17.0521 Y11.6505 
G01 X17.1420 Y11.5160 
G01 X17.2564 Y11.4016 
G01 X17.3909 Y11.3117 
G01 X17.5404 Y11.2498 
G01 X17.6991 Y11.2182 
G01 X17.8609 Y11.2182 
G01 X18.0196 Y11.2498 
G01 X18.1691 Y11.3117 
G01 X18.3036 Y11.4016 
G00 Z2.0000  
G00 X15.7636 Y11.4016 
G01 Z-0.1500 F200   
G01 X15.8780 Y11.5160 F350   
G01 X15.9679 Y11.6505 
G01 X16.0298 Y11.8000 
G01 X16.0614 Y11.9587 
G01 X16.0614 Y13.4413 
G01 X16.0298 Y13.6000 
G01 X15.9679 Y13.7495 
G01 X15.8780 Y13.8840 
G01 X15.7636 Y13.9984 
G01 X15.6291 Y14.0883 
G01 X15.4796 Y14.1502 
G01 X15.3209 Y14.1818 
G01 X15.1591 Y14.1818 
G01 X15.0004 Y14.1502 
G01 X14.8509 Y14.0883 
G01 X14.7164 Y13.9984 
G01 X14.6020 Y13.8840 
G01 X14.5121 Y13.7495 
G01 X14.4502 Y13.6000 
G01 X14.4186 Y13.4413 
G01 X14.4186 Y11.9587 
G01 X14.4502 Y11.8000 
G01 X14.5121 Y11.6505 
G01 X14.6020 Y11.5160 
G01 X14.7164 Y11.4016 
G01 X14.8509 Y11.3117 
G01 X15.0004 Y11.2498 
G01 X15.1591 Y11.2182 
G01 X15.3209 Y11.2182 
G01 X15.4796 Y11.2498 
G01 X15.6291 Y11.3117 
G01 X15.7636 Y11.4016 
G00 Z2.0000  
G00 X13.2236 Y11.4016 
G01 Z-0.1500 F200   
G01 X13.3380 Y11.5160 F350   
G01 X13.4279 Y11.6505 
G01 X13.4898 Y11.8000 
G01 X13.5214 Y11.9587 
G01 X13.5214 Y13.4413 
G01 X13.4898 Y13.6000 
G01 X13.4279 Y13.7495 
G01 X13.3380 Y13.8840 
G01 X13.2236 Y13.9984 
G01 X13.0891 Y14.0883 
G01 X12.9396 Y14.1502 
G01 X12.7809 Y14.1818 
G01 X12.6191 Y14.1818 
G01 X12.4604 Y14.1502 
G01 X12.3109 Y14.0883 
G01 X12.1764 Y13.9984 
G01 X12.0620 Y13.8840 
G01 X11.9721 Y13.7495 
G01 X11.9102 Y13.6000 
G01 X11.8786 Y13.4413 
G01 X11.8786 Y11.9587 
G01 X11.9102 Y11.8000 
G01 X11.9721 Y11.6505 
G01 X12.0620 Y11.5160 
G01 X12.1764 Y11.4016 
G01 X12.3109 Y11.3117 
G01 X12.4604 Y11.2498 
G01 X12.6191 Y11.2182 
G01 X12.7809 Y11.2182 
G01 X12.9396 Y11.2498 
G01 X13.0891 Y11.3117 
G01 X13.2236 Y11.4016 
G00 Z2.0000  
G00 X10.6836 Y11.4016 
G01 Z-0.1500 F200   
G01 X10.7980 Y11.5160 F350   
G01 X10.8879 Y11.6505 
G01 X10.9498 Y11.8000 
G01 X10.9814 Y11.9587 
G01 X10.9814 Y13.4413 
G01 X10.9498 Y13.6000 
G01 X10.8879 Y13.7495 
G01 X10.7980 Y13.8840 
G01 X10.6836 Y13.9984 
G01 X10.5491 Y14.0883 
G01 X10.3996 Y14.1502 
G01 X10.2409 Y14.1818 
G01 X10.0791 Y14.1818 
G01 X9.9204  Y14.1502 
G01 X9.7709  Y14.0883 
G01 X9.6364  Y13.9984 
G01 X9.5220  Y13.8840 
G01 X9.4321  Y13.7495 
G01 X9.3702  Y13.6000 
G01 X9.3386  Y13.4413 
G01 X9.3386  Y11.9587 
G01 X9.3702  Y11.8000 
G01 X9.4321  Y11.6505 
G01 X9.5220  Y11.5160 
G01 X9.6364  Y11.4016 
G01 X9.7709  Y11.3117 
G01 X9.9204  Y11.2498 
G01 X10.0791 Y11.2182 
G01 X10.2409 Y11.2182 
G01 X10.3996 Y11.2498 
G01 X10.5491 Y11.3117 
G01 X10.6836 Y11.4016 
G00 Z2.0000  
G00 X8.1436  Y11.4016 
G01 Z-0.1500 F200   
G01 X8.2580  Y11.5160 F350   
G01 X8.3479  Y11.6505 
G01 X8.4098  Y11.8000 
G01 X8.4414  Y11.9587 
G01 X8.4414  Y13.4413 
G01 X8.4098  Y13.6000 
G01 X8.3479  Y13.7495 
G01 X8.2580  Y13.8840 
G01 X8.1436  Y13.9984 
G01 X8.0091  Y14.0883 
G01 X7.8596  Y14.1502 
G01 X7.7009  Y14.1818 
G01 X7.5391  Y14.1818 
G01 X7.3804  Y14.1502 
G01 X7.2309  Y14.0883 
G01 X7.0964  Y13.9984 
G01 X6.9820  Y13.8840 
G01 X6.8921  Y13.7495 
G01 X6.8302  Y13.6000 
G01 X6.7986  Y13.4413 
G01 X6.7986  Y11.9587 
G01 X6.8302  Y11.8000 
G01 X6.8921  Y11.6505 
G01 X6.9820  Y11.5160 
G01 X7.0964  Y11.4016 
G01 X7.2309  Y11.3117 
G01 X7.3804  Y11.2498 
G01 X7.5391  Y11.2182 
G01 X7.7009  Y11.2182 
G01 X7.8596  Y11.2498 
G01 X8.0091  Y11.3117 
G01 X8.1436  Y11.4016 
G00 Z2.0000  
G00 X28.8891 Y14.4236 
G01 Z-0.1500 F200   
G01 X29.0286 Y14.2841 F350   
G01 X29.1882 Y14.1682 
G01 X29.3639 Y14.0786 
G01 X29.5515 Y14.0177 
G01 X29.7464 Y13.9868 
G01 X29.9436 Y13.9868 
G01 X30.1385 Y14.0177 
G01 X30.3261 Y14.0786 
G01 X30.5018 Y14.1682 
G01 X30.6614 Y14.2841 
G01 X30.8009 Y14.4236 
G01 X30.9168 Y14.5832 
G01 X31.0064 Y14.7589 
G01 X31.0673 Y14.9465 
G01 X31.0982 Y15.1414 
G01 X31.0982 Y15.3386 
G01 X31.0673 Y15.5335 
G01 X31.0064 Y15.7211 
G01 X30.9168 Y15.8968 
G01 X30.8009 Y16.0564 
G01 X30.6614 Y16.1959 
G01 X30.5018 Y16.3118 
G01 X30.3261 Y16.4014 
G01 X30.1385 Y16.4623 
G01 X29.9436 Y16.4932 
G01 X29.7464 Y16.4932 
G01 X29.5515 Y16.4623 
G01 X29.3639 Y16.4014 
G01 X29.1882 Y16.3118 
G01 X29.0286 Y16.1959 
G01 X28.8891 Y16.0564 
G01 X28.7732 Y15.8968 
G01 X28.6836 Y15.7211 
G01 X28.6227 Y15.5335 
G01 X28.5918 Y15.3386 
G01 X28.5918 Y15.1414 
G01 X28.6227 Y14.9465 
G01 X28.6836 Y14.7589 
G01 X28.7732 Y14.5832 
G01 X28.8891 Y14.4236 
G00 Z2.0000  
G00 X28.8891 Y16.9636 
G01 Z-0.1500 F200   
G01 X29.0286 Y16.8241 F350   
G01 X29.1882 Y16.7082 
G01 X29.3639 Y16.6186 
G01 X29.5515 Y16.5577 
G01 X29.7464 Y16.5268 
G01 X29.9436 Y16.5268 
G01 X30.1385 Y16.5577 
G01 X30.3261 Y16.6186 
G01 X30.5018 Y16.7082 
G01 X30.6614 Y16.8241 
G01 X30.8009 Y16.9636 
G01 X30.9168 Y17.1232 
G01 X31.0064 Y17.2989 
G01 X31.0673 Y17.4865 
G01 X31.0982 Y17.6814 
G01 X31.0982 Y17.8786 
G01 X31.0673 Y18.0735 
G01 X31.0064 Y18.2611 
G01 X30.9168 Y18.4368 
G01 X30.8009 Y18.5964 
G01 X30.6614 Y18.7359 
G01 X30.5018 Y18.8518 
G01 X30.3261 Y18.9414 
G01 X30.1385 Y19.0023 
G01 X29.9436 Y19.0332 
G01 X29.7464 Y19.0332 
G01 X29.5515 Y19.0023 
G01 X29.3639 Y18.9414 
G01 X29.1882 Y18.8518 
G01 X29.0286 Y18.7359 
G01 X28.8891 Y18.5964 
G01 X28.7732 Y18.4368 
G01 X28.6836 Y18.2611 
G01 X28.6227 Y18.0735 
G01 X28.5918 Y17.8786 
G01 X28.5918 Y17.6814 
G01 X28.6227 Y17.4865 
G01 X28.6836 Y17.2989 
G01 X28.7732 Y17.1232 
G01 X28.8891 Y16.9636 
G00 Z2.0000  
G00 X27.4864 Y20.6341 
G01 Z-0.1500 F200   
G01 X27.6259 Y20.7736 F350   
G01 X27.7418 Y20.9332 
G01 X27.8314 Y21.1089 
G01 X27.8923 Y21.2965 
G01 X27.9232 Y21.4914 
G01 X27.9232 Y21.6886 
G01 X27.8923 Y21.8835 
G01 X27.8314 Y22.0711 
G01 X27.7418 Y22.2468 
G01 X27.6259 Y22.4064 
G01 X27.4864 Y22.5459 
G01 X27.3268 Y22.6618 
G01 X27.1511 Y22.7514 
G01 X26.9635 Y22.8123 
G01 X26.7686 Y22.8432 
G01 X26.5714 Y22.8432 
G01 X26.3765 Y22.8123 
G01 X26.1889 Y22.7514 
G01 X26.0132 Y22.6618 
G01 X25.8536 Y22.5459 
G01 X25.7141 Y22.4064 
G01 X25.5982 Y22.2468 
G01 X25.5086 Y22.0711 
G01 X25.4477 Y21.8835 
G01 X25.4168 Y21.6886 
G01 X25.4168 Y21.4914 
G01 X25.4477 Y21.2965 
G01 X25.5086 Y21.1089 
G01 X25.5982 Y20.9332 
G01 X25.7141 Y20.7736 
G01 X25.8536 Y20.6341 
G01 X26.0132 Y20.5182 
G01 X26.1889 Y20.4286 
G01 X26.3765 Y20.3677 
G01 X26.5714 Y20.3368 
G01 X26.7686 Y20.3368 
G01 X26.9635 Y20.3677 
G01 X27.1511 Y20.4286 
G01 X27.3268 Y20.5182 
G01 X27.4864 Y20.6341 
G00 Z2.0000  
G00 X27.6096 Y23.8459 
G01 Z-0.1500 F200   
G01 X27.8289 Y23.8112 F350   
G01 X28.0510 Y23.8112 
G01 X28.2704 Y23.8459 
G01 X28.4816 Y23.9146 
G01 X28.6795 Y24.0154 
G01 X28.8592 Y24.1459 
G01 X29.0162 Y24.3030 
G01 X29.1468 Y24.4827 
G01 X29.2476 Y24.6806 
G01 X29.3163 Y24.8918 
G01 X29.3510 Y25.1111 
G01 X29.3510 Y25.3332 
G01 X29.3163 Y25.5526 
G01 X29.2476 Y25.7638 
G01 X29.1468 Y25.9617 
G01 X29.0162 Y26.1414 
G01 X28.8592 Y26.2984 
G01 X28.6795 Y26.4290 
G01 X28.4816 Y26.5298 
G01 X28.2704 Y26.5985 
G01 X28.0510 Y26.6332 
G01 X27.8289 Y26.6332 
G01 X27.6096 Y26.5985 
G01 X27.3984 Y26.5298 
G01 X27.2005 Y26.4290 
G01 X27.0208 Y26.2984 
G01 X26.8637 Y26.1414 
G01 X26.7332 Y25.9617 
G01 X26.6324 Y25.7638 
G01 X26.5637 Y25.5526 
G01 X26.5290 Y25.3332 
G01 X26.5290 Y25.1111 
G01 X26.5637 Y24.8918 
G01 X26.6324 Y24.6806 
G01 X26.7332 Y24.4827 
G01 X26.8637 Y24.3030 
G01 X27.0208 Y24.1459 
G01 X27.2005 Y24.0154 
G01 X27.3984 Y23.9146 
G01 X27.6096 Y23.8459 
G00 Z2.0000  
G00 X27.6096 Y26.7415 
G01 Z-0.1500 F200   
G01 X27.8289 Y26.7068 F350   
G01 X28.0510 Y26.7068 
G01 X28.2704 Y26.7415 
G01 X28.4816 Y26.8102 
G01 X28.6795 Y26.9110 
G01 X28.8592 Y27.0416 
G01 X29.0162 Y27.1986 
G01 X29.1468 Y27.3783 
G01 X29.2476 Y27.5762 
G01 X29.3163 Y27.7874 
G01 X29.3510 Y28.0068 
G01 X29.3510 Y28.2288 
G01 X29.3163 Y28.4482 
G01 X29.2476 Y28.6594 
G01 X29.1468 Y28.8573 
G01 X29.0162 Y29.0370 
G01 X28.8592 Y29.1940 
G01 X28.6795 Y29.3246 
G01 X28.4816 Y29.4254 
G01 X28.2704 Y29.4941 
G01 X28.0510 Y29.5288 
G01 X27.8289 Y29.5288 
G01 X27.6096 Y29.4941 
G01 X27.3984 Y29.4254 
G01 X27.2005 Y29.3246 
G01 X27.0208 Y29.1940 
G01 X26.8637 Y29.0370 
G01 X26.7332 Y28.8573 
G01 X26.6324 Y28.6594 
G01 X26.5637 Y28.4482 
G01 X26.5290 Y28.2288 
G01 X26.5290 Y28.0068 
G01 X26.5637 Y27.7874 
G01 X26.6324 Y27.5762 
G01 X26.7332 Y27.3783 
G01 X26.8637 Y27.1986 
G01 X27.0208 Y27.0416 
G01 X27.2005 Y26.9110 
G01 X27.3984 Y26.8102 
G01 X27.6096 Y26.7415 
G00 Z2.0000  
G00 X27.6465 Y30.5277 
G01 Z-0.1500 F200   
G01 X27.8414 Y30.4968 F350   
G01 X28.0386 Y30.4968 
G01 X28.2335 Y30.5277 
G01 X28.4211 Y30.5886 
G01 X28.5968 Y30.6782 
G01 X28.7564 Y30.7941 
G01 X28.8959 Y30.9336 
G01 X29.0118 Y31.0932 
G01 X29.1014 Y31.2689 
G01 X29.1623 Y31.4565 
G01 X29.1932 Y31.6514 
G01 X29.1932 Y31.8486 
G01 X29.1623 Y32.0435 
G01 X29.1014 Y32.2311 
G01 X29.0118 Y32.4068 
G01 X28.8959 Y32.5664 
G01 X28.7564 Y32.7059 
G01 X28.5968 Y32.8218 
G01 X28.4211 Y32.9114 
G01 X28.2335 Y32.9723 
G01 X28.0386 Y33.0032 
G01 X27.8414 Y33.0032 
G01 X27.6465 Y32.9723 
G01 X27.4589 Y32.9114 
G01 X27.2832 Y32.8218 
G01 X27.1236 Y32.7059 
G01 X26.9841 Y32.5664 
G01 X26.8682 Y32.4068 
G01 X26.7786 Y32.2311 
G01 X26.7177 Y32.0435 
G01 X26.6868 Y31.8486 
G01 X26.6868 Y31.6514 
G01 X26.7177 Y31.4565 
G01 X26.7786 Y31.2689 
G01 X26.8682 Y31.0932 
G01 X26.9841 Y30.9336 
G01 X27.1236 Y30.7941 
G01 X27.2832 Y30.6782 
G01 X27.4589 Y30.5886 
G01 X27.6465 Y30.5277 
G00 Z2.0000  
G00 X27.6465 Y33.0677 
G01 Z-0.1500 F200   
G01 X27.8414 Y33.0368 F350   
G01 X28.0386 Y33.0368 
G01 X28.2335 Y33.0677 
G01 X28.4211 Y33.1286 
G01 X28.5968 Y33.2182 
G01 X28.7564 Y33.3341 
G01 X28.8959 Y33.4736 
G01 X29.0118 Y33.6332 
G01 X29.1014 Y33.8089 
G01 X29.1623 Y33.9965 
G01 X29.1932 Y34.1914 
G01 X29.1932 Y34.3886 
G01 X29.1623 Y34.5835 
G01 X29.1014 Y34.7711 
G01 X29.0118 Y34.9468 
G01 X28.8959 Y35.1064 
G01 X28.7564 Y35.2459 
G01 X28.5968 Y35.3618 
G01 X28.4211 Y35.4514 
G01 X28.2335 Y35.5123 
G01 X28.0386 Y35.5432 
G01 X27.8414 Y35.5432 
G01 X27.6465 Y35.5123 
G01 X27.4589 Y35.4514 
G01 X27.2832 Y35.3618 
G01 X27.1236 Y35.2459 
G01 X26.9841 Y35.1064 
G01 X26.8682 Y34.9468 
G01 X26.7786 Y34.7711 
G01 X26.7177 Y34.5835 
G01 X26.6868 Y34.3886 
G01 X26.6868 Y34.1914 
G01 X26.7177 Y33.9965 
G01 X26.7786 Y33.8089 
G01 X26.8682 Y33.6332 
G01 X26.9841 Y33.4736 
G01 X27.1236 Y33.3341 
G01 X27.2832 Y33.2182 
G01 X27.4589 Y33.1286 
G01 X27.6465 Y33.0677 
G00 Z2.0000  
G00 X27.6465 Y35.6077 
G01 Z-0.1500 F200   
G01 X27.8414 Y35.5768 F350   
G01 X28.0386 Y35.5768 
G01 X28.2335 Y35.6077 
G01 X28.4211 Y35.6686 
G01 X28.5968 Y35.7582 
G01 X28.7564 Y35.8741 
G01 X28.8959 Y36.0136 
G01 X29.0118 Y36.1732 
G01 X29.1014 Y36.3489 
G01 X29.1623 Y36.5365 
G01 X29.1932 Y36.7314 
G01 X29.1932 Y36.9286 
G01 X29.1623 Y37.1235 
G01 X29.1014 Y37.3111 
G01 X29.0118 Y37.4868 
G01 X28.8959 Y37.6464 
G01 X28.7564 Y37.7859 
G01 X28.5968 Y37.9018 
G01 X28.4211 Y37.9914 
G01 X28.2335 Y38.0523 
G01 X28.0386 Y38.0832 
G01 X27.8414 Y38.0832 
G01 X27.6465 Y38.0523 
G01 X27.4589 Y37.9914 
G01 X27.2832 Y37.9018 
G01 X27.1236 Y37.7859 
G01 X26.9841 Y37.6464 
G01 X26.8682 Y37.4868 
G01 X26.7786 Y37.3111 
G01 X26.7177 Y37.1235 
G01 X26.6868 Y36.9286 
G01 X26.6868 Y36.7314 
G01 X26.7177 Y36.5365 
G01 X26.7786 Y36.3489 
G01 X26.8682 Y36.1732 
G01 X26.9841 Y36.0136 
G01 X27.1236 Y35.8741 
G01 X27.2832 Y35.7582 
G01 X27.4589 Y35.6686 
G01 X27.6465 Y35.6077 
G00 Z2.0000  
G00 X25.2270 Y47.1838 
G01 Z-0.1500 F200   
G01 X25.3840 Y47.3408 F350   
G01 X25.5146 Y47.5205 
G01 X25.6154 Y47.7184 
G01 X25.6841 Y47.9296 
G01 X25.7188 Y48.1489 
G01 X25.7188 Y48.3710 
G01 X25.6841 Y48.5904 
G01 X25.6154 Y48.8016 
G01 X25.5146 Y48.9995 
G01 X25.3840 Y49.1792 
G01 X25.2270 Y49.3362 
G01 X25.0473 Y49.4668 
G01 X24.8494 Y49.5676 
G01 X24.6382 Y49.6363 
G01 X24.4188 Y49.6710 
G01 X24.1968 Y49.6710 
G01 X23.9774 Y49.6363 
G01 X23.7662 Y49.5676 
G01 X23.5683 Y49.4668 
G01 X23.3886 Y49.3362 
G01 X23.2315 Y49.1792 
G01 X23.1010 Y48.9995 
G01 X23.0002 Y48.8016 
G01 X22.9315 Y48.5904 
G01 X22.8968 Y48.3710 
G01 X22.8968 Y48.1489 
G01 X22.9315 Y47.9296 
G01 X23.0002 Y47.7184 
G01 X23.1010 Y47.5205 
G01 X23.2315 Y47.3408 
G01 X23.3886 Y47.1838 
G01 X23.5683 Y47.0532 
G01 X23.7662 Y46.9524 
G01 X23.9774 Y46.8837 
G01 X24.1968 Y46.8490 
G01 X24.4188 Y46.8490 
G01 X24.6382 Y46.8837 
G01 X24.8494 Y46.9524 
G01 X25.0473 Y47.0532 
G01 X25.2270 Y47.1838 
G00 Z2.0000  
G00 X22.3314 Y47.1838 
G01 Z-0.1500 F200   
G01 X22.4884 Y47.3408 F350   
G01 X22.6190 Y47.5205 
G01 X22.7198 Y47.7184 
G01 X22.7885 Y47.9296 
G01 X22.8232 Y48.1489 
G01 X22.8232 Y48.3710 
G01 X22.7885 Y48.5904 
G01 X22.7198 Y48.8016 
G01 X22.6190 Y48.9995 
G01 X22.4884 Y49.1792 
G01 X22.3314 Y49.3362 
G01 X22.1517 Y49.4668 
G01 X21.9538 Y49.5676 
G01 X21.7426 Y49.6363 
G01 X21.5232 Y49.6710 
G01 X21.3011 Y49.6710 
G01 X21.0818 Y49.6363 
G01 X20.8706 Y49.5676 
G01 X20.6727 Y49.4668 
G01 X20.4930 Y49.3362 
G01 X20.3360 Y49.1792 
G01 X20.2054 Y48.9995 
G01 X20.1046 Y48.8016 
G01 X20.0359 Y48.5904 
G01 X20.0012 Y48.3710 
G01 X20.0012 Y48.1489 
G01 X20.0359 Y47.9296 
G01 X20.1046 Y47.7184 
G01 X20.2054 Y47.5205 
G01 X20.3360 Y47.3408 
G01 X20.4930 Y47.1838 
G01 X20.6727 Y47.0532 
G01 X20.8706 Y46.9524 
G01 X21.0818 Y46.8837 
G01 X21.3011 Y46.8490 
G01 X21.5232 Y46.8490 
G01 X21.7426 Y46.8837 
G01 X21.9538 Y46.9524 
G01 X22.1517 Y47.0532 
G01 X22.3314 Y47.1838 
G00 Z2.0000  
G00 X5.5212  Y41.1020 
G01 Z-0.1500 F200   
G01 X5.3642  Y41.2590 F350   
G01 X5.1845  Y41.3896 
G01 X4.9866  Y41.4904 
G01 X4.7754  Y41.5591 
G01 X4.5560  Y41.5938 
G01 X4.3339  Y41.5938 
G01 X4.1146  Y41.5591 
G01 X3.9034  Y41.4904 
G01 X3.7055  Y41.3896 
G01 X3.5258  Y41.2590 
G01 X3.3687  Y41.1020 
G01 X3.2382  Y40.9223 
G01 X3.1374  Y40.7244 
G01 X3.0687  Y40.5132 
G01 X3.0340  Y40.2938 
G01 X3.0340  Y40.0718 
G01 X3.0687  Y39.8524 
G01 X3.1374  Y39.6412 
G01 X3.2382  Y39.4433 
G01 X3.3687  Y39.2636 
G01 X3.5258  Y39.1065 
G01 X3.7055  Y38.9760 
G01 X3.9034  Y38.8752 
G01 X4.1146  Y38.8065 
G01 X4.3339  Y38.7718 
G01 X4.5560  Y38.7718 
G01 X4.7754  Y38.8065 
G01 X4.9866  Y38.8752 
G01 X5.1845  Y38.9760 
G01 X5.3642  Y39.1065 
G01 X5.5212  Y39.2636 
G01 X5.6518  Y39.4433 
G01 X5.7526  Y39.6412 
G01 X5.8213  Y39.8524 
G01 X5.8560  Y40.0718 
G01 X5.8560  Y40.2938 
G01 X5.8213  Y40.5132 
G01 X5.7526  Y40.7244 
G01 X5.6518  Y40.9223 
G01 X5.5212  Y41.1020 
G00 Z2.0000  
G00 X5.5212  Y38.2064 
G01 Z-0.1500 F200   
G01 X5.3642  Y38.3634 F350   
G01 X5.1845  Y38.4940 
G01 X4.9866  Y38.5948 
G01 X4.7754  Y38.6635 
G01 X4.5560  Y38.6982 
G01 X4.3339  Y38.6982 
G01 X4.1146  Y38.6635 
G01 X3.9034  Y38.5948 
G01 X3.7055  Y38.4940 
G01 X3.5258  Y38.3634 
G01 X3.3687  Y38.2064 
G01 X3.2382  Y38.0267 
G01 X3.1374  Y37.8288 
G01 X3.0687  Y37.6176 
G01 X3.0340  Y37.3982 
G01 X3.0340  Y37.1761 
G01 X3.0687  Y36.9568 
G01 X3.1374  Y36.7456 
G01 X3.2382  Y36.5477 
G01 X3.3687  Y36.3680 
G01 X3.5258  Y36.2109 
G01 X3.7055  Y36.0804 
G01 X3.9034  Y35.9796 
G01 X4.1146  Y35.9109 
G01 X4.3339  Y35.8762 
G01 X4.5560  Y35.8762 
G01 X4.7754  Y35.9109 
G01 X4.9866  Y35.9796 
G01 X5.1845  Y36.0804 
G01 X5.3642  Y36.2109 
G01 X5.5212  Y36.3680 
G01 X5.6518  Y36.5477 
G01 X5.7526  Y36.7456 
G01 X5.8213  Y36.9568 
G01 X5.8560  Y37.1761 
G01 X5.8560  Y37.3982 
G01 X5.8213  Y37.6176 
G01 X5.7526  Y37.8288 
G01 X5.6518  Y38.0267 
G01 X5.5212  Y38.2064 
G00 Z2.0000  
G00 X33.4736 Y22.5459 
G01 Z-0.1500 F200   
G01 X33.3341 Y22.4064 F350   
G01 X33.2182 Y22.2468 
G01 X33.1286 Y22.0711 
G01 X33.0677 Y21.8835 
G01 X33.0368 Y21.6886 
G01 X33.0368 Y21.4914 
G01 X33.0677 Y21.2965 
G01 X33.1286 Y21.1089 
G01 X33.2182 Y20.9332 
G01 X33.3341 Y20.7736 
G01 X33.4736 Y20.6341 
G01 X33.6332 Y20.5182 
G01 X33.8089 Y20.4286 
G01 X33.9965 Y20.3677 
G01 X34.1914 Y20.3368 
G01 X34.3886 Y20.3368 
G01 X34.5835 Y20.3677 
G01 X34.7711 Y20.4286 
G01 X34.9468 Y20.5182 
G01 X35.1064 Y20.6341 
G01 X35.2459 Y20.7736 
G01 X35.3618 Y20.9332 
G01 X35.4514 Y21.1089 
G01 X35.5123 Y21.2965 
G01 X35.5432 Y21.4914 
G01 X35.5432 Y21.6886 
G01 X35.5123 Y21.8835 
G01 X35.4514 Y22.0711 
G01 X35.3618 Y22.2468 
G01 X35.2459 Y22.4064 
G01 X35.1064 Y22.5459 
G01 X34.9468 Y22.6618 
G01 X34.7711 Y22.7514 
G01 X34.5835 Y22.8123 
G01 X34.3886 Y22.8432 
G01 X34.1914 Y22.8432 
G01 X33.9965 Y22.8123 
G01 X33.8089 Y22.7514 
G01 X33.6332 Y22.6618 
G01 X33.4736 Y22.5459 
G00 Z2.0000  
G00 X6.9043  Y3.8322  
G01 Z-0.1500 F200   
G01 X7.0326  Y3.7039  F350   
G01 X7.1836  Y3.6031  
G01 X7.3512  Y3.5336  
G01 X7.5292  Y3.4982  
G01 X7.7107  Y3.4982  
G01 X7.8888  Y3.5336  
G01 X8.0564  Y3.6031  
G01 X8.2074  Y3.7039  
G01 X8.3357  Y3.8322  
G01 X8.4365  Y3.9832  
G01 X8.5060  Y4.1508  
G01 X8.5414  Y4.3288  
G01 X8.5414  Y5.8312  
G01 X8.5060  Y6.0092  
G01 X8.4365  Y6.1768  
G01 X8.3357  Y6.3278  
G01 X8.2074  Y6.4561  
G01 X8.0564  Y6.5569  
G01 X7.8888  Y6.6264  
G01 X7.7107  Y6.6618  
G01 X7.5292  Y6.6618  
G01 X7.3512  Y6.6264  
G01 X7.1836  Y6.5569  
G01 X7.0326  Y6.4561  
G01 X6.9043  Y6.3278  
G01 X6.8035  Y6.1768  
G01 X6.7340  Y6.0092  
G01 X6.6986  Y5.8312  
G01 X6.6986  Y4.3288  
G01 X6.7340  Y4.1508  
G01 X6.8035  Y3.9832  
G01 X6.9043  Y3.8322  
G00 Z2.0000  
G00 X9.4443  Y3.8322  
G01 Z-0.1500 F200   
G01 X9.5726  Y3.7039  F350   
G01 X9.7236  Y3.6031  
G01 X9.8912  Y3.5336  
G01 X10.0692 Y3.4982  
G01 X10.2508 Y3.4982  
G01 X10.4288 Y3.5336  
G01 X10.5964 Y3.6031  
G01 X10.7474 Y3.7039  
G01 X10.8757 Y3.8322  
G01 X10.9765 Y3.9832  
G01 X11.0460 Y4.1508  
G01 X11.0814 Y4.3288  
G01 X11.0814 Y5.8312  
G01 X11.0460 Y6.0092  
G01 X10.9765 Y6.1768  
G01 X10.8757 Y6.3278  
G01 X10.7474 Y6.4561  
G01 X10.5964 Y6.5569  
G01 X10.4288 Y6.6264  
G01 X10.2508 Y6.6618  
G01 X10.0692 Y6.6618  
G01 X9.8912  Y6.6264  
G01 X9.7236  Y6.5569  
G01 X9.5726  Y6.4561  
G01 X9.4443  Y6.3278  
G01 X9.3435  Y6.1768  
G01 X9.2740  Y6.0092  
G01 X9.2386  Y5.8312  
G01 X9.2386  Y4.3288  
G01 X9.2740  Y4.1508  
G01 X9.3435  Y3.9832  
G01 X9.4443  Y3.8322  
G00 Z2.0000  
G00 X11.9843 Y3.8322  
G01 Z-0.1500 F200   
G01 X12.1126 Y3.7039  F350   
G01 X12.2636 Y3.6031  
G01 X12.4312 Y3.5336  
G01 X12.6092 Y3.4982  
G01 X12.7907 Y3.4982  
G01 X12.9688 Y3.5336  
G01 X13.1364 Y3.6031  
G01 X13.2874 Y3.7039  
G01 X13.4157 Y3.8322  
G01 X13.5165 Y3.9832  
G01 X13.5860 Y4.1508  
G01 X13.6214 Y4.3288  
G01 X13.6214 Y5.8312  
G01 X13.5860 Y6.0092  
G01 X13.5165 Y6.1768  
G01 X13.4157 Y6.3278  
G01 X13.2874 Y6.4561  
G01 X13.1364 Y6.5569  
G01 X12.9688 Y6.6264  
G01 X12.7907 Y6.6618  
G01 X12.6092 Y6.6618  
G01 X12.4312 Y6.6264  
G01 X12.2636 Y6.5569  
G01 X12.1126 Y6.4561  
G01 X11.9843 Y6.3278  
G01 X11.8835 Y6.1768  
G01 X11.8140 Y6.0092  
G01 X11.7786 Y5.8312  
G01 X11.7786 Y4.3288  
G01 X11.8140 Y4.1508  
G01 X11.8835 Y3.9832  
G01 X11.9843 Y3.8322  
G00 Z2.0000  
G00 X14.5243 Y3.8322  
G01 Z-0.1500 F200   
G01 X14.6526 Y3.7039  F350   
G01 X14.8036 Y3.6031  
G01 X14.9712 Y3.5336  
G01 X15.1492 Y3.4982  
G01 X15.3308 Y3.4982  
G01 X15.5088 Y3.5336  
G01 X15.6764 Y3.6031  
G01 X15.8274 Y3.7039  
G01 X15.9557 Y3.8322  
G01 X16.0565 Y3.9832  
G01 X16.1260 Y4.1508  
G01 X16.1614 Y4.3288  
G01 X16.1614 Y5.8312  
G01 X16.1260 Y6.0092  
G01 X16.0565 Y6.1768  
G01 X15.9557 Y6.3278  
G01 X15.8274 Y6.4561  
G01 X15.6764 Y6.5569  
G01 X15.5088 Y6.6264  
G01 X15.3308 Y6.6618  
G01 X15.1492 Y6.6618  
G01 X14.9712 Y6.6264  
G01 X14.8036 Y6.5569  
G01 X14.6526 Y6.4561  
G01 X14.5243 Y6.3278  
G01 X14.4235 Y6.1768  
G01 X14.3540 Y6.0092  
G01 X14.3186 Y5.8312  
G01 X14.3186 Y4.3288  
G01 X14.3540 Y4.1508  
G01 X14.4235 Y3.9832  
G01 X14.5243 Y3.8322  
G00 Z2.0000  
G00 X17.0643 Y3.8322  
G01 Z-0.1500 F200   
G01 X17.1926 Y3.7039  F350   
G01 X17.3436 Y3.6031  
G01 X17.5112 Y3.5336  
G01 X17.6892 Y3.4982  
G01 X17.8708 Y3.4982  
G01 X18.0488 Y3.5336  
G01 X18.2164 Y3.6031  
G01 X18.3674 Y3.7039  
G01 X18.4957 Y3.8322  
G01 X18.5965 Y3.9832  
G01 X18.6660 Y4.1508  
G01 X18.7014 Y4.3288  
G01 X18.7014 Y5.8312  
G01 X18.6660 Y6.0092  
G01 X18.5965 Y6.1768  
G01 X18.4957 Y6.3278  
G01 X18.3674 Y6.4561  
G01 X18.2164 Y6.5569  
G01 X18.0488 Y6.6264  
G01 X17.8708 Y6.6618  
G01 X17.6892 Y6.6618  
G01 X17.5112 Y6.6264  
G01 X17.3436 Y6.5569  
G01 X17.1926 Y6.4561  
G01 X17.0643 Y6.3278  
G01 X16.9635 Y6.1768  
G01 X16.8940 Y6.0092  
G01 X16.8586 Y5.8312  
G01 X16.8586 Y4.3288  
G01 X16.8940 Y4.1508  
G01 X16.9635 Y3.9832  
G01 X17.0643 Y3.8322  
G00 Z2.0000  
G00 X19.6043 Y3.8322  
G01 Z-0.1500 F200   
G01 X19.7326 Y3.7039  F350   
G01 X19.8836 Y3.6031  
G01 X20.0512 Y3.5336  
G01 X20.2292 Y3.4982  
G01 X20.4108 Y3.4982  
G01 X20.5888 Y3.5336  
G01 X20.7564 Y3.6031  
G01 X20.9074 Y3.7039  
G01 X21.0357 Y3.8322  
G01 X21.1365 Y3.9832  
G01 X21.2060 Y4.1508  
G01 X21.2414 Y4.3288  
G01 X21.2414 Y5.8312  
G01 X21.2060 Y6.0092  
G01 X21.1365 Y6.1768  
G01 X21.0357 Y6.3278  
G01 X20.9074 Y6.4561  
G01 X20.7564 Y6.5569  
G01 X20.5888 Y6.6264  
G01 X20.4108 Y6.6618  
G01 X20.2292 Y6.6618  
G01 X20.0512 Y6.6264  
G01 X19.8836 Y6.5569  
G01 X19.7326 Y6.4561  
G01 X19.6043 Y6.3278  
G01 X19.5035 Y6.1768  
G01 X19.4340 Y6.0092  
G01 X19.3986 Y5.8312  
G01 X19.3986 Y4.3288  
G01 X19.4340 Y4.1508  
G01 X19.5035 Y3.9832  
G01 X19.6043 Y3.8322  
G00 Z2.0000  
G00 X22.1443 Y3.8322  
G01 Z-0.1500 F200   
G01 X22.2726 Y3.7039  F350   
G01 X22.4236 Y3.6031  
G01 X22.5912 Y3.5336  
G01 X22.7692 Y3.4982  
G01 X22.9507 Y3.4982  
G01 X23.1288 Y3.5336  
G01 X23.2964 Y3.6031  
G01 X23.4474 Y3.7039  
G01 X23.5757 Y3.8322  
G01 X23.6765 Y3.9832  
G01 X23.7460 Y4.1508  
G01 X23.7814 Y4.3288  
G01 X23.7814 Y5.8312  
G01 X23.7460 Y6.0092  
G01 X23.6765 Y6.1768  
G01 X23.5757 Y6.3278  
G01 X23.4474 Y6.4561  
G01 X23.2964 Y6.5569  
G01 X23.1288 Y6.6264  
G01 X22.9507 Y6.6618  
G01 X22.7692 Y6.6618  
G01 X22.5912 Y6.6264  
G01 X22.4236 Y6.5569  
G01 X22.2726 Y6.4561  
G01 X22.1443 Y6.3278  
G01 X22.0435 Y6.1768  
G01 X21.9740 Y6.0092  
G01 X21.9386 Y5.8312  
G01 X21.9386 Y4.3288  
G01 X21.9740 Y4.1508  
G01 X22.0435 Y3.9832  
G01 X22.1443 Y3.8322  
G00 Z2.0000  
G00 X27.2482 Y3.9964  
G01 Z-0.1500 F200   
G01 X27.4114 Y3.8332  F350   
G01 X27.5945 Y3.6926  
G01 X27.7945 Y3.5772  
G01 X28.0077 Y3.4889  
G01 X28.2307 Y3.4291  
G01 X28.4596 Y3.3990  
G01 X28.6904 Y3.3990  
G01 X28.9193 Y3.4291  
G01 X29.1423 Y3.4889  
G01 X29.3555 Y3.5772  
G01 X29.5555 Y3.6926  
G01 X29.7386 Y3.8332  
G01 X29.9018 Y3.9964  
G01 X30.0424 Y4.1795  
G01 X30.1578 Y4.3795  
G01 X30.2461 Y4.5927  
G01 X30.3059 Y4.8157  
G01 X30.3360 Y5.0446  
G01 X30.3360 Y5.2754  
G01 X30.3059 Y5.5043  
G01 X30.2461 Y5.7273  
G01 X30.1578 Y5.9405  
G01 X30.0424 Y6.1405  
G01 X29.9018 Y6.3236  
G01 X29.7386 Y6.4868  
G01 X29.5555 Y6.6274  
G01 X29.3555 Y6.7428  
G01 X29.1423 Y6.8311  
G01 X28.9193 Y6.8909  
G01 X28.6904 Y6.9210  
G01 X28.4596 Y6.9210  
G01 X28.2307 Y6.8909  
G01 X28.0077 Y6.8311  
G01 X27.7945 Y6.7428  
G01 X27.5945 Y6.6274  
G01 X27.4114 Y6.4868  
G01 X27.2482 Y6.3236  
G01 X27.1076 Y6.1405  
G01 X26.9922 Y5.9405  
G01 X26.9039 Y5.7273  
G01 X26.8441 Y5.5043  
G01 X26.8140 Y5.2754  
G01 X26.8140 Y5.0446  
G01 X26.8441 Y4.8157  
G01 X26.9039 Y4.5927  
G01 X26.9922 Y4.3795  
G01 X27.1076 Y4.1795  
G01 X27.2482 Y3.9964  
G00 Z2.0000  
G00 X27.2482 Y8.9964  
G01 Z-0.1500 F200   
G01 X27.4114 Y8.8332  F350   
G01 X27.5945 Y8.6926  
G01 X27.7945 Y8.5772  
G01 X28.0077 Y8.4889  
G01 X28.2307 Y8.4291  
G01 X28.4596 Y8.3990  
G01 X28.6904 Y8.3990  
G01 X28.9193 Y8.4291  
G01 X29.1423 Y8.4889  
G01 X29.3555 Y8.5772  
G01 X29.5555 Y8.6926  
G01 X29.7386 Y8.8332  
G01 X29.9018 Y8.9964  
G01 X30.0424 Y9.1795  
G01 X30.1578 Y9.3795  
G01 X30.2461 Y9.5927  
G01 X30.3059 Y9.8157  
G01 X30.3360 Y10.0446 
G01 X30.3360 Y10.2754 
G01 X30.3059 Y10.5043 
G01 X30.2461 Y10.7273 
G01 X30.1578 Y10.9405 
G01 X30.0424 Y11.1405 
G01 X29.9018 Y11.3236 
G01 X29.7386 Y11.4868 
G01 X29.5555 Y11.6274 
G01 X29.3555 Y11.7428 
G01 X29.1423 Y11.8311 
G01 X28.9193 Y11.8909 
G01 X28.6904 Y11.9210 
G01 X28.4596 Y11.9210 
G01 X28.2307 Y11.8909 
G01 X28.0077 Y11.8311 
G01 X27.7945 Y11.7428 
G01 X27.5945 Y11.6274 
G01 X27.4114 Y11.4868 
G01 X27.2482 Y11.3236 
G01 X27.1076 Y11.1405 
G01 X26.9922 Y10.9405 
G01 X26.9039 Y10.7273 
G01 X26.8441 Y10.5043 
G01 X26.8140 Y10.2754 
G01 X26.8140 Y10.0446 
G01 X26.8441 Y9.8157  
G01 X26.9039 Y9.5927  
G01 X26.9922 Y9.3795  
G01 X27.1076 Y9.1795  
G01 X27.2482 Y8.9964  
G00 Z2.0000  
G00 X23.4474 Y11.3239 
G01 Z-0.1500 F200   
G01 X23.5757 Y11.4522 F350   
G01 X23.6765 Y11.6032 
G01 X23.7460 Y11.7708 
G01 X23.7814 Y11.9488 
G01 X23.7814 Y13.4512 
G01 X23.7460 Y13.6292 
G01 X23.6765 Y13.7968 
G01 X23.5757 Y13.9478 
G01 X23.4474 Y14.0761 
G01 X23.2964 Y14.1769 
G01 X23.1288 Y14.2464 
G01 X22.9507 Y14.2818 
G01 X22.7692 Y14.2818 
G01 X22.5912 Y14.2464 
G01 X22.4236 Y14.1769 
G01 X22.2726 Y14.0761 
G01 X22.1443 Y13.9478 
G01 X22.0435 Y13.7968 
G01 X21.9740 Y13.6292 
G01 X21.9386 Y13.4512 
G01 X21.9386 Y11.9488 
G01 X21.9740 Y11.7708 
G01 X22.0435 Y11.6032 
G01 X22.1443 Y11.4522 
G01 X22.2726 Y11.3239 
G01 X22.4236 Y11.2231 
G01 X22.5912 Y11.1536 
G01 X22.7692 Y11.1182 
G01 X22.9507 Y11.1182 
G01 X23.1288 Y11.1536 
G01 X23.2964 Y11.2231 
G01 X23.4474 Y11.3239 
G00 Z2.0000  
G00 X20.9074 Y11.3239 
G01 Z-0.1500 F200   
G01 X21.0357 Y11.4522 F350   
G01 X21.1365 Y11.6032 
G01 X21.2060 Y11.7708 
G01 X21.2414 Y11.9488 
G01 X21.2414 Y13.4512 
G01 X21.2060 Y13.6292 
G01 X21.1365 Y13.7968 
G01 X21.0357 Y13.9478 
G01 X20.9074 Y14.0761 
G01 X20.7564 Y14.1769 
G01 X20.5888 Y14.2464 
G01 X20.4108 Y14.2818 
G01 X20.2292 Y14.2818 
G01 X20.0512 Y14.2464 
G01 X19.8836 Y14.1769 
G01 X19.7326 Y14.0761 
G01 X19.6043 Y13.9478 
G01 X19.5035 Y13.7968 
G01 X19.4340 Y13.6292 
G01 X19.3986 Y13.4512 
G01 X19.3986 Y11.9488 
G01 X19.4340 Y11.7708 
G01 X19.5035 Y11.6032 
G01 X19.6043 Y11.4522 
G01 X19.7326 Y11.3239 
G01 X19.8836 Y11.2231 
G01 X20.0512 Y11.1536 
G01 X20.2292 Y11.1182 
G01 X20.4108 Y11.1182 
G01 X20.5888 Y11.1536 
G01 X20.7564 Y11.2231 
G01 X20.9074 Y11.3239 
G00 Z2.0000  
G00 X18.3674 Y11.3239 
G01 Z-0.1500 F200   
G01 X18.4957 Y11.4522 F350   
G01 X18.5965 Y11.6032 
G01 X18.6660 Y11.7708 
G01 X18.7014 Y11.9488 
G01 X18.7014 Y13.4512 
G01 X18.6660 Y13.6292 
G01 X18.5965 Y13.7968 
G01 X18.4957 Y13.9478 
G01 X18.3674 Y14.0761 
G01 X18.2164 Y14.1769 
G01 X18.0488 Y14.2464 
G01 X17.8708 Y14.2818 
G01 X17.6892 Y14.2818 
G01 X17.5112 Y14.2464 
G01 X17.3436 Y14.1769 
G01 X17.1926 Y14.0761 
G01 X17.0643 Y13.9478 
G01 X16.9635 Y13.7968 
G01 X16.8940 Y13.6292 
G01 X16.8586 Y13.4512 
G01 X16.8586 Y11.9488 
G01 X16.8940 Y11.7708 
G01 X16.9635 Y11.6032 
G01 X17.0643 Y11.4522 
G01 X17.1926 Y11.3239 
G01 X17.3436 Y11.2231 
G01 X17.5112 Y11.1536 
G01 X17.6892 Y11.1182 
G01 X17.8708 Y11.1182 
G01 X18.0488 Y11.1536 
G01 X18.2164 Y11.2231 
G01 X18.3674 Y11.3239 
G00 Z2.0000  
G00 X15.8274 Y11.3239 
G01 Z-0.1500 F200   
G01 X15.9557 Y11.4522 F350   
G01 X16.0565 Y11.6032 
G01 X16.1260 Y11.7708 
G01 X16.1614 Y11.9488 
G01 X16.1614 Y13.4512 
G01 X16.1260 Y13.6292 
G01 X16.0565 Y13.7968 
G01 X15.9557 Y13.9478 
G01 X15.8274 Y14.0761 
G01 X15.6764 Y14.1769 
G01 X15.5088 Y14.2464 
G01 X15.3308 Y14.2818 
G01 X15.1492 Y14.2818 
G01 X14.9712 Y14.2464 
G01 X14.8036 Y14.1769 
G01 X14.6526 Y14.0761 
G01 X14.5243 Y13.9478 
G01 X14.4235 Y13.7968 
G01 X14.3540 Y13.6292 
G01 X14.3186 Y13.4512 
G01 X14.3186 Y11.9488 
G01 X14.3540 Y11.7708 
G01 X14.4235 Y11.6032 
G01 X14.5243 Y11.4522 
G01 X14.6526 Y11.3239 
G01 X14.8036 Y11.2231 
G01 X14.9712 Y11.1536 
G01 X15.1492 Y11.1182 
G01 X15.3308 Y11.1182 
G01 X15.5088 Y11.1536 
G01 X15.6764 Y11.2231 
G01 X15.8274 Y11.3239 
G00 Z2.0000  
G00 X13.2874 Y11.3239 
G01 Z-0.1500 F200   
G01 X13.4157 Y11.4522 F350   
G01 X13.5165 Y11.6032 
G01 X13.5860 Y11.7708 
G01 X13.6214 Y11.9488 
G01 X13.6214 Y13.4512 
G01 X13.5860 Y13.6292 
G01 X13.5165 Y13.7968 
G01 X13.4157 Y13.9478 
G01 X13.2874 Y14.0761 
G01 X13.1364 Y14.1769 
G01 X12.9688 Y14.2464 
G01 X12.7907 Y14.2818 
G01 X12.6092 Y14.2818 
G01 X12.4312 Y14.2464 
G01 X12.2636 Y14.1769 
G01 X12.1126 Y14.0761 
G01 X11.9843 Y13.9478 
G01 X11.8835 Y13.7968 
G01 X11.8140 Y13.6292 
G01 X11.7786 Y13.4512 
G01 X11.7786 Y11.9488 
G01 X11.8140 Y11.7708 
G01 X11.8835 Y11.6032 
G01 X11.9843 Y11.4522 
G01 X12.1126 Y11.3239 
G01 X12.2636 Y11.2231 
G01 X12.4312 Y11.1536 
G01 X12.6092 Y11.1182 
G01 X12.7907 Y11.1182 
G01 X12.9688 Y11.1536 
G01 X13.1364 Y11.2231 
G01 X13.2874 Y11.3239 
G00 Z2.0000  
G00 X10.7474 Y11.3239 
G01 Z-0.1500 F200   
G01 X10.8757 Y11.4522 F350   
G01 X10.9765 Y11.6032 
G01 X11.0460 Y11.7708 
G01 X11.0814 Y11.9488 
G01 X11.0814 Y13.4512 
G01 X11.0460 Y13.6292 
G01 X10.9765 Y13.7968 
G01 X10.8757 Y13.9478 
G01 X10.7474 Y14.0761 
G01 X10.5964 Y14.1769 
G01 X10.4288 Y14.2464 
G01 X10.2508 Y14.2818 
G01 X10.0692 Y14.2818 
G01 X9.8912  Y14.2464 
G01 X9.7236  Y14.1769 
G01 X9.5726  Y14.0761 
G01 X9.4443  Y13.9478 
G01 X9.3435  Y13.7968 
G01 X9.2740  Y13.6292 
G01 X9.2386  Y13.4512 
G01 X9.2386  Y11.9488 
G01 X9.2740  Y11.7708 
G01 X9.3435  Y11.6032 
G01 X9.4443  Y11.4522 
G01 X9.5726  Y11.3239 
G01 X9.7236  Y11.2231 
G01 X9.8912  Y11.1536 
G01 X10.0692 Y11.1182 
G01 X10.2508 Y11.1182 
G01 X10.4288 Y11.1536 
G01 X10.5964 Y11.2231 
G01 X10.7474 Y11.3239 
G00 Z2.0000  
G00 X8.2074  Y11.3239 
G01 Z-0.1500 F200   
G01 X8.3357  Y11.4522 F350   
G01 X8.4365  Y11.6032 
G01 X8.5060  Y11.7708 
G01 X8.5414  Y11.9488 
G01 X8.5414  Y13.4512 
G01 X8.5060  Y13.6292 
G01 X8.4365  Y13.7968 
G01 X8.3357  Y13.9478 
G01 X8.2074  Y14.0761 
G01 X8.0564  Y14.1769 
G01 X7.8888  Y14.2464 
G01 X7.7107  Y14.2818 
G01 X7.5292  Y14.2818 
G01 X7.3512  Y14.2464 
G01 X7.1836  Y14.1769 
G01 X7.0326  Y14.0761 
G01 X6.9043  Y13.9478 
G01 X6.8035  Y13.7968 
G01 X6.7340  Y13.6292 
G01 X6.6986  Y13.4512 
G01 X6.6986  Y11.9488 
G01 X6.7340  Y11.7708 
G01 X6.8035  Y11.6032 
G01 X6.9043  Y11.4522 
G01 X7.0326  Y11.3239 
G01 X7.1836  Y11.2231 
G01 X7.3512  Y11.1536 
G01 X7.5292  Y11.1182 
G01 X7.7107  Y11.1182 
G01 X7.8888  Y11.1536 
G01 X8.0564  Y11.2231 
G01 X8.2074  Y11.3239 
G00 Z2.0000  
G00 X28.8128 Y14.3584 
G01 Z-0.1500 F200   
G01 X28.9634 Y14.2078 F350   
G01 X29.1358 Y14.0826 
G01 X29.3255 Y13.9859 
G01 X29.5281 Y13.9201 
G01 X29.7385 Y13.8868 
G01 X29.9515 Y13.8868 
G01 X30.1619 Y13.9201 
G01 X30.3644 Y13.9859 
G01 X30.5542 Y14.0826 
G01 X30.7265 Y14.2078 
G01 X30.8772 Y14.3584 
G01 X31.0024 Y14.5308 
G01 X31.0991 Y14.7205 
G01 X31.1649 Y14.9231 
G01 X31.1982 Y15.1335 
G01 X31.1982 Y15.3465 
G01 X31.1649 Y15.5569 
G01 X31.0991 Y15.7594 
G01 X31.0024 Y15.9492 
G01 X30.8772 Y16.1215 
G01 X30.7265 Y16.2722 
G01 X30.5542 Y16.3974 
G01 X30.3644 Y16.4941 
G01 X30.3154 Y16.5100 
G01 X30.3644 Y16.5259 
G01 X30.5542 Y16.6226 
G01 X30.7265 Y16.7478 
G01 X30.8772 Y16.8984 
G01 X31.0024 Y17.0708 
G01 X31.0991 Y17.2605 
G01 X31.1649 Y17.4631 
G01 X31.1982 Y17.6735 
G01 X31.1982 Y17.8865 
G01 X31.1649 Y18.0969 
G01 X31.0991 Y18.2994 
G01 X31.0024 Y18.4892 
G01 X30.8772 Y18.6615 
G01 X30.7265 Y18.8122 
G01 X30.5542 Y18.9374 
G01 X30.3644 Y19.0341 
G01 X30.1619 Y19.0999 
G01 X29.9515 Y19.1332 
G01 X29.7385 Y19.1332 
G01 X29.5281 Y19.0999 
G01 X29.3255 Y19.0341 
G01 X29.1358 Y18.9374 
G01 X28.9634 Y18.8122 
G01 X28.8128 Y18.6615 
G01 X28.6876 Y18.4892 
G01 X28.5909 Y18.2994 
G01 X28.5251 Y18.0969 
G01 X28.4918 Y17.8865 
G01 X28.4918 Y17.6735 
G01 X28.5251 Y17.4631 
G01 X28.5909 Y17.2605 
G01 X28.6876 Y17.0708 
G01 X28.8128 Y16.8984 
G01 X28.9634 Y16.7478 
G01 X29.1358 Y16.6226 
G01 X29.3255 Y16.5259 
G01 X29.3746 Y16.5100 
G01 X29.3255 Y16.4941 
G01 X29.1358 Y16.3974 
G01 X28.9634 Y16.2722 
G01 X28.8128 Y16.1215 
G01 X28.6876 Y15.9492 
G01 X28.5909 Y15.7594 
G01 X28.5251 Y15.5569 
G01 X28.4918 Y15.3465 
G01 X28.4918 Y15.1335 
G01 X28.5251 Y14.9231 
G01 X28.5909 Y14.7205 
G01 X28.6876 Y14.5308 
G01 X28.8128 Y14.3584 
G00 Z2.0000  
G00 X27.5515 Y20.5578 
G01 Z-0.1500 F200   
G01 X27.7022 Y20.7084 F350   
G01 X27.8274 Y20.8808 
G01 X27.9241 Y21.0706 
G01 X27.9899 Y21.2731 
G01 X28.0232 Y21.4835 
G01 X28.0232 Y21.6965 
G01 X27.9899 Y21.9069 
G01 X27.9241 Y22.1094 
G01 X27.8274 Y22.2992 
G01 X27.7022 Y22.4716 
G01 X27.5515 Y22.6222 
G01 X27.3792 Y22.7474 
G01 X27.1894 Y22.8441 
G01 X26.9869 Y22.9099 
G01 X26.7765 Y22.9432 
G01 X26.5635 Y22.9432 
G01 X26.3531 Y22.9099 
G01 X26.1505 Y22.8441 
G01 X25.9608 Y22.7474 
G01 X25.7884 Y22.6222 
G01 X25.6378 Y22.4716 
G01 X25.5126 Y22.2992 
G01 X25.4159 Y22.1094 
G01 X25.3501 Y21.9069 
G01 X25.3168 Y21.6965 
G01 X25.3168 Y21.4835 
G01 X25.3501 Y21.2731 
G01 X25.4159 Y21.0706 
G01 X25.5126 Y20.8808 
G01 X25.6378 Y20.7084 
G01 X25.7884 Y20.5578 
G01 X25.9608 Y20.4326 
G01 X26.1505 Y20.3359 
G01 X26.3531 Y20.2701 
G01 X26.5635 Y20.2368 
G01 X26.7765 Y20.2368 
G01 X26.9869 Y20.2701 
G01 X27.1894 Y20.3359 
G01 X27.3792 Y20.4326 
G01 X27.5515 Y20.5578 
G00 Z2.0000  
G00 X27.5862 Y23.7484 
G01 Z-0.1500 F200   
G01 X27.8211 Y23.7112 F350   
G01 X28.0589 Y23.7112 
G01 X28.2938 Y23.7484 
G01 X28.5200 Y23.8219 
G01 X28.7319 Y23.9299 
G01 X28.9243 Y24.0697 
G01 X29.0925 Y24.2379 
G01 X29.2323 Y24.4303 
G01 X29.3403 Y24.6422 
G01 X29.4138 Y24.8684 
G01 X29.4510 Y25.1033 
G01 X29.4510 Y25.3411 
G01 X29.4138 Y25.5760 
G01 X29.3403 Y25.8022 
G01 X29.2323 Y26.0141 
G01 X29.0925 Y26.2065 
G01 X28.9243 Y26.3747 
G01 X28.7319 Y26.5145 
G01 X28.5200 Y26.6225 
G01 X28.3738 Y26.6700 
G01 X28.5200 Y26.7175 
G01 X28.7319 Y26.8255 
G01 X28.9243 Y26.9653 
G01 X29.0925 Y27.1334 
G01 X29.2323 Y27.3259 
G01 X29.3403 Y27.5378 
G01 X29.4138 Y27.7640 
G01 X29.4510 Y27.9989 
G01 X29.4510 Y28.2367 
G01 X29.4138 Y28.4716 
G01 X29.3403 Y28.6978 
G01 X29.2323 Y28.9097 
G01 X29.0925 Y29.1021 
G01 X28.9243 Y29.2703 
G01 X28.7319 Y29.4101 
G01 X28.5200 Y29.5181 
G01 X28.2938 Y29.5916 
G01 X28.0589 Y29.6288 
G01 X27.8211 Y29.6288 
G01 X27.5862 Y29.5916 
G01 X27.3600 Y29.5181 
G01 X27.1481 Y29.4101 
G01 X26.9556 Y29.2703 
G01 X26.7875 Y29.1021 
G01 X26.6477 Y28.9097 
G01 X26.5397 Y28.6978 
G01 X26.4662 Y28.4716 
G01 X26.4290 Y28.2367 
G01 X26.4290 Y27.9989 
G01 X26.4662 Y27.7640 
G01 X26.5397 Y27.5378 
G01 X26.6477 Y27.3259 
G01 X26.7875 Y27.1334 
G01 X26.9556 Y26.9653 
G01 X27.1481 Y26.8255 
G01 X27.3600 Y26.7175 
G01 X27.5062 Y26.6700 
G01 X27.3600 Y26.6225 
G01 X27.1481 Y26.5145 
G01 X26.9556 Y26.3747 
G01 X26.7875 Y26.2065 
G01 X26.6477 Y26.0141 
G01 X26.5397 Y25.8022 
G01 X26.4662 Y25.5760 
G01 X26.4290 Y25.3411 
G01 X26.4290 Y25.1033 
G01 X26.4662 Y24.8684 
G01 X26.5397 Y24.6422 
G01 X26.6477 Y24.4303 
G01 X26.7875 Y24.2379 
G01 X26.9556 Y24.0697 
G01 X27.1481 Y23.9299 
G01 X27.3600 Y23.8219 
G01 X27.5862 Y23.7484 
G00 Z2.0000  
G00 X27.6231 Y30.4301 
G01 Z-0.1500 F200   
G01 X27.8335 Y30.3968 F350   
G01 X28.0465 Y30.3968 
G01 X28.2569 Y30.4301 
G01 X28.4594 Y30.4959 
G01 X28.6492 Y30.5926 
G01 X28.8215 Y30.7178 
G01 X28.9722 Y30.8684 
G01 X29.0974 Y31.0408 
G01 X29.1941 Y31.2306 
G01 X29.2599 Y31.4331 
G01 X29.2932 Y31.6435 
G01 X29.2932 Y31.8565 
G01 X29.2599 Y32.0669 
G01 X29.1941 Y32.2694 
G01 X29.0974 Y32.4592 
G01 X28.9722 Y32.6315 
G01 X28.8215 Y32.7822 
G01 X28.6492 Y32.9074 
G01 X28.4594 Y33.0041 
G01 X28.4104 Y33.0200 
G01 X28.4594 Y33.0359 
G01 X28.6492 Y33.1326 
G01 X28.8215 Y33.2578 
G01 X28.9722 Y33.4084 
G01 X29.0974 Y33.5808 
G01 X29.1941 Y33.7706 
G01 X29.2599 Y33.9731 
G01 X29.2932 Y34.1835 
G01 X29.2932 Y34.3965 
G01 X29.2599 Y34.6069 
G01 X29.1941 Y34.8094 
G01 X29.0974 Y34.9992 
G01 X28.9722 Y35.1716 
G01 X28.8215 Y35.3222 
G01 X28.6492 Y35.4474 
G01 X28.4594 Y35.5441 
G01 X28.4104 Y35.5600 
G01 X28.4594 Y35.5759 
G01 X28.6492 Y35.6726 
G01 X28.8215 Y35.7978 
G01 X28.9722 Y35.9484 
G01 X29.0974 Y36.1208 
G01 X29.1941 Y36.3105 
G01 X29.2599 Y36.5131 
G01 X29.2932 Y36.7235 
G01 X29.2932 Y36.9365 
G01 X29.2599 Y37.1469 
G01 X29.1941 Y37.3494 
G01 X29.0974 Y37.5392 
G01 X28.9722 Y37.7116 
G01 X28.8215 Y37.8622 
G01 X28.6492 Y37.9874 
G01 X28.4594 Y38.0841 
G01 X28.2569 Y38.1499 
G01 X28.0465 Y38.1832 
G01 X27.8335 Y38.1832 
G01 X27.6231 Y38.1499 
G01 X27.4205 Y38.0841 
G01 X27.2308 Y37.9874 
G01 X27.0584 Y37.8622 
G01 X26.9078 Y37.7116 
G01 X26.7826 Y37.5392 
G01 X26.6859 Y37.3494 
G01 X26.6201 Y37.1469 
G01 X26.5868 Y36.9365 
G01 X26.5868 Y36.7235 
G01 X26.6201 Y36.5131 
G01 X26.6859 Y36.3105 
G01 X26.7826 Y36.1208 
G01 X26.9078 Y35.9484 
G01 X27.0584 Y35.7978 
G01 X27.2308 Y35.6726 
G01 X27.4205 Y35.5759 
G01 X27.4696 Y35.5600 
G01 X27.4205 Y35.5441 
G01 X27.2308 Y35.4474 
G01 X27.0584 Y35.3222 
G01 X26.9078 Y35.1716 
G01 X26.7826 Y34.9992 
G01 X26.6859 Y34.8094 
G01 X26.6201 Y34.6069 
G01 X26.5868 Y34.3965 
G01 X26.5868 Y34.1835 
G01 X26.6201 Y33.9731 
G01 X26.6859 Y33.7706 
G01 X26.7826 Y33.5808 
G01 X26.9078 Y33.4084 
G01 X27.0584 Y33.2578 
G01 X27.2308 Y33.1326 
G01 X27.4205 Y33.0359 
G01 X27.4696 Y33.0200 
G01 X27.4205 Y33.0041 
G01 X27.2308 Y32.9074 
G01 X27.0584 Y32.7822 
G01 X26.9078 Y32.6315 
G01 X26.7826 Y32.4592 
G01 X26.6859 Y32.2694 
G01 X26.6201 Y32.0669 
G01 X26.5868 Y31.8565 
G01 X26.5868 Y31.6435 
G01 X26.6201 Y31.4331 
G01 X26.6859 Y31.2306 
G01 X26.7826 Y31.0408 
G01 X26.9078 Y30.8684 
G01 X27.0584 Y30.7178 
G01 X27.2308 Y30.5926 
G01 X27.4205 Y30.4959 
G01 X27.6231 Y30.4301 
G00 Z2.0000  
G00 X33.4084 Y22.6222 
G01 Z-0.1500 F200   
G01 X33.2578 Y22.4716 F350   
G01 X33.1326 Y22.2992 
G01 X33.0359 Y22.1094 
G01 X32.9701 Y21.9069 
G01 X32.9368 Y21.6965 
G01 X32.9368 Y21.4835 
G01 X32.9701 Y21.2731 
G01 X33.0359 Y21.0706 
G01 X33.1326 Y20.8808 
G01 X33.2578 Y20.7084 
G01 X33.4084 Y20.5578 
G01 X33.5808 Y20.4326 
G01 X33.7706 Y20.3359 
G01 X33.9731 Y20.2701 
G01 X34.1835 Y20.2368 
G01 X34.3965 Y20.2368 
G01 X34.6069 Y20.2701 
G01 X34.8094 Y20.3359 
G01 X34.9992 Y20.4326 
G01 X35.1716 Y20.5578 
G01 X35.3222 Y20.7084 
G01 X35.4474 Y20.8808 
G01 X35.5441 Y21.0706 
G01 X35.6099 Y21.2731 
G01 X35.6432 Y21.4835 
G01 X35.6432 Y21.6965 
G01 X35.6099 Y21.9069 
G01 X35.5441 Y22.1094 
G01 X35.4474 Y22.2992 
G01 X35.3222 Y22.4716 
G01 X35.1716 Y22.6222 
G01 X34.9992 Y22.7474 
G01 X34.8094 Y22.8441 
G01 X34.6069 Y22.9099 
G01 X34.3965 Y22.9432 
G01 X34.1835 Y22.9432 
G01 X33.9731 Y22.9099 
G01 X33.7706 Y22.8441 
G01 X33.5808 Y22.7474 
G01 X33.4084 Y22.6222 
G00 Z2.0000  
G00 X25.2921 Y47.1075 
G01 Z-0.1500 F200   
G01 X25.4603 Y47.2756 F350   
G01 X25.6001 Y47.4681 
G01 X25.7081 Y47.6800 
G01 X25.7816 Y47.9062 
G01 X25.8188 Y48.1411 
G01 X25.8188 Y48.3789 
G01 X25.7816 Y48.6138 
G01 X25.7081 Y48.8400 
G01 X25.6001 Y49.0519 
G01 X25.4603 Y49.2443 
G01 X25.2921 Y49.4125 
G01 X25.0997 Y49.5523 
G01 X24.8878 Y49.6603 
G01 X24.6616 Y49.7338 
G01 X24.4267 Y49.7710 
G01 X24.1889 Y49.7710 
G01 X23.9540 Y49.7338 
G01 X23.7278 Y49.6603 
G01 X23.5159 Y49.5523 
G01 X23.3235 Y49.4125 
G01 X23.1553 Y49.2443 
G01 X23.0155 Y49.0519 
G01 X22.9075 Y48.8400 
G01 X22.8600 Y48.6938 
G01 X22.8125 Y48.8400 
G01 X22.7045 Y49.0519 
G01 X22.5647 Y49.2443 
G01 X22.3965 Y49.4125 
G01 X22.2041 Y49.5523 
G01 X21.9922 Y49.6603 
G01 X21.7660 Y49.7338 
G01 X21.5311 Y49.7710 
G01 X21.2933 Y49.7710 
G01 X21.0584 Y49.7338 
G01 X20.8322 Y49.6603 
G01 X20.6203 Y49.5523 
G01 X20.4278 Y49.4125 
G01 X20.2597 Y49.2443 
G01 X20.1199 Y49.0519 
G01 X20.0119 Y48.8400 
G01 X19.9384 Y48.6138 
G01 X19.9012 Y48.3789 
G01 X19.9012 Y48.1411 
G01 X19.9384 Y47.9062 
G01 X20.0119 Y47.6800 
G01 X20.1199 Y47.4681 
G01 X20.2597 Y47.2756 
G01 X20.4278 Y47.1075 
G01 X20.6203 Y46.9677 
G01 X20.8322 Y46.8597 
G01 X21.0584 Y46.7862 
G01 X21.2933 Y46.7490 
G01 X21.5311 Y46.7490 
G01 X21.7660 Y46.7862 
G01 X21.9922 Y46.8597 
G01 X22.2041 Y46.9677 
G01 X22.3965 Y47.1075 
G01 X22.5647 Y47.2756 
G01 X22.7045 Y47.4681 
G01 X22.8125 Y47.6800 
G01 X22.8600 Y47.8262 
G01 X22.9075 Y47.6800 
G01 X23.0155 Y47.4681 
G01 X23.1553 Y47.2756 
G01 X23.3235 Y47.1075 
G01 X23.5159 Y46.9677 
G01 X23.7278 Y46.8597 
G01 X23.9540 Y46.7862 
G01 X24.1889 Y46.7490 
G01 X24.4267 Y46.7490 
G01 X24.6616 Y46.7862 
G01 X24.8878 Y46.8597 
G01 X25.0997 Y46.9677 
G01 X25.2921 Y47.1075 
G00 Z2.0000  
G00 X5.5975  Y41.1671 
G01 Z-0.1500 F200   
G01 X5.4293  Y41.3353 F350   
G01 X5.2369  Y41.4751 
G01 X5.0250  Y41.5831 
G01 X4.7988  Y41.6566 
G01 X4.5639  Y41.6938 
G01 X4.3261  Y41.6938 
G01 X4.0912  Y41.6566 
G01 X3.8650  Y41.5831 
G01 X3.6531  Y41.4751 
G01 X3.4606  Y41.3353 
G01 X3.2925  Y41.1671 
G01 X3.1527  Y40.9747 
G01 X3.0447  Y40.7628 
G01 X2.9712  Y40.5366 
G01 X2.9340  Y40.3017 
G01 X2.9340  Y40.0639 
G01 X2.9712  Y39.8290 
G01 X3.0447  Y39.6028 
G01 X3.1527  Y39.3909 
G01 X3.2925  Y39.1985 
G01 X3.4606  Y39.0303 
G01 X3.6531  Y38.8905 
G01 X3.8650  Y38.7825 
G01 X4.0112  Y38.7350 
G01 X3.8650  Y38.6875 
G01 X3.6531  Y38.5795 
G01 X3.4606  Y38.4397 
G01 X3.2925  Y38.2715 
G01 X3.1527  Y38.0791 
G01 X3.0447  Y37.8672 
G01 X2.9712  Y37.6410 
G01 X2.9340  Y37.4061 
G01 X2.9340  Y37.1683 
G01 X2.9712  Y36.9334 
G01 X3.0447  Y36.7072 
G01 X3.1527  Y36.4953 
G01 X3.2925  Y36.3028 
G01 X3.4606  Y36.1347 
G01 X3.6531  Y35.9949 
G01 X3.8650  Y35.8869 
G01 X4.0912  Y35.8134 
G01 X4.3261  Y35.7762 
G01 X4.5639  Y35.7762 
G01 X4.7988  Y35.8134 
G01 X5.0250  Y35.8869 
G01 X5.2369  Y35.9949 
G01 X5.4293  Y36.1347 
G01 X5.5975  Y36.3028 
G01 X5.7373  Y36.4953 
G01 X5.8453  Y36.7072 
G01 X5.9188  Y36.9334 
G01 X5.9560  Y37.1683 
G01 X5.9560  Y37.4061 
G01 X5.9188  Y37.6410 
G01 X5.8453  Y37.8672 
G01 X5.7373  Y38.0791 
G01 X5.5975  Y38.2715 
G01 X5.4293  Y38.4397 
G01 X5.2369  Y38.5795 
G01 X5.0250  Y38.6875 
G01 X4.8788  Y38.7350 
G01 X5.0250  Y38.7825 
G01 X5.2369  Y38.8905 
G01 X5.4293  Y39.0303 
G01 X5.5975  Y39.1985 
G01 X5.7373  Y39.3909 
G01 X5.8453  Y39.6028 
G01 X5.9188  Y39.8290 
G01 X5.9560  Y40.0639 
G01 X5.9560  Y40.3017 
G01 X5.9188  Y40.5366 
G01 X5.8453  Y40.7628 
G01 X5.7373  Y40.9747 
G01 X5.5975  Y41.1671 
G00 Z2.0000  
G00 X6.8266  Y3.7685  
G01 Z-0.1500 F200   
G01 X6.9689  Y3.6262  F350   
G01 X7.1362  Y3.5144  
G01 X7.3221  Y3.4375  
G01 X7.5194  Y3.3982  
G01 X7.7206  Y3.3982  
G01 X7.9179  Y3.4375  
G01 X8.1038  Y3.5144  
G01 X8.2711  Y3.6262  
G01 X8.4134  Y3.7685  
G01 X8.5252  Y3.9358  
G01 X8.6021  Y4.1217  
G01 X8.6414  Y4.3190  
G01 X8.6414  Y5.8410  
G01 X8.6021  Y6.0383  
G01 X8.5252  Y6.2242  
G01 X8.4134  Y6.3915  
G01 X8.2711  Y6.5338  
G01 X8.1038  Y6.6456  
G01 X7.9179  Y6.7225  
G01 X7.7206  Y6.7618  
G01 X7.5194  Y6.7618  
G01 X7.3221  Y6.7225  
G01 X7.1362  Y6.6456  
G01 X6.9689  Y6.5338  
G01 X6.8266  Y6.3915  
G01 X6.7148  Y6.2242  
G01 X6.6379  Y6.0383  
G01 X6.5986  Y5.8410  
G01 X6.5986  Y4.3190  
G01 X6.6379  Y4.1217  
G01 X6.7148  Y3.9358  
G01 X6.8266  Y3.7685  
G00 Z2.0000  
G00 X9.3666  Y3.7685  
G01 Z-0.1500 F200   
G01 X9.5089  Y3.6262  F350   
G01 X9.6762  Y3.5144  
G01 X9.8621  Y3.4375  
G01 X10.0594 Y3.3982  
G01 X10.2606 Y3.3982  
G01 X10.4579 Y3.4375  
G01 X10.6438 Y3.5144  
G01 X10.8111 Y3.6262  
G01 X10.9534 Y3.7685  
G01 X11.0651 Y3.9358  
G01 X11.1421 Y4.1217  
G01 X11.1814 Y4.3190  
G01 X11.1814 Y5.8410  
G01 X11.1421 Y6.0383  
G01 X11.0651 Y6.2242  
G01 X10.9534 Y6.3915  
G01 X10.8111 Y6.5338  
G01 X10.6438 Y6.6456  
G01 X10.4579 Y6.7225  
G01 X10.2606 Y6.7618  
G01 X10.0594 Y6.7618  
G01 X9.8621  Y6.7225  
G01 X9.6762  Y6.6456  
G01 X9.5089  Y6.5338  
G01 X9.3666  Y6.3915  
G01 X9.2548  Y6.2242  
G01 X9.1779  Y6.0383  
G01 X9.1386  Y5.8410  
G01 X9.1386  Y4.3190  
G01 X9.1779  Y4.1217  
G01 X9.2548  Y3.9358  
G01 X9.3666  Y3.7685  
G00 Z2.0000  
G00 X11.9066 Y3.7685  
G01 Z-0.1500 F200   
G01 X12.0489 Y3.6262  F350   
G01 X12.2162 Y3.5144  
G01 X12.4021 Y3.4375  
G01 X12.5994 Y3.3982  
G01 X12.8006 Y3.3982  
G01 X12.9979 Y3.4375  
G01 X13.1838 Y3.5144  
G01 X13.3511 Y3.6262  
G01 X13.4934 Y3.7685  
G01 X13.6052 Y3.9358  
G01 X13.6821 Y4.1217  
G01 X13.7214 Y4.3190  
G01 X13.7214 Y5.8410  
G01 X13.6821 Y6.0383  
G01 X13.6052 Y6.2242  
G01 X13.4934 Y6.3915  
G01 X13.3511 Y6.5338  
G01 X13.1838 Y6.6456  
G01 X12.9979 Y6.7225  
G01 X12.8006 Y6.7618  
G01 X12.5994 Y6.7618  
G01 X12.4021 Y6.7225  
G01 X12.2162 Y6.6456  
G01 X12.0489 Y6.5338  
G01 X11.9066 Y6.3915  
G01 X11.7948 Y6.2242  
G01 X11.7179 Y6.0383  
G01 X11.6786 Y5.8410  
G01 X11.6786 Y4.3190  
G01 X11.7179 Y4.1217  
G01 X11.7948 Y3.9358  
G01 X11.9066 Y3.7685  
G00 Z2.0000  
G00 X14.4466 Y3.7685  
G01 Z-0.1500 F200   
G01 X14.5889 Y3.6262  F350   
G01 X14.7562 Y3.5144  
G01 X14.9421 Y3.4375  
G01 X15.1394 Y3.3982  
G01 X15.3406 Y3.3982  
G01 X15.5379 Y3.4375  
G01 X15.7238 Y3.5144  
G01 X15.8911 Y3.6262  
G01 X16.0334 Y3.7685  
G01 X16.1452 Y3.9358  
G01 X16.2221 Y4.1217  
G01 X16.2614 Y4.3190  
G01 X16.2614 Y5.8410  
G01 X16.2221 Y6.0383  
G01 X16.1452 Y6.2242  
G01 X16.0334 Y6.3915  
G01 X15.8911 Y6.5338  
G01 X15.7238 Y6.6456  
G01 X15.5379 Y6.7225  
G01 X15.3406 Y6.7618  
G01 X15.1394 Y6.7618  
G01 X14.9421 Y6.7225  
G01 X14.7562 Y6.6456  
G01 X14.5889 Y6.5338  
G01 X14.4466 Y6.3915  
G01 X14.3348 Y6.2242  
G01 X14.2579 Y6.0383  
G01 X14.2186 Y5.8410  
G01 X14.2186 Y4.3190  
G01 X14.2579 Y4.1217  
G01 X14.3348 Y3.9358  
G01 X14.4466 Y3.7685  
G00 Z2.0000  
G00 X16.9866 Y3.7685  
G01 Z-0.1500 F200   
G01 X17.1289 Y3.6262  F350   
G01 X17.2962 Y3.5144  
G01 X17.4821 Y3.4375  
G01 X17.6794 Y3.3982  
G01 X17.8806 Y3.3982  
G01 X18.0779 Y3.4375  
G01 X18.2638 Y3.5144  
G01 X18.4311 Y3.6262  
G01 X18.5734 Y3.7685  
G01 X18.6852 Y3.9358  
G01 X18.7621 Y4.1217  
G01 X18.8014 Y4.3190  
G01 X18.8014 Y5.8410  
G01 X18.7621 Y6.0383  
G01 X18.6852 Y6.2242  
G01 X18.5734 Y6.3915  
G01 X18.4311 Y6.5338  
G01 X18.2638 Y6.6456  
G01 X18.0779 Y6.7225  
G01 X17.8806 Y6.7618  
G01 X17.6794 Y6.7618  
G01 X17.4821 Y6.7225  
G01 X17.2962 Y6.6456  
G01 X17.1289 Y6.5338  
G01 X16.9866 Y6.3915  
G01 X16.8748 Y6.2242  
G01 X16.7979 Y6.0383  
G01 X16.7586 Y5.8410  
G01 X16.7586 Y4.3190  
G01 X16.7979 Y4.1217  
G01 X16.8748 Y3.9358  
G01 X16.9866 Y3.7685  
G00 Z2.0000  
G00 X19.5266 Y3.7685  
G01 Z-0.1500 F200   
G01 X19.6689 Y3.6262  F350   
G01 X19.8362 Y3.5144  
G01 X20.0221 Y3.4375  
G01 X20.2194 Y3.3982  
G01 X20.4206 Y3.3982  
G01 X20.6179 Y3.4375  
G01 X20.8038 Y3.5144  
G01 X20.9711 Y3.6262  
G01 X21.1134 Y3.7685  
G01 X21.2251 Y3.9358  
G01 X21.3021 Y4.1217  
G01 X21.3414 Y4.3190  
G01 X21.3414 Y5.8410  
G01 X21.3021 Y6.0383  
G01 X21.2251 Y6.2242  
G01 X21.1134 Y6.3915  
G01 X20.9711 Y6.5338  
G01 X20.8038 Y6.6456  
G01 X20.6179 Y6.7225  
G01 X20.4206 Y6.7618  
G01 X20.2194 Y6.7618  
G01 X20.0221 Y6.7225  
G01 X19.8362 Y6.6456  
G01 X19.6689 Y6.5338  
G01 X19.5266 Y6.3915  
G01 X19.4148 Y6.2242  
G01 X19.3379 Y6.0383  
G01 X19.2986 Y5.8410  
G01 X19.2986 Y4.3190  
G01 X19.3379 Y4.1217  
G01 X19.4148 Y3.9358  
G01 X19.5266 Y3.7685  
G00 Z2.0000  
G00 X22.0666 Y3.7685  
G01 Z-0.1500 F200   
G01 X22.2089 Y3.6262  F350   
G01 X22.3762 Y3.5144  
G01 X22.5621 Y3.4375  
G01 X22.7594 Y3.3982  
G01 X22.9606 Y3.3982  
G01 X23.1579 Y3.4375  
G01 X23.3438 Y3.5144  
G01 X23.5111 Y3.6262  
G01 X23.6534 Y3.7685  
G01 X23.7651 Y3.9358  
G01 X23.8421 Y4.1217  
G01 X23.8814 Y4.3190  
G01 X23.8814 Y5.8410  
G01 X23.8421 Y6.0383  
G01 X23.7651 Y6.2242  
G01 X23.6534 Y6.3915  
G01 X23.5111 Y6.5338  
G01 X23.3438 Y6.6456  
G01 X23.1579 Y6.7225  
G01 X22.9606 Y6.7618  
G01 X22.7594 Y6.7618  
G01 X22.5621 Y6.7225  
G01 X22.3762 Y6.6456  
G01 X22.2089 Y6.5338  
G01 X22.0666 Y6.3915  
G01 X21.9548 Y6.2242  
G01 X21.8779 Y6.0383  
G01 X21.8386 Y5.8410  
G01 X21.8386 Y4.3190  
G01 X21.8779 Y4.1217  
G01 X21.9548 Y3.9358  
G01 X22.0666 Y3.7685  
G00 Z2.0000  
G00 X27.1728 Y3.9303  
G01 Z-0.1500 F200   
G01 X27.3453 Y3.7578  F350   
G01 X27.5389 Y3.6093  
G01 X27.7501 Y3.4873  
G01 X27.9755 Y3.3940  
G01 X28.2112 Y3.3308  
G01 X28.4530 Y3.2990  
G01 X28.6970 Y3.2990  
G01 X28.9388 Y3.3308  
G01 X29.1745 Y3.3940  
G01 X29.3999 Y3.4873  
G01 X29.6111 Y3.6093  
G01 X29.8047 Y3.7578  
G01 X29.9772 Y3.9303  
G01 X30.1257 Y4.1239  
G01 X30.2477 Y4.3351  
G01 X30.3410 Y4.5605  
G01 X30.4042 Y4.7962  
G01 X30.4360 Y5.0380  
G01 X30.4360 Y5.2820  
G01 X30.4042 Y5.5238  
G01 X30.3410 Y5.7595  
G01 X30.2477 Y5.9849  
G01 X30.1257 Y6.1961  
G01 X29.9772 Y6.3897  
G01 X29.8047 Y6.5622  
G01 X29.6111 Y6.7107  
G01 X29.3999 Y6.8327  
G01 X29.1745 Y6.9260  
G01 X28.9388 Y6.9892  
G01 X28.6970 Y7.0210  
G01 X28.4530 Y7.0210  
G01 X28.2112 Y6.9892  
G01 X27.9755 Y6.9260  
G01 X27.7501 Y6.8327  
G01 X27.5389 Y6.7107  
G01 X27.3453 Y6.5622  
G01 X27.1728 Y6.3897  
G01 X27.0243 Y6.1961  
G01 X26.9023 Y5.9849  
G01 X26.8090 Y5.7595  
G01 X26.7458 Y5.5238  
G01 X26.7140 Y5.2820  
G01 X26.7140 Y5.0380  
G01 X26.7458 Y4.7962  
G01 X26.8090 Y4.5605  
G01 X26.9023 Y4.3351  
G01 X27.0243 Y4.1239  
G01 X27.1728 Y3.9303  
G00 Z2.0000  
G00 X27.1728 Y8.9303  
G01 Z-0.1500 F200   
G01 X27.3453 Y8.7578  F350   
G01 X27.5389 Y8.6093  
G01 X27.7501 Y8.4873  
G01 X27.9755 Y8.3940  
G01 X28.2112 Y8.3308  
G01 X28.4530 Y8.2990  
G01 X28.6970 Y8.2990  
G01 X28.9388 Y8.3308  
G01 X29.1745 Y8.3940  
G01 X29.3999 Y8.4873  
G01 X29.6111 Y8.6093  
G01 X29.8047 Y8.7578  
G01 X29.9772 Y8.9303  
G01 X30.1257 Y9.1239  
G01 X30.2477 Y9.3351  
G01 X30.3410 Y9.5605  
G01 X30.4042 Y9.7962  
G01 X30.4360 Y10.0380 
G01 X30.4360 Y10.2820 
G01 X30.4042 Y10.5238 
G01 X30.3410 Y10.7595 
G01 X30.2477 Y10.9849 
G01 X30.1257 Y11.1961 
G01 X29.9772 Y11.3897 
G01 X29.8047 Y11.5622 
G01 X29.6111 Y11.7107 
G01 X29.3999 Y11.8327 
G01 X29.1745 Y11.9260 
G01 X28.9388 Y11.9892 
G01 X28.6970 Y12.0210 
G01 X28.4530 Y12.0210 
G01 X28.2112 Y11.9892 
G01 X27.9755 Y11.9260 
G01 X27.7501 Y11.8327 
G01 X27.5389 Y11.7107 
G01 X27.3453 Y11.5622 
G01 X27.1728 Y11.3897 
G01 X27.0243 Y11.1961 
G01 X26.9023 Y10.9849 
G01 X26.8090 Y10.7595 
G01 X26.7458 Y10.5238 
G01 X26.7140 Y10.2820 
G01 X26.7140 Y10.0380 
G01 X26.7458 Y9.7962  
G01 X26.8090 Y9.5605  
G01 X26.9023 Y9.3351  
G01 X27.0243 Y9.1239  
G01 X27.1728 Y8.9303  
G00 Z2.0000  
G00 X23.5111 Y11.2462 
G01 Z-0.1500 F200   
G01 X23.6534 Y11.3885 F350   
G01 X23.7651 Y11.5558 
G01 X23.8421 Y11.7417 
G01 X23.8814 Y11.9390 
G01 X23.8814 Y13.4610 
G01 X23.8421 Y13.6583 
G01 X23.7651 Y13.8442 
G01 X23.6534 Y14.0115 
G01 X23.5111 Y14.1538 
G01 X23.3438 Y14.2655 
G01 X23.1579 Y14.3425 
G01 X22.9606 Y14.3818 
G01 X22.7594 Y14.3818 
G01 X22.5621 Y14.3425 
G01 X22.3762 Y14.2655 
G01 X22.2089 Y14.1538 
G01 X22.0666 Y14.0115 
G01 X21.9548 Y13.8442 
G01 X21.8779 Y13.6583 
G01 X21.8386 Y13.4610 
G01 X21.8386 Y11.9390 
G01 X21.8779 Y11.7417 
G01 X21.9548 Y11.5558 
G01 X22.0666 Y11.3885 
G01 X22.2089 Y11.2462 
G01 X22.3762 Y11.1344 
G01 X22.5621 Y11.0575 
G01 X22.7594 Y11.0182 
G01 X22.9606 Y11.0182 
G01 X23.1579 Y11.0575 
G01 X23.3438 Y11.1344 
G01 X23.5111 Y11.2462 
G00 Z2.0000  
G00 X20.9711 Y11.2462 
G01 Z-0.1500 F200   
G01 X21.1134 Y11.3885 F350   
G01 X21.2251 Y11.5558 
G01 X21.3021 Y11.7417 
G01 X21.3414 Y11.9390 
G01 X21.3414 Y13.4610 
G01 X21.3021 Y13.6583 
G01 X21.2251 Y13.8442 
G01 X21.1134 Y14.0115 
G01 X20.9711 Y14.1538 
G01 X20.8038 Y14.2655 
G01 X20.6179 Y14.3425 
G01 X20.4206 Y14.3818 
G01 X20.2194 Y14.3818 
G01 X20.0221 Y14.3425 
G01 X19.8362 Y14.2655 
G01 X19.6689 Y14.1538 
G01 X19.5266 Y14.0115 
G01 X19.4148 Y13.8442 
G01 X19.3379 Y13.6583 
G01 X19.2986 Y13.4610 
G01 X19.2986 Y11.9390 
G01 X19.3379 Y11.7417 
G01 X19.4148 Y11.5558 
G01 X19.5266 Y11.3885 
G01 X19.6689 Y11.2462 
G01 X19.8362 Y11.1344 
G01 X20.0221 Y11.0575 
G01 X20.2194 Y11.0182 
G01 X20.4206 Y11.0182 
G01 X20.6179 Y11.0575 
G01 X20.8038 Y11.1344 
G01 X20.9711 Y11.2462 
G00 Z2.0000  
G00 X18.4311 Y11.2462 
G01 Z-0.1500 F200   
G01 X18.5734 Y11.3885 F350   
G01 X18.6852 Y11.5558 
G01 X18.7621 Y11.7417 
G01 X18.8014 Y11.9390 
G01 X18.8014 Y13.4610 
G01 X18.7621 Y13.6583 
G01 X18.6852 Y13.8442 
G01 X18.5734 Y14.0115 
G01 X18.4311 Y14.1538 
G01 X18.2638 Y14.2655 
G01 X18.0779 Y14.3425 
G01 X17.8806 Y14.3818 
G01 X17.6794 Y14.3818 
G01 X17.4821 Y14.3425 
G01 X17.2962 Y14.2655 
G01 X17.1289 Y14.1538 
G01 X16.9866 Y14.0115 
G01 X16.8748 Y13.8442 
G01 X16.7979 Y13.6583 
G01 X16.7586 Y13.4610 
G01 X16.7586 Y11.9390 
G01 X16.7979 Y11.7417 
G01 X16.8748 Y11.5558 
G01 X16.9866 Y11.3885 
G01 X17.1289 Y11.2462 
G01 X17.2962 Y11.1344 
G01 X17.4821 Y11.0575 
G01 X17.6794 Y11.0182 
G01 X17.8806 Y11.0182 
G01 X18.0779 Y11.0575 
G01 X18.2638 Y11.1344 
G01 X18.4311 Y11.2462 
G00 Z2.0000  
G00 X15.8911 Y11.2462 
G01 Z-0.1500 F200   
G01 X16.0334 Y11.3885 F350   
G01 X16.1452 Y11.5558 
G01 X16.2221 Y11.7417 
G01 X16.2614 Y11.9390 
G01 X16.2614 Y13.4610 
G01 X16.2221 Y13.6583 
G01 X16.1452 Y13.8442 
G01 X16.0334 Y14.0115 
G01 X15.8911 Y14.1538 
G01 X15.7238 Y14.2655 
G01 X15.5379 Y14.3425 
G01 X15.3406 Y14.3818 
G01 X15.1394 Y14.3818 
G01 X14.9421 Y14.3425 
G01 X14.7562 Y14.2655 
G01 X14.5889 Y14.1538 
G01 X14.4466 Y14.0115 
G01 X14.3348 Y13.8442 
G01 X14.2579 Y13.6583 
G01 X14.2186 Y13.4610 
G01 X14.2186 Y11.9390 
G01 X14.2579 Y11.7417 
G01 X14.3348 Y11.5558 
G01 X14.4466 Y11.3885 
G01 X14.5889 Y11.2462 
G01 X14.7562 Y11.1344 
G01 X14.9421 Y11.0575 
G01 X15.1394 Y11.0182 
G01 X15.3406 Y11.0182 
G01 X15.5379 Y11.0575 
G01 X15.7238 Y11.1344 
G01 X15.8911 Y11.2462 
G00 Z2.0000  
G00 X13.3511 Y11.2462 
G01 Z-0.1500 F200   
G01 X13.4934 Y11.3885 F350   
G01 X13.6052 Y11.5558 
G01 X13.6821 Y11.7417 
G01 X13.7214 Y11.9390 
G01 X13.7214 Y13.4610 
G01 X13.6821 Y13.6583 
G01 X13.6052 Y13.8442 
G01 X13.4934 Y14.0115 
G01 X13.3511 Y14.1538 
G01 X13.1838 Y14.2655 
G01 X12.9979 Y14.3425 
G01 X12.8006 Y14.3818 
G01 X12.5994 Y14.3818 
G01 X12.4021 Y14.3425 
G01 X12.2162 Y14.2655 
G01 X12.0489 Y14.1538 
G01 X11.9066 Y14.0115 
G01 X11.7948 Y13.8442 
G01 X11.7179 Y13.6583 
G01 X11.6786 Y13.4610 
G01 X11.6786 Y11.9390 
G01 X11.7179 Y11.7417 
G01 X11.7948 Y11.5558 
G01 X11.9066 Y11.3885 
G01 X12.0489 Y11.2462 
G01 X12.2162 Y11.1344 
G01 X12.4021 Y11.0575 
G01 X12.5994 Y11.0182 
G01 X12.8006 Y11.0182 
G01 X12.9979 Y11.0575 
G01 X13.1838 Y11.1344 
G01 X13.3511 Y11.2462 
G00 Z2.0000  
G00 X10.8111 Y11.2462 
G01 Z-0.1500 F200   
G01 X10.9534 Y11.3885 F350   
G01 X11.0651 Y11.5558 
G01 X11.1421 Y11.7417 
G01 X11.1814 Y11.9390 
G01 X11.1814 Y13.4610 
G01 X11.1421 Y13.6583 
G01 X11.0651 Y13.8442 
G01 X10.9534 Y14.0115 
G01 X10.8111 Y14.1538 
G01 X10.6438 Y14.2655 
G01 X10.4579 Y14.3425 
G01 X10.2606 Y14.3818 
G01 X10.0594 Y14.3818 
G01 X9.8621  Y14.3425 
G01 X9.6762  Y14.2655 
G01 X9.5089  Y14.1538 
G01 X9.3666  Y14.0115 
G01 X9.2548  Y13.8442 
G01 X9.1779  Y13.6583 
G01 X9.1386  Y13.4610 
G01 X9.1386  Y11.9390 
G01 X9.1779  Y11.7417 
G01 X9.2548  Y11.5558 
G01 X9.3666  Y11.3885 
G01 X9.5089  Y11.2462 
G01 X9.6762  Y11.1344 
G01 X9.8621  Y11.0575 
G01 X10.0594 Y11.0182 
G01 X10.2606 Y11.0182 
G01 X10.4579 Y11.0575 
G01 X10.6438 Y11.1344 
G01 X10.8111 Y11.2462 
G00 Z2.0000  
G00 X8.2711  Y11.2462 
G01 Z-0.1500 F200   
G01 X8.4134  Y11.3885 F350   
G01 X8.5252  Y11.5558 
G01 X8.6021  Y11.7417 
G01 X8.6414  Y11.9390 
G01 X8.6414  Y13.4610 
G01 X8.6021  Y13.6583 
G01 X8.5252  Y13.8442 
G01 X8.4134  Y14.0115 
G01 X8.2711  Y14.1538 
G01 X8.1038  Y14.2655 
G01 X7.9179  Y14.3425 
G01 X7.7206  Y14.3818 
G01 X7.5194  Y14.3818 
G01 X7.3221  Y14.3425 
G01 X7.1362  Y14.2655 
G01 X6.9689  Y14.1538 
G01 X6.8266  Y14.0115 
G01 X6.7148  Y13.8442 
G01 X6.6379  Y13.6583 
G01 X6.5986  Y13.4610 
G01 X6.5986  Y11.9390 
G01 X6.6379  Y11.7417 
G01 X6.7148  Y11.5558 
G01 X6.8266  Y11.3885 
G01 X6.9689  Y11.2462 
G01 X7.1362  Y11.1344 
G01 X7.3221  Y11.0575 
G01 X7.5194  Y11.0182 
G01 X7.7206  Y11.0182 
G01 X7.9179  Y11.0575 
G01 X8.1038  Y11.1344 
G01 X8.2711  Y11.2462 
G00 Z2.0000  
G00 X28.7366 Y14.2933 
G01 Z-0.1500 F200   
G01 X28.8983 Y14.1316 F350   
G01 X29.0834 Y13.9971 
G01 X29.2872 Y13.8933 
G01 X29.5047 Y13.8226 
G01 X29.7306 Y13.7868 
G01 X29.9594 Y13.7868 
G01 X30.1853 Y13.8226 
G01 X30.4028 Y13.8933 
G01 X30.6066 Y13.9971 
G01 X30.7917 Y14.1316 
G01 X30.9534 Y14.2933 
G01 X31.0879 Y14.4784 
G01 X31.1917 Y14.6822 
G01 X31.2624 Y14.8997 
G01 X31.2982 Y15.1256 
G01 X31.2982 Y15.3544 
G01 X31.2624 Y15.5803 
G01 X31.1917 Y15.7978 
G01 X31.0879 Y16.0016 
G01 X30.9534 Y16.1867 
G01 X30.7917 Y16.3484 
G01 X30.6066 Y16.4829 
G01 X30.5534 Y16.5100 
G01 X30.6066 Y16.5371 
G01 X30.7917 Y16.6716 
G01 X30.9534 Y16.8333 
G01 X31.0879 Y17.0184 
G01 X31.1917 Y17.2222 
G01 X31.2624 Y17.4397 
G01 X31.2982 Y17.6656 
G01 X31.2982 Y17.8944 
G01 X31.2624 Y18.1203 
G01 X31.1917 Y18.3378 
G01 X31.0879 Y18.5416 
G01 X30.9534 Y18.7267 
G01 X30.7917 Y18.8884 
G01 X30.6066 Y19.0229 
G01 X30.4028 Y19.1267 
G01 X30.1853 Y19.1974 
G01 X29.9594 Y19.2332 
G01 X29.7306 Y19.2332 
G01 X29.5047 Y19.1974 
G01 X29.2872 Y19.1267 
G01 X29.0834 Y19.0229 
G01 X28.8983 Y18.8884 
G01 X28.7366 Y18.7267 
G01 X28.6021 Y18.5416 
G01 X28.4983 Y18.3378 
G01 X28.4276 Y18.1203 
G01 X28.3918 Y17.8944 
G01 X28.3918 Y17.6656 
G01 X28.4276 Y17.4397 
G01 X28.4983 Y17.2222 
G01 X28.6021 Y17.0184 
G01 X28.7366 Y16.8333 
G01 X28.8983 Y16.6716 
G01 X29.0834 Y16.5371 
G01 X29.1366 Y16.5100 
G01 X29.0834 Y16.4829 
G01 X28.8983 Y16.3484 
G01 X28.7366 Y16.1867 
G01 X28.6021 Y16.0016 
G01 X28.4983 Y15.7978 
G01 X28.4276 Y15.5803 
G01 X28.3918 Y15.3544 
G01 X28.3918 Y15.1256 
G01 X28.4276 Y14.8997 
G01 X28.4983 Y14.6822 
G01 X28.6021 Y14.4784 
G01 X28.7366 Y14.2933 
G00 Z2.0000  
G00 X27.6167 Y20.4816 
G01 Z-0.1500 F200   
G01 X27.7784 Y20.6433 F350   
G01 X27.9129 Y20.8284 
G01 X28.0167 Y21.0322 
G01 X28.0874 Y21.2497 
G01 X28.1232 Y21.4756 
G01 X28.1232 Y21.7044 
G01 X28.0874 Y21.9303 
G01 X28.0167 Y22.1478 
G01 X27.9129 Y22.3516 
G01 X27.7784 Y22.5367 
G01 X27.6167 Y22.6984 
G01 X27.4316 Y22.8329 
G01 X27.2278 Y22.9367 
G01 X27.0103 Y23.0074 
G01 X26.7844 Y23.0432 
G01 X26.5556 Y23.0432 
G01 X26.3297 Y23.0074 
G01 X26.1122 Y22.9367 
G01 X25.9084 Y22.8329 
G01 X25.7233 Y22.6984 
G01 X25.5616 Y22.5367 
G01 X25.4271 Y22.3516 
G01 X25.3233 Y22.1478 
G01 X25.2526 Y21.9303 
G01 X25.2168 Y21.7044 
G01 X25.2168 Y21.4756 
G01 X25.2526 Y21.2497 
G01 X25.3233 Y21.0322 
G01 X25.4271 Y20.8284 
G01 X25.5616 Y20.6433 
G01 X25.7233 Y20.4816 
G01 X25.9084 Y20.3471 
G01 X26.1122 Y20.2433 
G01 X26.3297 Y20.1726 
G01 X26.5556 Y20.1368 
G01 X26.7844 Y20.1368 
G01 X27.0103 Y20.1726 
G01 X27.2278 Y20.2433 
G01 X27.4316 Y20.3471 
G01 X27.6167 Y20.4816 
G00 Z2.0000  
G00 X27.5628 Y23.6509 
G01 Z-0.1500 F200   
G01 X27.8132 Y23.6112 F350   
G01 X28.0668 Y23.6112 
G01 X28.3172 Y23.6509 
G01 X28.5584 Y23.7292 
G01 X28.7843 Y23.8443 
G01 X28.9895 Y23.9934 
G01 X29.1688 Y24.1727 
G01 X29.3178 Y24.3778 
G01 X29.4330 Y24.6038 
G01 X29.5113 Y24.8450 
G01 X29.5510 Y25.0954 
G01 X29.5510 Y25.3490 
G01 X29.5113 Y25.5994 
G01 X29.4330 Y25.8406 
G01 X29.3178 Y26.0665 
G01 X29.1688 Y26.2717 
G01 X28.9895 Y26.4510 
G01 X28.7843 Y26.6000 
G01 X28.6471 Y26.6700 
G01 X28.7843 Y26.7400 
G01 X28.9895 Y26.8890 
G01 X29.1688 Y27.0683 
G01 X29.3178 Y27.2735 
G01 X29.4330 Y27.4994 
G01 X29.5113 Y27.7406 
G01 X29.5510 Y27.9910 
G01 X29.5510 Y28.2446 
G01 X29.5113 Y28.4950 
G01 X29.4330 Y28.7362 
G01 X29.3178 Y28.9621 
G01 X29.1688 Y29.1673 
G01 X28.9895 Y29.3466 
G01 X28.7843 Y29.4956 
G01 X28.5584 Y29.6108 
G01 X28.3172 Y29.6891 
G01 X28.0668 Y29.7288 
G01 X27.8132 Y29.7288 
G01 X27.5628 Y29.6891 
G01 X27.3216 Y29.6108 
G01 X27.0956 Y29.4956 
G01 X26.8905 Y29.3466 
G01 X26.7112 Y29.1673 
G01 X26.5621 Y28.9621 
G01 X26.4470 Y28.7362 
G01 X26.3687 Y28.4950 
G01 X26.3290 Y28.2446 
G01 X26.3290 Y27.9910 
G01 X26.3687 Y27.7406 
G01 X26.4470 Y27.4994 
G01 X26.5621 Y27.2735 
G01 X26.7112 Y27.0683 
G01 X26.8905 Y26.8890 
G01 X27.0956 Y26.7400 
G01 X27.2329 Y26.6700 
G01 X27.0956 Y26.6000 
G01 X26.8905 Y26.4510 
G01 X26.7112 Y26.2717 
G01 X26.5621 Y26.0665 
G01 X26.4470 Y25.8406 
G01 X26.3687 Y25.5994 
G01 X26.3290 Y25.3490 
G01 X26.3290 Y25.0954 
G01 X26.3687 Y24.8450 
G01 X26.4470 Y24.6038 
G01 X26.5621 Y24.3778 
G01 X26.7112 Y24.1727 
G01 X26.8905 Y23.9934 
G01 X27.0956 Y23.8443 
G01 X27.3216 Y23.7292 
G01 X27.5628 Y23.6509 
G00 Z2.0000  
G00 X27.5997 Y30.3326 
G01 Z-0.1500 F200   
G01 X27.8256 Y30.2968 F350   
G01 X28.0544 Y30.2968 
G01 X28.2803 Y30.3326 
G01 X28.4978 Y30.4033 
G01 X28.7016 Y30.5071 
G01 X28.8867 Y30.6416 
G01 X29.0484 Y30.8033 
G01 X29.1829 Y30.9884 
G01 X29.2867 Y31.1922 
G01 X29.3574 Y31.4097 
G01 X29.3932 Y31.6356 
G01 X29.3932 Y31.8644 
G01 X29.3574 Y32.0903 
G01 X29.2867 Y32.3078 
G01 X29.1829 Y32.5116 
G01 X29.0484 Y32.6967 
G01 X28.8867 Y32.8584 
G01 X28.7016 Y32.9929 
G01 X28.6484 Y33.0200 
G01 X28.7016 Y33.0471 
G01 X28.8867 Y33.1816 
G01 X29.0484 Y33.3433 
G01 X29.1829 Y33.5284 
G01 X29.2867 Y33.7322 
G01 X29.3574 Y33.9497 
G01 X29.3932 Y34.1756 
G01 X29.3932 Y34.4044 
G01 X29.3574 Y34.6303 
G01 X29.2867 Y34.8478 
G01 X29.1829 Y35.0516 
G01 X29.0484 Y35.2367 
G01 X28.8867 Y35.3984 
G01 X28.7016 Y35.5329 
G01 X28.6484 Y35.5600 
G01 X28.7016 Y35.5871 
G01 X28.8867 Y35.7216 
G01 X29.0484 Y35.8833 
G01 X29.1829 Y36.0684 
G01 X29.2867 Y36.2722 
G01 X29.3574 Y36.4897 
G01 X29.3932 Y36.7156 
G01 X29.3932 Y36.9444 
G01 X29.3574 Y37.1703 
G01 X29.2867 Y37.3878 
G01 X29.1829 Y37.5916 
G01 X29.0484 Y37.7767 
G01 X28.8867 Y37.9384 
G01 X28.7016 Y38.0729 
G01 X28.4978 Y38.1767 
G01 X28.2803 Y38.2474 
G01 X28.0544 Y38.2832 
G01 X27.8256 Y38.2832 
G01 X27.5997 Y38.2474 
G01 X27.3822 Y38.1767 
G01 X27.1784 Y38.0729 
G01 X26.9933 Y37.9384 
G01 X26.8316 Y37.7767 
G01 X26.6971 Y37.5916 
G01 X26.5933 Y37.3878 
G01 X26.5226 Y37.1703 
G01 X26.4868 Y36.9444 
G01 X26.4868 Y36.7156 
G01 X26.5226 Y36.4897 
G01 X26.5933 Y36.2722 
G01 X26.6971 Y36.0684 
G01 X26.8316 Y35.8833 
G01 X26.9933 Y35.7216 
G01 X27.1784 Y35.5871 
G01 X27.2316 Y35.5600 
G01 X27.1784 Y35.5329 
G01 X26.9933 Y35.3984 
G01 X26.8316 Y35.2367 
G01 X26.6971 Y35.0516 
G01 X26.5933 Y34.8478 
G01 X26.5226 Y34.6303 
G01 X26.4868 Y34.4044 
G01 X26.4868 Y34.1756 
G01 X26.5226 Y33.9497 
G01 X26.5933 Y33.7322 
G01 X26.6971 Y33.5284 
G01 X26.8316 Y33.3433 
G01 X26.9933 Y33.1816 
G01 X27.1784 Y33.0471 
G01 X27.2316 Y33.0200 
G01 X27.1784 Y32.9929 
G01 X26.9933 Y32.8584 
G01 X26.8316 Y32.6967 
G01 X26.6971 Y32.5116 
G01 X26.5933 Y32.3078 
G01 X26.5226 Y32.0903 
G01 X26.4868 Y31.8644 
G01 X26.4868 Y31.6356 
G01 X26.5226 Y31.4097 
G01 X26.5933 Y31.1922 
G01 X26.6971 Y30.9884 
G01 X26.8316 Y30.8033 
G01 X26.9933 Y30.6416 
G01 X27.1784 Y30.5071 
G01 X27.3822 Y30.4033 
G01 X27.5997 Y30.3326 
G00 Z2.0000  
G00 X33.3433 Y22.6984 
G01 Z-0.1500 F200   
G01 X33.1816 Y22.5367 F350   
G01 X33.0471 Y22.3516 
G01 X32.9433 Y22.1478 
G01 X32.8726 Y21.9303 
G01 X32.8368 Y21.7044 
G01 X32.8368 Y21.4756 
G01 X32.8726 Y21.2497 
G01 X32.9433 Y21.0322 
G01 X33.0471 Y20.8284 
G01 X33.1816 Y20.6433 
G01 X33.3433 Y20.4816 
G01 X33.5284 Y20.3471 
G01 X33.7322 Y20.2433 
G01 X33.9497 Y20.1726 
G01 X34.1756 Y20.1368 
G01 X34.4044 Y20.1368 
G01 X34.6303 Y20.1726 
G01 X34.8478 Y20.2433 
G01 X35.0516 Y20.3471 
G01 X35.2367 Y20.4816 
G01 X35.3984 Y20.6433 
G01 X35.5329 Y20.8284 
G01 X35.6367 Y21.0322 
G01 X35.7074 Y21.2497 
G01 X35.7432 Y21.4756 
G01 X35.7432 Y21.7044 
G01 X35.7074 Y21.9303 
G01 X35.6367 Y22.1478 
G01 X35.5329 Y22.3516 
G01 X35.3984 Y22.5367 
G01 X35.2367 Y22.6984 
G01 X35.0516 Y22.8329 
G01 X34.8478 Y22.9367 
G01 X34.6303 Y23.0074 
G01 X34.4044 Y23.0432 
G01 X34.1756 Y23.0432 
G01 X33.9497 Y23.0074 
G01 X33.7322 Y22.9367 
G01 X33.5284 Y22.8329 
G01 X33.3433 Y22.6984 
G00 Z2.0000  
G00 X25.3573 Y47.0312 
G01 Z-0.1500 F200   
G01 X25.5366 Y47.2105 F350   
G01 X25.6856 Y47.4156 
G01 X25.8008 Y47.6416 
G01 X25.8791 Y47.8828 
G01 X25.9188 Y48.1332 
G01 X25.9188 Y48.3868 
G01 X25.8791 Y48.6372 
G01 X25.8008 Y48.8784 
G01 X25.6856 Y49.1043 
G01 X25.5366 Y49.3095 
G01 X25.3573 Y49.4888 
G01 X25.1521 Y49.6378 
G01 X24.9262 Y49.7530 
